( This file was created automatically using CamBam )
( http://www.brusselsprout.org/CAMBAM )
( 3/17/2016 1:28:46 PM )
( T0 : 0.25 )
G20
G90
G64
G00 Z0.125
( MOPProfile_2 )
( T0 : 0.25 )
M06 T0
M03
G00 X0.061421 Y0
G01 F15 Z-0.03
G01 F300 X0.059328 Y-0.015897
G01 X0.053192 Y-0.030711
G01 X0.043431 Y-0.043431
G01 X0.030711 Y-0.053192
G01 X0.015897 Y-0.059328
G01 X0 Y-0.061421
G01 X-0.015897 Y-0.059328
G01 X-0.030711 Y-0.053192
G01 X-0.043431 Y-0.043431
G01 X-0.053192 Y-0.030711
G01 X-0.059328 Y-0.015897
G01 X-0.061421 Y0
G01 X-0.059328 Y0.015897
G01 X-0.053192 Y0.030711
G01 X-0.043431 Y0.043431
G01 X-0.030711 Y0.053192
G01 X-0.015897 Y0.059328
G01 X0 Y0.061421
G01 X0.015897 Y0.059328
G01 X0.030711 Y0.053192
G01 X0.043431 Y0.043431
G01 X0.053192 Y0.030711
G01 X0.059328 Y0.015897
G01 X0.061421 Y0
G01 F15 Z-0.06
G01 F300 X0.059328 Y-0.015897
G01 X0.053192 Y-0.030711
G01 X0.043431 Y-0.043431
G01 X0.030711 Y-0.053192
G01 X0.015897 Y-0.059328
G01 X0 Y-0.061421
G01 X-0.015897 Y-0.059328
G01 X-0.030711 Y-0.053192
G01 X-0.043431 Y-0.043431
G01 X-0.053192 Y-0.030711
G01 X-0.059328 Y-0.015897
G01 X-0.061421 Y0
G01 X-0.059328 Y0.015897
G01 X-0.053192 Y0.030711
G01 X-0.043431 Y0.043431
G01 X-0.030711 Y0.053192
G01 X-0.015897 Y0.059328
G01 X0 Y0.061421
G01 X0.015897 Y0.059328
G01 X0.030711 Y0.053192
G01 X0.043431 Y0.043431
G01 X0.053192 Y0.030711
G01 X0.059328 Y0.015897
G01 X0.061421 Y0
G01 F15 Z-0.09
G01 F300 X0.059328 Y-0.015897
G01 X0.053192 Y-0.030711
G01 X0.043431 Y-0.043431
G01 X0.030711 Y-0.053192
G01 X0.015897 Y-0.059328
G01 X0 Y-0.061421
G01 X-0.015897 Y-0.059328
G01 X-0.030711 Y-0.053192
G01 X-0.043431 Y-0.043431
G01 X-0.053192 Y-0.030711
G01 X-0.059328 Y-0.015897
G01 X-0.061421 Y0
G01 X-0.059328 Y0.015897
G01 X-0.053192 Y0.030711
G01 X-0.043431 Y0.043431
G01 X-0.030711 Y0.053192
G01 X-0.015897 Y0.059328
G01 X0 Y0.061421
G01 X0.015897 Y0.059328
G01 X0.030711 Y0.053192
G01 X0.043431 Y0.043431
G01 X0.053192 Y0.030711
G01 X0.059328 Y0.015897
G01 X0.061421 Y0
G01 F15 Z-0.12
G01 F300 X0.059328 Y-0.015897
G01 X0.053192 Y-0.030711
G01 X0.043431 Y-0.043431
G01 X0.030711 Y-0.053192
G01 X0.015897 Y-0.059328
G01 X0 Y-0.061421
G01 X-0.015897 Y-0.059328
G01 X-0.030711 Y-0.053192
G01 X-0.043431 Y-0.043431
G01 X-0.053192 Y-0.030711
G01 X-0.059328 Y-0.015897
G01 X-0.061421 Y0
G01 X-0.059328 Y0.015897
G01 X-0.053192 Y0.030711
G01 X-0.043431 Y0.043431
G01 X-0.030711 Y0.053192
G01 X-0.015897 Y0.059328
G01 X0 Y0.061421
G01 X0.015897 Y0.059328
G01 X0.030711 Y0.053192
G01 X0.043431 Y0.043431
G01 X0.053192 Y0.030711
G01 X0.059328 Y0.015897
G01 X0.061421 Y0
G01 F15 Z-0.15
G01 F300 X0.059328 Y-0.015897
G01 X0.053192 Y-0.030711
G01 X0.043431 Y-0.043431
G01 X0.030711 Y-0.053192
G01 X0.015897 Y-0.059328
G01 X0 Y-0.061421
G01 X-0.015897 Y-0.059328
G01 X-0.030711 Y-0.053192
G01 X-0.043431 Y-0.043431
G01 X-0.053192 Y-0.030711
G01 X-0.059328 Y-0.015897
G01 X-0.061421 Y0
G01 X-0.059328 Y0.015897
G01 X-0.053192 Y0.030711
G01 X-0.043431 Y0.043431
G01 X-0.030711 Y0.053192
G01 X-0.015897 Y0.059328
G01 X0 Y0.061421
G01 X0.015897 Y0.059328
G01 X0.030711 Y0.053192
G01 X0.043431 Y0.043431
G01 X0.053192 Y0.030711
G01 X0.059328 Y0.015897
G01 X0.061421 Y0
G01 F15 Z-0.18
G01 F300 X0.059328 Y-0.015897
G01 X0.053192 Y-0.030711
G01 X0.043431 Y-0.043431
G01 X0.030711 Y-0.053192
G01 X0.015897 Y-0.059328
G01 X0 Y-0.061421
G01 X-0.015897 Y-0.059328
G01 X-0.030711 Y-0.053192
G01 X-0.043431 Y-0.043431
G01 X-0.053192 Y-0.030711
G01 X-0.059328 Y-0.015897
G01 X-0.061421 Y0
G01 X-0.059328 Y0.015897
G01 X-0.053192 Y0.030711
G01 X-0.043431 Y0.043431
G01 X-0.030711 Y0.053192
G01 X-0.015897 Y0.059328
G01 X0 Y0.061421
G01 X0.015897 Y0.059328
G01 X0.030711 Y0.053192
G01 X0.043431 Y0.043431
G01 X0.053192 Y0.030711
G01 X0.059328 Y0.015897
G01 X0.061421 Y0
G01 F15 Z-0.21
G01 F300 X0.059328 Y-0.015897
G01 X0.053192 Y-0.030711
G01 X0.043431 Y-0.043431
G01 X0.030711 Y-0.053192
G01 X0.015897 Y-0.059328
G01 X0 Y-0.061421
G01 X-0.015897 Y-0.059328
G01 X-0.030711 Y-0.053192
G01 X-0.043431 Y-0.043431
G01 X-0.053192 Y-0.030711
G01 X-0.059328 Y-0.015897
G01 X-0.061421 Y0
G01 X-0.059328 Y0.015897
G01 X-0.053192 Y0.030711
G01 X-0.043431 Y0.043431
G01 X-0.030711 Y0.053192
G01 X-0.015897 Y0.059328
G01 X0 Y0.061421
G01 X0.015897 Y0.059328
G01 X0.030711 Y0.053192
G01 X0.043431 Y0.043431
G01 X0.053192 Y0.030711
G01 X0.059328 Y0.015897
G01 X0.061421 Y0
G01 F15 Z-0.24
G01 F300 X0.059328 Y-0.015897
G01 X0.053192 Y-0.030711
G01 X0.043431 Y-0.043431
G01 X0.030711 Y-0.053192
G01 X0.015897 Y-0.059328
G01 X0 Y-0.061421
G01 X-0.015897 Y-0.059328
G01 X-0.030711 Y-0.053192
G01 X-0.043431 Y-0.043431
G01 X-0.053192 Y-0.030711
G01 X-0.059328 Y-0.015897
G01 X-0.061421 Y0
G01 X-0.059328 Y0.015897
G01 X-0.053192 Y0.030711
G01 X-0.043431 Y0.043431
G01 X-0.030711 Y0.053192
G01 X-0.015897 Y0.059328
G01 X0 Y0.061421
G01 X0.015897 Y0.059328
G01 X0.030711 Y0.053192
G01 X0.043431 Y0.043431
G01 X0.053192 Y0.030711
G01 X0.059328 Y0.015897
G01 X0.061421 Y0
G01 F15 Z-0.27
G01 F300 X0.059328 Y-0.015897
G01 X0.053192 Y-0.030711
G01 X0.043431 Y-0.043431
G01 X0.030711 Y-0.053192
G01 X0.015897 Y-0.059328
G01 X0 Y-0.061421
G01 X-0.015897 Y-0.059328
G01 X-0.030711 Y-0.053192
G01 X-0.043431 Y-0.043431
G01 X-0.053192 Y-0.030711
G01 X-0.059328 Y-0.015897
G01 X-0.061421 Y0
G01 X-0.059328 Y0.015897
G01 X-0.053192 Y0.030711
G01 X-0.043431 Y0.043431
G01 X-0.030711 Y0.053192
G01 X-0.015897 Y0.059328
G01 X0 Y0.061421
G01 X0.015897 Y0.059328
G01 X0.030711 Y0.053192
G01 X0.043431 Y0.043431
G01 X0.053192 Y0.030711
G01 X0.059328 Y0.015897
G01 X0.061421 Y0
G01 F15 Z-0.3
G01 F300 X0.059328 Y-0.015897
G01 X0.053192 Y-0.030711
G01 X0.043431 Y-0.043431
G01 X0.030711 Y-0.053192
G01 X0.015897 Y-0.059328
G01 X0 Y-0.061421
G01 X-0.015897 Y-0.059328
G01 X-0.030711 Y-0.053192
G01 X-0.043431 Y-0.043431
G01 X-0.053192 Y-0.030711
G01 X-0.059328 Y-0.015897
G01 X-0.061421 Y0
G01 X-0.059328 Y0.015897
G01 X-0.053192 Y0.030711
G01 X-0.043431 Y0.043431
G01 X-0.030711 Y0.053192
G01 X-0.015897 Y0.059328
G01 X0 Y0.061421
G01 X0.015897 Y0.059328
G01 X0.030711 Y0.053192
G01 X0.043431 Y0.043431
G01 X0.053192 Y0.030711
G01 X0.059328 Y0.015897
G01 X0.061421 Y0
G01 F15 Z-0.33
G01 F300 X0.059328 Y-0.015897
G01 X0.053192 Y-0.030711
G01 X0.043431 Y-0.043431
G01 X0.030711 Y-0.053192
G01 X0.015897 Y-0.059328
G01 X0 Y-0.061421
G01 X-0.015897 Y-0.059328
G01 X-0.030711 Y-0.053192
G01 X-0.043431 Y-0.043431
G01 X-0.053192 Y-0.030711
G01 X-0.059328 Y-0.015897
G01 X-0.061421 Y0
G01 X-0.059328 Y0.015897
G01 X-0.053192 Y0.030711
G01 X-0.043431 Y0.043431
G01 X-0.030711 Y0.053192
G01 X-0.015897 Y0.059328
G01 X0 Y0.061421
G01 X0.015897 Y0.059328
G01 X0.030711 Y0.053192
G01 X0.043431 Y0.043431
G01 X0.053192 Y0.030711
G01 X0.059328 Y0.015897
G01 X0.061421 Y0
G01 F15 Z-0.36
G01 F300 X0.059328 Y-0.015897
G01 X0.053192 Y-0.030711
G01 X0.043431 Y-0.043431
G01 X0.030711 Y-0.053192
G01 X0.015897 Y-0.059328
G01 X0 Y-0.061421
G01 X-0.015897 Y-0.059328
G01 X-0.030711 Y-0.053192
G01 X-0.043431 Y-0.043431
G01 X-0.053192 Y-0.030711
G01 X-0.059328 Y-0.015897
G01 X-0.061421 Y0
G01 X-0.059328 Y0.015897
G01 X-0.053192 Y0.030711
G01 X-0.043431 Y0.043431
G01 X-0.030711 Y0.053192
G01 X-0.015897 Y0.059328
G01 X0 Y0.061421
G01 X0.015897 Y0.059328
G01 X0.030711 Y0.053192
G01 X0.043431 Y0.043431
G01 X0.053192 Y0.030711
G01 X0.059328 Y0.015897
G01 X0.061421 Y0
G01 F15 Z-0.39
G01 F300 X0.059328 Y-0.015897
G01 X0.053192 Y-0.030711
G01 X0.043431 Y-0.043431
G01 X0.030711 Y-0.053192
G01 X0.015897 Y-0.059328
G01 X0 Y-0.061421
G01 X-0.015897 Y-0.059328
G01 X-0.030711 Y-0.053192
G01 X-0.043431 Y-0.043431
G01 X-0.053192 Y-0.030711
G01 X-0.059328 Y-0.015897
G01 X-0.061421 Y0
G01 X-0.059328 Y0.015897
G01 X-0.053192 Y0.030711
G01 X-0.043431 Y0.043431
G01 X-0.030711 Y0.053192
G01 X-0.015897 Y0.059328
G01 X0 Y0.061421
G01 X0.015897 Y0.059328
G01 X0.030711 Y0.053192
G01 X0.043431 Y0.043431
G01 X0.053192 Y0.030711
G01 X0.059328 Y0.015897
G01 X0.061421 Y0
G01 F15 Z-0.42
G01 F300 X0.059328 Y-0.015897
G01 X0.053192 Y-0.030711
G01 X0.043431 Y-0.043431
G01 X0.030711 Y-0.053192
G01 X0.015897 Y-0.059328
G01 X0 Y-0.061421
G01 X-0.015897 Y-0.059328
G01 X-0.030711 Y-0.053192
G01 X-0.043431 Y-0.043431
G01 X-0.053192 Y-0.030711
G01 X-0.059328 Y-0.015897
G01 X-0.061421 Y0
G01 X-0.059328 Y0.015897
G01 X-0.053192 Y0.030711
G01 X-0.043431 Y0.043431
G01 X-0.030711 Y0.053192
G01 X-0.015897 Y0.059328
G01 X0 Y0.061421
G01 X0.015897 Y0.059328
G01 X0.030711 Y0.053192
G01 X0.043431 Y0.043431
G01 X0.053192 Y0.030711
G01 X0.059328 Y0.015897
G01 X0.061421 Y0
G01 F15 Z-0.45
G01 F300 X0.059328 Y-0.015897
G01 X0.053192 Y-0.030711
G01 X0.043431 Y-0.043431
G01 X0.030711 Y-0.053192
G01 X0.015897 Y-0.059328
G01 X0 Y-0.061421
G01 X-0.015897 Y-0.059328
G01 X-0.030711 Y-0.053192
G01 X-0.043431 Y-0.043431
G01 X-0.053192 Y-0.030711
G01 X-0.059328 Y-0.015897
G01 X-0.061421 Y0
G01 X-0.059328 Y0.015897
G01 X-0.053192 Y0.030711
G01 X-0.043431 Y0.043431
G01 X-0.030711 Y0.053192
G01 X-0.015897 Y0.059328
G01 X0 Y0.061421
G01 X0.015897 Y0.059328
G01 X0.030711 Y0.053192
G01 X0.043431 Y0.043431
G01 X0.053192 Y0.030711
G01 X0.059328 Y0.015897
G01 X0.061421 Y0
G01 F15 Z-0.48
G01 F300 X0.059328 Y-0.015897
G01 X0.053192 Y-0.030711
G01 X0.043431 Y-0.043431
G01 X0.030711 Y-0.053192
G01 X0.015897 Y-0.059328
G01 X0 Y-0.061421
G01 X-0.015897 Y-0.059328
G01 X-0.030711 Y-0.053192
G01 X-0.043431 Y-0.043431
G01 X-0.053192 Y-0.030711
G01 X-0.059328 Y-0.015897
G01 X-0.061421 Y0
G01 X-0.059328 Y0.015897
G01 X-0.053192 Y0.030711
G01 X-0.043431 Y0.043431
G01 X-0.030711 Y0.053192
G01 X-0.015897 Y0.059328
G01 X0 Y0.061421
G01 X0.015897 Y0.059328
G01 X0.030711 Y0.053192
G01 X0.043431 Y0.043431
G01 X0.053192 Y0.030711
G01 X0.059328 Y0.015897
G01 X0.061421 Y0
G01 F15 Z-0.51
G01 F300 X0.059328 Y-0.015897
G01 X0.053192 Y-0.030711
G01 X0.043431 Y-0.043431
G01 X0.030711 Y-0.053192
G01 X0.015897 Y-0.059328
G01 X0 Y-0.061421
G01 X-0.015897 Y-0.059328
G01 X-0.030711 Y-0.053192
G01 X-0.043431 Y-0.043431
G01 X-0.053192 Y-0.030711
G01 X-0.059328 Y-0.015897
G01 X-0.061421 Y0
G01 X-0.059328 Y0.015897
G01 X-0.053192 Y0.030711
G01 X-0.043431 Y0.043431
G01 X-0.030711 Y0.053192
G01 X-0.015897 Y0.059328
G01 X0 Y0.061421
G01 X0.015897 Y0.059328
G01 X0.030711 Y0.053192
G01 X0.043431 Y0.043431
G01 X0.053192 Y0.030711
G01 X0.059328 Y0.015897
G01 X0.061421 Y0
G01 F15 Z-0.54
G01 F300 X0.059328 Y-0.015897
G01 X0.053192 Y-0.030711
G01 X0.043431 Y-0.043431
G01 X0.030711 Y-0.053192
G01 X0.015897 Y-0.059328
G01 X0 Y-0.061421
G01 X-0.015897 Y-0.059328
G01 X-0.030711 Y-0.053192
G01 X-0.043431 Y-0.043431
G01 X-0.053192 Y-0.030711
G01 X-0.059328 Y-0.015897
G01 X-0.061421 Y0
G01 X-0.059328 Y0.015897
G01 X-0.053192 Y0.030711
G01 X-0.043431 Y0.043431
G01 X-0.030711 Y0.053192
G01 X-0.015897 Y0.059328
G01 X0 Y0.061421
G01 X0.015897 Y0.059328
G01 X0.030711 Y0.053192
G01 X0.043431 Y0.043431
G01 X0.053192 Y0.030711
G01 X0.059328 Y0.015897
G01 X0.061421 Y0
G01 F15 Z-0.57
G01 F300 X0.059328 Y-0.015897
G01 X0.053192 Y-0.030711
G01 X0.043431 Y-0.043431
G01 X0.030711 Y-0.053192
G01 X0.015897 Y-0.059328
G01 X0 Y-0.061421
G01 X-0.015897 Y-0.059328
G01 X-0.030711 Y-0.053192
G01 X-0.043431 Y-0.043431
G01 X-0.053192 Y-0.030711
G01 X-0.059328 Y-0.015897
G01 X-0.061421 Y0
G01 X-0.059328 Y0.015897
G01 X-0.053192 Y0.030711
G01 X-0.043431 Y0.043431
G01 X-0.030711 Y0.053192
G01 X-0.015897 Y0.059328
G01 X0 Y0.061421
G01 X0.015897 Y0.059328
G01 X0.030711 Y0.053192
G01 X0.043431 Y0.043431
G01 X0.053192 Y0.030711
G01 X0.059328 Y0.015897
G01 X0.061421 Y0
G01 F15 Z-0.6
G01 F300 X0.059328 Y-0.015897
G01 X0.053192 Y-0.030711
G01 X0.043431 Y-0.043431
G01 X0.030711 Y-0.053192
G01 X0.015897 Y-0.059328
G01 X0 Y-0.061421
G01 X-0.015897 Y-0.059328
G01 X-0.030711 Y-0.053192
G01 X-0.043431 Y-0.043431
G01 X-0.053192 Y-0.030711
G01 X-0.059328 Y-0.015897
G01 X-0.061421 Y0
G01 X-0.059328 Y0.015897
G01 X-0.053192 Y0.030711
G01 X-0.043431 Y0.043431
G01 X-0.030711 Y0.053192
G01 X-0.015897 Y0.059328
G01 X0 Y0.061421
G01 X0.015897 Y0.059328
G01 X0.030711 Y0.053192
G01 X0.043431 Y0.043431
G01 X0.053192 Y0.030711
G01 X0.059328 Y0.015897
G01 X0.061421 Y0
G01 F15 Z-0.63
G01 F300 X0.059328 Y-0.015897
G01 X0.053192 Y-0.030711
G01 X0.043431 Y-0.043431
G01 X0.030711 Y-0.053192
G01 X0.015897 Y-0.059328
G01 X0 Y-0.061421
G01 X-0.015897 Y-0.059328
G01 X-0.030711 Y-0.053192
G01 X-0.043431 Y-0.043431
G01 X-0.053192 Y-0.030711
G01 X-0.059328 Y-0.015897
G01 X-0.061421 Y0
G01 X-0.059328 Y0.015897
G01 X-0.053192 Y0.030711
G01 X-0.043431 Y0.043431
G01 X-0.030711 Y0.053192
G01 X-0.015897 Y0.059328
G01 X0 Y0.061421
G01 X0.015897 Y0.059328
G01 X0.030711 Y0.053192
G01 X0.043431 Y0.043431
G01 X0.053192 Y0.030711
G01 X0.059328 Y0.015897
G01 X0.061421 Y0
G01 F15 Z-0.66
G01 F300 X0.059328 Y-0.015897
G01 X0.053192 Y-0.030711
G01 X0.043431 Y-0.043431
G01 X0.030711 Y-0.053192
G01 X0.015897 Y-0.059328
G01 X0 Y-0.061421
G01 X-0.015897 Y-0.059328
G01 X-0.030711 Y-0.053192
G01 X-0.043431 Y-0.043431
G01 X-0.053192 Y-0.030711
G01 X-0.059328 Y-0.015897
G01 X-0.061421 Y0
G01 X-0.059328 Y0.015897
G01 X-0.053192 Y0.030711
G01 X-0.043431 Y0.043431
G01 X-0.030711 Y0.053192
G01 X-0.015897 Y0.059328
G01 X0 Y0.061421
G01 X0.015897 Y0.059328
G01 X0.030711 Y0.053192
G01 X0.043431 Y0.043431
G01 X0.053192 Y0.030711
G01 X0.059328 Y0.015897
G01 X0.061421 Y0
G01 F15 Z-0.69
G01 F300 X0.059328 Y-0.015897
G01 X0.053192 Y-0.030711
G01 X0.043431 Y-0.043431
G01 X0.030711 Y-0.053192
G01 X0.015897 Y-0.059328
G01 X0 Y-0.061421
G01 X-0.015897 Y-0.059328
G01 X-0.030711 Y-0.053192
G01 X-0.043431 Y-0.043431
G01 X-0.053192 Y-0.030711
G01 X-0.059328 Y-0.015897
G01 X-0.061421 Y0
G01 X-0.059328 Y0.015897
G01 X-0.053192 Y0.030711
G01 X-0.043431 Y0.043431
G01 X-0.030711 Y0.053192
G01 X-0.015897 Y0.059328
G01 X0 Y0.061421
G01 X0.015897 Y0.059328
G01 X0.030711 Y0.053192
G01 X0.043431 Y0.043431
G01 X0.053192 Y0.030711
G01 X0.059328 Y0.015897
G01 X0.061421 Y0
G01 F15 Z-0.72
G01 F300 X0.059328 Y-0.015897
G01 X0.053192 Y-0.030711
G01 X0.043431 Y-0.043431
G01 X0.030711 Y-0.053192
G01 X0.015897 Y-0.059328
G01 X0 Y-0.061421
G01 X-0.015897 Y-0.059328
G01 X-0.030711 Y-0.053192
G01 X-0.043431 Y-0.043431
G01 X-0.053192 Y-0.030711
G01 X-0.059328 Y-0.015897
G01 X-0.061421 Y0
G01 X-0.059328 Y0.015897
G01 X-0.053192 Y0.030711
G01 X-0.043431 Y0.043431
G01 X-0.030711 Y0.053192
G01 X-0.015897 Y0.059328
G01 X0 Y0.061421
G01 X0.015897 Y0.059328
G01 X0.030711 Y0.053192
G01 X0.043431 Y0.043431
G01 X0.053192 Y0.030711
G01 X0.059328 Y0.015897
G01 X0.061421 Y0
G01 F15 Z-0.75
G01 F300 X0.059328 Y-0.015897
G01 X0.053192 Y-0.030711
G01 X0.043431 Y-0.043431
G01 X0.030711 Y-0.053192
G01 X0.015897 Y-0.059328
G01 X0 Y-0.061421
G01 X-0.015897 Y-0.059328
G01 X-0.030711 Y-0.053192
G01 X-0.043431 Y-0.043431
G01 X-0.053192 Y-0.030711
G01 X-0.059328 Y-0.015897
G01 X-0.061421 Y0
G01 X-0.059328 Y0.015897
G01 X-0.053192 Y0.030711
G01 X-0.043431 Y0.043431
G01 X-0.030711 Y0.053192
G01 X-0.015897 Y0.059328
G01 X0 Y0.061421
G01 X0.015897 Y0.059328
G01 X0.030711 Y0.053192
G01 X0.043431 Y0.043431
G01 X0.053192 Y0.030711
G01 X0.059328 Y0.015897
G01 X0.061421 Y0
G01 F15 Z-0.78
G01 F300 X0.059328 Y-0.015897
G01 X0.053192 Y-0.030711
G01 X0.043431 Y-0.043431
G01 X0.030711 Y-0.053192
G01 X0.015897 Y-0.059328
G01 X0 Y-0.061421
G01 X-0.015897 Y-0.059328
G01 X-0.030711 Y-0.053192
G01 X-0.043431 Y-0.043431
G01 X-0.053192 Y-0.030711
G01 X-0.059328 Y-0.015897
G01 X-0.061421 Y0
G01 X-0.059328 Y0.015897
G01 X-0.053192 Y0.030711
G01 X-0.043431 Y0.043431
G01 X-0.030711 Y0.053192
G01 X-0.015897 Y0.059328
G01 X0 Y0.061421
G01 X0.015897 Y0.059328
G01 X0.030711 Y0.053192
G01 X0.043431 Y0.043431
G01 X0.053192 Y0.030711
G01 X0.059328 Y0.015897
G01 X0.061421 Y0
G01 F15 Z-0.8
G01 F300 X0.059328 Y-0.015897
G01 X0.053192 Y-0.030711
G01 X0.043431 Y-0.043431
G01 X0.030711 Y-0.053192
G01 X0.015897 Y-0.059328
G01 X0 Y-0.061421
G01 X-0.015897 Y-0.059328
G01 X-0.030711 Y-0.053192
G01 X-0.043431 Y-0.043431
G01 X-0.053192 Y-0.030711
G01 X-0.059328 Y-0.015897
G01 X-0.061421 Y0
G01 X-0.059328 Y0.015897
G01 X-0.053192 Y0.030711
G01 X-0.043431 Y0.043431
G01 X-0.030711 Y0.053192
G01 X-0.015897 Y0.059328
G01 X0 Y0.061421
G01 X0.015897 Y0.059328
G01 X0.030711 Y0.053192
G01 X0.043431 Y0.043431
G01 X0.053192 Y0.030711
G01 X0.059328 Y0.015897
G01 X0.061421 Y0
G00 Z0.125
G00 X1.373054 Y0.305393
G01 F15 Z-0.03
G01 F300 X1.509074 Y0.375829
G03 X1.515168 Y0.379204 I-0.05748 J0.111
G01 X1.635535 Y0.450304
G03 X1.641761 Y0.454233 I-0.063574 J0.107626
G01 X1.747431 Y0.525362
G03 X1.753712 Y0.529878 I-0.0698 J0.103697
G01 X1.845643 Y0.600397
G03 X1.851889 Y0.605517 I-0.076081 J0.09918
G01 X1.931036 Y0.674791
G03 X1.937144 Y0.68051 I-0.082326 J0.09406
G01 X2.004464 Y0.747901
G03 X2.010327 Y0.754188 I-0.088435 J0.088341
G01 X2.066775 Y0.81906
G03 X2.072285 Y0.825858 I-0.094298 J0.082054
G01 X2.118819 Y0.887574
G03 X2.123878 Y0.8948 I-0.099808 J0.075255
G01 X2.161453 Y0.952723
G03 X2.165981 Y0.960273 I-0.104867 J0.068029
G01 X2.167053 Y0.962212
G01 X2.205555 Y0.873241
G01 X2.256034 Y0.73303
G01 X2.297609 Y0.589926
G01 X2.330117 Y0.444494
G01 X2.353429 Y0.297307
G01 X2.367454 Y0.148948
G01 X2.371156 Y0.031123
G01 X2.369061 Y0.027761
G01 X2.353889 Y0.006632
G01 X2.332879 Y-0.018535
G01 X2.305651 Y-0.046273
G01 X2.27178 Y-0.075184
G01 X2.230758 Y-0.103937
G01 X2.181957 Y-0.131236
G01 X2.124609 Y-0.155772
G01 X2.057822 Y-0.176159
G01 X1.980631 Y-0.190885
G01 X1.892071 Y-0.198288
G01 X1.791248 Y-0.19658
G01 X1.677376 Y-0.183892
G01 X1.549793 Y-0.158324
G01 X1.407937 Y-0.11799
G01 X1.251322 Y-0.061039
G01 X1.079507 Y0.014332
G01 X0.947747 Y0.081502
G01 X0.94132 Y0.130325
G01 X1.033246 Y0.161804
G03 X1.038656 Y0.163796 I-0.040495 J0.118259
G01 X1.20885 Y0.230993
G03 X1.214521 Y0.233395 I-0.045905 J0.116266
G01 X1.36715 Y0.30253
G03 X1.373054 Y0.305393 I-0.051576 J0.113864
G01 F15 Z-0.06
G01 F300 X1.509074 Y0.375829
G03 X1.515168 Y0.379204 I-0.05748 J0.111
G01 X1.635535 Y0.450304
G03 X1.641761 Y0.454233 I-0.063574 J0.107626
G01 X1.747431 Y0.525362
G03 X1.753712 Y0.529878 I-0.0698 J0.103697
G01 X1.845643 Y0.600397
G03 X1.851889 Y0.605517 I-0.076081 J0.09918
G01 X1.931036 Y0.674791
G03 X1.937144 Y0.68051 I-0.082326 J0.09406
G01 X2.004464 Y0.747901
G03 X2.010327 Y0.754188 I-0.088435 J0.088341
G01 X2.066775 Y0.81906
G03 X2.072285 Y0.825858 I-0.094298 J0.082054
G01 X2.118819 Y0.887574
G03 X2.123878 Y0.8948 I-0.099808 J0.075255
G01 X2.161453 Y0.952723
G03 X2.165981 Y0.960273 I-0.104867 J0.068029
G01 X2.167053 Y0.962212
G01 X2.205555 Y0.873241
G01 X2.256034 Y0.73303
G01 X2.297609 Y0.589926
G01 X2.330117 Y0.444494
G01 X2.353429 Y0.297307
G01 X2.367454 Y0.148948
G01 X2.371156 Y0.031123
G01 X2.369061 Y0.027761
G01 X2.353889 Y0.006632
G01 X2.332879 Y-0.018535
G01 X2.305651 Y-0.046273
G01 X2.27178 Y-0.075184
G01 X2.230758 Y-0.103937
G01 X2.181957 Y-0.131236
G01 X2.124609 Y-0.155772
G01 X2.057822 Y-0.176159
G01 X1.980631 Y-0.190885
G01 X1.892071 Y-0.198288
G01 X1.791248 Y-0.19658
G01 X1.677376 Y-0.183892
G01 X1.549793 Y-0.158324
G01 X1.407937 Y-0.11799
G01 X1.251322 Y-0.061039
G01 X1.079507 Y0.014332
G01 X0.947747 Y0.081502
G01 X0.94132 Y0.130325
G01 X1.033246 Y0.161804
G03 X1.038656 Y0.163796 I-0.040495 J0.118259
G01 X1.20885 Y0.230993
G03 X1.214521 Y0.233395 I-0.045905 J0.116266
G01 X1.36715 Y0.30253
G03 X1.373054 Y0.305393 I-0.051576 J0.113864
G01 F15 Z-0.09
G01 F300 X1.509074 Y0.375829
G03 X1.515168 Y0.379204 I-0.05748 J0.111
G01 X1.635535 Y0.450304
G03 X1.641761 Y0.454233 I-0.063574 J0.107626
G01 X1.747431 Y0.525362
G03 X1.753712 Y0.529878 I-0.0698 J0.103697
G01 X1.845643 Y0.600397
G03 X1.851889 Y0.605517 I-0.076081 J0.09918
G01 X1.931036 Y0.674791
G03 X1.937144 Y0.68051 I-0.082326 J0.09406
G01 X2.004464 Y0.747901
G03 X2.010327 Y0.754188 I-0.088435 J0.088341
G01 X2.066775 Y0.81906
G03 X2.072285 Y0.825858 I-0.094298 J0.082054
G01 X2.118819 Y0.887574
G03 X2.123878 Y0.8948 I-0.099808 J0.075255
G01 X2.161453 Y0.952723
G03 X2.165981 Y0.960273 I-0.104867 J0.068029
G01 X2.167053 Y0.962212
G01 X2.205555 Y0.873241
G01 X2.256034 Y0.73303
G01 X2.297609 Y0.589926
G01 X2.330117 Y0.444494
G01 X2.353429 Y0.297307
G01 X2.367454 Y0.148948
G01 X2.371156 Y0.031123
G01 X2.369061 Y0.027761
G01 X2.353889 Y0.006632
G01 X2.332879 Y-0.018535
G01 X2.305651 Y-0.046273
G01 X2.27178 Y-0.075184
G01 X2.230758 Y-0.103937
G01 X2.181957 Y-0.131236
G01 X2.124609 Y-0.155772
G01 X2.057822 Y-0.176159
G01 X1.980631 Y-0.190885
G01 X1.892071 Y-0.198288
G01 X1.791248 Y-0.19658
G01 X1.677376 Y-0.183892
G01 X1.549793 Y-0.158324
G01 X1.407937 Y-0.11799
G01 X1.251322 Y-0.061039
G01 X1.079507 Y0.014332
G01 X0.947747 Y0.081502
G01 X0.94132 Y0.130325
G01 X1.033246 Y0.161804
G03 X1.038656 Y0.163796 I-0.040495 J0.118259
G01 X1.20885 Y0.230993
G03 X1.214521 Y0.233395 I-0.045905 J0.116266
G01 X1.36715 Y0.30253
G03 X1.373054 Y0.305393 I-0.051576 J0.113864
G01 F15 Z-0.12
G01 F300 X1.509074 Y0.375829
G03 X1.515168 Y0.379204 I-0.05748 J0.111
G01 X1.635535 Y0.450304
G03 X1.641761 Y0.454233 I-0.063574 J0.107626
G01 X1.747431 Y0.525362
G03 X1.753712 Y0.529878 I-0.0698 J0.103697
G01 X1.845643 Y0.600397
G03 X1.851889 Y0.605517 I-0.076081 J0.09918
G01 X1.931036 Y0.674791
G03 X1.937144 Y0.68051 I-0.082326 J0.09406
G01 X2.004464 Y0.747901
G03 X2.010327 Y0.754188 I-0.088435 J0.088341
G01 X2.066775 Y0.81906
G03 X2.072285 Y0.825858 I-0.094298 J0.082054
G01 X2.118819 Y0.887574
G03 X2.123878 Y0.8948 I-0.099808 J0.075255
G01 X2.161453 Y0.952723
G03 X2.165981 Y0.960273 I-0.104867 J0.068029
G01 X2.167053 Y0.962212
G01 X2.205555 Y0.873241
G01 X2.256034 Y0.73303
G01 X2.297609 Y0.589926
G01 X2.330117 Y0.444494
G01 X2.353429 Y0.297307
G01 X2.367454 Y0.148948
G01 X2.371156 Y0.031123
G01 X2.369061 Y0.027761
G01 X2.353889 Y0.006632
G01 X2.332879 Y-0.018535
G01 X2.305651 Y-0.046273
G01 X2.27178 Y-0.075184
G01 X2.230758 Y-0.103937
G01 X2.181957 Y-0.131236
G01 X2.124609 Y-0.155772
G01 X2.057822 Y-0.176159
G01 X1.980631 Y-0.190885
G01 X1.892071 Y-0.198288
G01 X1.791248 Y-0.19658
G01 X1.677376 Y-0.183892
G01 X1.549793 Y-0.158324
G01 X1.407937 Y-0.11799
G01 X1.251322 Y-0.061039
G01 X1.079507 Y0.014332
G01 X0.947747 Y0.081502
G01 X0.94132 Y0.130325
G01 X1.033246 Y0.161804
G03 X1.038656 Y0.163796 I-0.040495 J0.118259
G01 X1.20885 Y0.230993
G03 X1.214521 Y0.233395 I-0.045905 J0.116266
G01 X1.36715 Y0.30253
G03 X1.373054 Y0.305393 I-0.051576 J0.113864
G01 F15 Z-0.15
G01 F300 X1.509074 Y0.375829
G03 X1.515168 Y0.379204 I-0.05748 J0.111
G01 X1.635535 Y0.450304
G03 X1.641761 Y0.454233 I-0.063574 J0.107626
G01 X1.747431 Y0.525362
G03 X1.753712 Y0.529878 I-0.0698 J0.103697
G01 X1.845643 Y0.600397
G03 X1.851889 Y0.605517 I-0.076081 J0.09918
G01 X1.931036 Y0.674791
G03 X1.937144 Y0.68051 I-0.082326 J0.09406
G01 X2.004464 Y0.747901
G03 X2.010327 Y0.754188 I-0.088435 J0.088341
G01 X2.066775 Y0.81906
G03 X2.072285 Y0.825858 I-0.094298 J0.082054
G01 X2.118819 Y0.887574
G03 X2.123878 Y0.8948 I-0.099808 J0.075255
G01 X2.161453 Y0.952723
G03 X2.165981 Y0.960273 I-0.104867 J0.068029
G01 X2.167053 Y0.962212
G01 X2.205555 Y0.873241
G01 X2.256034 Y0.73303
G01 X2.297609 Y0.589926
G01 X2.330117 Y0.444494
G01 X2.353429 Y0.297307
G01 X2.367454 Y0.148948
G01 X2.371156 Y0.031123
G01 X2.369061 Y0.027761
G01 X2.353889 Y0.006632
G01 X2.332879 Y-0.018535
G01 X2.305651 Y-0.046273
G01 X2.27178 Y-0.075184
G01 X2.230758 Y-0.103937
G01 X2.181957 Y-0.131236
G01 X2.124609 Y-0.155772
G01 X2.057822 Y-0.176159
G01 X1.980631 Y-0.190885
G01 X1.892071 Y-0.198288
G01 X1.791248 Y-0.19658
G01 X1.677376 Y-0.183892
G01 X1.549793 Y-0.158324
G01 X1.407937 Y-0.11799
G01 X1.251322 Y-0.061039
G01 X1.079507 Y0.014332
G01 X0.947747 Y0.081502
G01 X0.94132 Y0.130325
G01 X1.033246 Y0.161804
G03 X1.038656 Y0.163796 I-0.040495 J0.118259
G01 X1.20885 Y0.230993
G03 X1.214521 Y0.233395 I-0.045905 J0.116266
G01 X1.36715 Y0.30253
G03 X1.373054 Y0.305393 I-0.051576 J0.113864
G01 F15 Z-0.18
G01 F300 X1.509074 Y0.375829
G03 X1.515168 Y0.379204 I-0.05748 J0.111
G01 X1.635535 Y0.450304
G03 X1.641761 Y0.454233 I-0.063574 J0.107626
G01 X1.747431 Y0.525362
G03 X1.753712 Y0.529878 I-0.0698 J0.103697
G01 X1.845643 Y0.600397
G03 X1.851889 Y0.605517 I-0.076081 J0.09918
G01 X1.931036 Y0.674791
G03 X1.937144 Y0.68051 I-0.082326 J0.09406
G01 X2.004464 Y0.747901
G03 X2.010327 Y0.754188 I-0.088435 J0.088341
G01 X2.066775 Y0.81906
G03 X2.072285 Y0.825858 I-0.094298 J0.082054
G01 X2.118819 Y0.887574
G03 X2.123878 Y0.8948 I-0.099808 J0.075255
G01 X2.161453 Y0.952723
G03 X2.165981 Y0.960273 I-0.104867 J0.068029
G01 X2.167053 Y0.962212
G01 X2.205555 Y0.873241
G01 X2.256034 Y0.73303
G01 X2.297609 Y0.589926
G01 X2.330117 Y0.444494
G01 X2.353429 Y0.297307
G01 X2.367454 Y0.148948
G01 X2.371156 Y0.031123
G01 X2.369061 Y0.027761
G01 X2.353889 Y0.006632
G01 X2.332879 Y-0.018535
G01 X2.305651 Y-0.046273
G01 X2.27178 Y-0.075184
G01 X2.230758 Y-0.103937
G01 X2.181957 Y-0.131236
G01 X2.124609 Y-0.155772
G01 X2.057822 Y-0.176159
G01 X1.980631 Y-0.190885
G01 X1.892071 Y-0.198288
G01 X1.791248 Y-0.19658
G01 X1.677376 Y-0.183892
G01 X1.549793 Y-0.158324
G01 X1.407937 Y-0.11799
G01 X1.251322 Y-0.061039
G01 X1.079507 Y0.014332
G01 X0.947747 Y0.081502
G01 X0.94132 Y0.130325
G01 X1.033246 Y0.161804
G03 X1.038656 Y0.163796 I-0.040495 J0.118259
G01 X1.20885 Y0.230993
G03 X1.214521 Y0.233395 I-0.045905 J0.116266
G01 X1.36715 Y0.30253
G03 X1.373054 Y0.305393 I-0.051576 J0.113864
G01 F15 Z-0.21
G01 F300 X1.509074 Y0.375829
G03 X1.515168 Y0.379204 I-0.05748 J0.111
G01 X1.635535 Y0.450304
G03 X1.641761 Y0.454233 I-0.063574 J0.107626
G01 X1.747431 Y0.525362
G03 X1.753712 Y0.529878 I-0.0698 J0.103697
G01 X1.845643 Y0.600397
G03 X1.851889 Y0.605517 I-0.076081 J0.09918
G01 X1.931036 Y0.674791
G03 X1.937144 Y0.68051 I-0.082326 J0.09406
G01 X2.004464 Y0.747901
G03 X2.010327 Y0.754188 I-0.088435 J0.088341
G01 X2.066775 Y0.81906
G03 X2.072285 Y0.825858 I-0.094298 J0.082054
G01 X2.118819 Y0.887574
G03 X2.123878 Y0.8948 I-0.099808 J0.075255
G01 X2.161453 Y0.952723
G03 X2.165981 Y0.960273 I-0.104867 J0.068029
G01 X2.167053 Y0.962212
G01 X2.205555 Y0.873241
G01 X2.256034 Y0.73303
G01 X2.297609 Y0.589926
G01 X2.330117 Y0.444494
G01 X2.353429 Y0.297307
G01 X2.367454 Y0.148948
G01 X2.371156 Y0.031123
G01 X2.369061 Y0.027761
G01 X2.353889 Y0.006632
G01 X2.332879 Y-0.018535
G01 X2.305651 Y-0.046273
G01 X2.27178 Y-0.075184
G01 X2.230758 Y-0.103937
G01 X2.181957 Y-0.131236
G01 X2.124609 Y-0.155772
G01 X2.057822 Y-0.176159
G01 X1.980631 Y-0.190885
G01 X1.892071 Y-0.198288
G01 X1.791248 Y-0.19658
G01 X1.677376 Y-0.183892
G01 X1.549793 Y-0.158324
G01 X1.407937 Y-0.11799
G01 X1.251322 Y-0.061039
G01 X1.079507 Y0.014332
G01 X0.947747 Y0.081502
G01 X0.94132 Y0.130325
G01 X1.033246 Y0.161804
G03 X1.038656 Y0.163796 I-0.040495 J0.118259
G01 X1.20885 Y0.230993
G03 X1.214521 Y0.233395 I-0.045905 J0.116266
G01 X1.36715 Y0.30253
G03 X1.373054 Y0.305393 I-0.051576 J0.113864
G01 F15 Z-0.24
G01 F300 X1.509074 Y0.375829
G03 X1.515168 Y0.379204 I-0.05748 J0.111
G01 X1.635535 Y0.450304
G03 X1.641761 Y0.454233 I-0.063574 J0.107626
G01 X1.747431 Y0.525362
G03 X1.753712 Y0.529878 I-0.0698 J0.103697
G01 X1.845643 Y0.600397
G03 X1.851889 Y0.605517 I-0.076081 J0.09918
G01 X1.931036 Y0.674791
G03 X1.937144 Y0.68051 I-0.082326 J0.09406
G01 X2.004464 Y0.747901
G03 X2.010327 Y0.754188 I-0.088435 J0.088341
G01 X2.066775 Y0.81906
G03 X2.072285 Y0.825858 I-0.094298 J0.082054
G01 X2.118819 Y0.887574
G03 X2.123878 Y0.8948 I-0.099808 J0.075255
G01 X2.161453 Y0.952723
G03 X2.165981 Y0.960273 I-0.104867 J0.068029
G01 X2.167053 Y0.962212
G01 X2.205555 Y0.873241
G01 X2.256034 Y0.73303
G01 X2.297609 Y0.589926
G01 X2.330117 Y0.444494
G01 X2.353429 Y0.297307
G01 X2.367454 Y0.148948
G01 X2.371156 Y0.031123
G01 X2.369061 Y0.027761
G01 X2.353889 Y0.006632
G01 X2.332879 Y-0.018535
G01 X2.305651 Y-0.046273
G01 X2.27178 Y-0.075184
G01 X2.230758 Y-0.103937
G01 X2.181957 Y-0.131236
G01 X2.124609 Y-0.155772
G01 X2.057822 Y-0.176159
G01 X1.980631 Y-0.190885
G01 X1.892071 Y-0.198288
G01 X1.791248 Y-0.19658
G01 X1.677376 Y-0.183892
G01 X1.549793 Y-0.158324
G01 X1.407937 Y-0.11799
G01 X1.251322 Y-0.061039
G01 X1.079507 Y0.014332
G01 X0.947747 Y0.081502
G01 X0.94132 Y0.130325
G01 X1.033246 Y0.161804
G03 X1.038656 Y0.163796 I-0.040495 J0.118259
G01 X1.20885 Y0.230993
G03 X1.214521 Y0.233395 I-0.045905 J0.116266
G01 X1.36715 Y0.30253
G03 X1.373054 Y0.305393 I-0.051576 J0.113864
G01 F15 Z-0.27
G01 F300 X1.509074 Y0.375829
G03 X1.515168 Y0.379204 I-0.05748 J0.111
G01 X1.635535 Y0.450304
G03 X1.641761 Y0.454233 I-0.063574 J0.107626
G01 X1.747431 Y0.525362
G03 X1.753712 Y0.529878 I-0.0698 J0.103697
G01 X1.845643 Y0.600397
G03 X1.851889 Y0.605517 I-0.076081 J0.09918
G01 X1.931036 Y0.674791
G03 X1.937144 Y0.68051 I-0.082326 J0.09406
G01 X2.004464 Y0.747901
G03 X2.010327 Y0.754188 I-0.088435 J0.088341
G01 X2.066775 Y0.81906
G03 X2.072285 Y0.825858 I-0.094298 J0.082054
G01 X2.118819 Y0.887574
G03 X2.123878 Y0.8948 I-0.099808 J0.075255
G01 X2.161453 Y0.952723
G03 X2.165981 Y0.960273 I-0.104867 J0.068029
G01 X2.167053 Y0.962212
G01 X2.205555 Y0.873241
G01 X2.256034 Y0.73303
G01 X2.297609 Y0.589926
G01 X2.330117 Y0.444494
G01 X2.353429 Y0.297307
G01 X2.367454 Y0.148948
G01 X2.371156 Y0.031123
G01 X2.369061 Y0.027761
G01 X2.353889 Y0.006632
G01 X2.332879 Y-0.018535
G01 X2.305651 Y-0.046273
G01 X2.27178 Y-0.075184
G01 X2.230758 Y-0.103937
G01 X2.181957 Y-0.131236
G01 X2.124609 Y-0.155772
G01 X2.057822 Y-0.176159
G01 X1.980631 Y-0.190885
G01 X1.892071 Y-0.198288
G01 X1.791248 Y-0.19658
G01 X1.677376 Y-0.183892
G01 X1.549793 Y-0.158324
G01 X1.407937 Y-0.11799
G01 X1.251322 Y-0.061039
G01 X1.079507 Y0.014332
G01 X0.947747 Y0.081502
G01 X0.94132 Y0.130325
G01 X1.033246 Y0.161804
G03 X1.038656 Y0.163796 I-0.040495 J0.118259
G01 X1.20885 Y0.230993
G03 X1.214521 Y0.233395 I-0.045905 J0.116266
G01 X1.36715 Y0.30253
G03 X1.373054 Y0.305393 I-0.051576 J0.113864
G01 F15 Z-0.3
G01 F300 X1.509074 Y0.375829
G03 X1.515168 Y0.379204 I-0.05748 J0.111
G01 X1.635535 Y0.450304
G03 X1.641761 Y0.454233 I-0.063574 J0.107626
G01 X1.747431 Y0.525362
G03 X1.753712 Y0.529878 I-0.0698 J0.103697
G01 X1.845643 Y0.600397
G03 X1.851889 Y0.605517 I-0.076081 J0.09918
G01 X1.931036 Y0.674791
G03 X1.937144 Y0.68051 I-0.082326 J0.09406
G01 X2.004464 Y0.747901
G03 X2.010327 Y0.754188 I-0.088435 J0.088341
G01 X2.066775 Y0.81906
G03 X2.072285 Y0.825858 I-0.094298 J0.082054
G01 X2.118819 Y0.887574
G03 X2.123878 Y0.8948 I-0.099808 J0.075255
G01 X2.161453 Y0.952723
G03 X2.165981 Y0.960273 I-0.104867 J0.068029
G01 X2.167053 Y0.962212
G01 X2.205555 Y0.873241
G01 X2.256034 Y0.73303
G01 X2.297609 Y0.589926
G01 X2.330117 Y0.444494
G01 X2.353429 Y0.297307
G01 X2.367454 Y0.148948
G01 X2.371156 Y0.031123
G01 X2.369061 Y0.027761
G01 X2.353889 Y0.006632
G01 X2.332879 Y-0.018535
G01 X2.305651 Y-0.046273
G01 X2.27178 Y-0.075184
G01 X2.230758 Y-0.103937
G01 X2.181957 Y-0.131236
G01 X2.124609 Y-0.155772
G01 X2.057822 Y-0.176159
G01 X1.980631 Y-0.190885
G01 X1.892071 Y-0.198288
G01 X1.791248 Y-0.19658
G01 X1.677376 Y-0.183892
G01 X1.549793 Y-0.158324
G01 X1.407937 Y-0.11799
G01 X1.251322 Y-0.061039
G01 X1.079507 Y0.014332
G01 X0.947747 Y0.081502
G01 X0.94132 Y0.130325
G01 X1.033246 Y0.161804
G03 X1.038656 Y0.163796 I-0.040495 J0.118259
G01 X1.20885 Y0.230993
G03 X1.214521 Y0.233395 I-0.045905 J0.116266
G01 X1.36715 Y0.30253
G03 X1.373054 Y0.305393 I-0.051576 J0.113864
G01 F15 Z-0.33
G01 F300 X1.509074 Y0.375829
G03 X1.515168 Y0.379204 I-0.05748 J0.111
G01 X1.635535 Y0.450304
G03 X1.641761 Y0.454233 I-0.063574 J0.107626
G01 X1.747431 Y0.525362
G03 X1.753712 Y0.529878 I-0.0698 J0.103697
G01 X1.845643 Y0.600397
G03 X1.851889 Y0.605517 I-0.076081 J0.09918
G01 X1.931036 Y0.674791
G03 X1.937144 Y0.68051 I-0.082326 J0.09406
G01 X2.004464 Y0.747901
G03 X2.010327 Y0.754188 I-0.088435 J0.088341
G01 X2.066775 Y0.81906
G03 X2.072285 Y0.825858 I-0.094298 J0.082054
G01 X2.118819 Y0.887574
G03 X2.123878 Y0.8948 I-0.099808 J0.075255
G01 X2.161453 Y0.952723
G03 X2.165981 Y0.960273 I-0.104867 J0.068029
G01 X2.167053 Y0.962212
G01 X2.205555 Y0.873241
G01 X2.256034 Y0.73303
G01 X2.297609 Y0.589926
G01 X2.330117 Y0.444494
G01 X2.353429 Y0.297307
G01 X2.367454 Y0.148948
G01 X2.371156 Y0.031123
G01 X2.369061 Y0.027761
G01 X2.353889 Y0.006632
G01 X2.332879 Y-0.018535
G01 X2.305651 Y-0.046273
G01 X2.27178 Y-0.075184
G01 X2.230758 Y-0.103937
G01 X2.181957 Y-0.131236
G01 X2.124609 Y-0.155772
G01 X2.057822 Y-0.176159
G01 X1.980631 Y-0.190885
G01 X1.892071 Y-0.198288
G01 X1.791248 Y-0.19658
G01 X1.677376 Y-0.183892
G01 X1.549793 Y-0.158324
G01 X1.407937 Y-0.11799
G01 X1.251322 Y-0.061039
G01 X1.079507 Y0.014332
G01 X0.947747 Y0.081502
G01 X0.94132 Y0.130325
G01 X1.033246 Y0.161804
G03 X1.038656 Y0.163796 I-0.040495 J0.118259
G01 X1.20885 Y0.230993
G03 X1.214521 Y0.233395 I-0.045905 J0.116266
G01 X1.36715 Y0.30253
G03 X1.373054 Y0.305393 I-0.051576 J0.113864
G01 F15 Z-0.36
G01 F300 X1.509074 Y0.375829
G03 X1.515168 Y0.379204 I-0.05748 J0.111
G01 X1.635535 Y0.450304
G03 X1.641761 Y0.454233 I-0.063574 J0.107626
G01 X1.747431 Y0.525362
G03 X1.753712 Y0.529878 I-0.0698 J0.103697
G01 X1.845643 Y0.600397
G03 X1.851889 Y0.605517 I-0.076081 J0.09918
G01 X1.931036 Y0.674791
G03 X1.937144 Y0.68051 I-0.082326 J0.09406
G01 X2.004464 Y0.747901
G03 X2.010327 Y0.754188 I-0.088435 J0.088341
G01 X2.066775 Y0.81906
G03 X2.072285 Y0.825858 I-0.094298 J0.082054
G01 X2.118819 Y0.887574
G03 X2.123878 Y0.8948 I-0.099808 J0.075255
G01 X2.161453 Y0.952723
G03 X2.165981 Y0.960273 I-0.104867 J0.068029
G01 X2.167053 Y0.962212
G01 X2.205555 Y0.873241
G01 X2.256034 Y0.73303
G01 X2.297609 Y0.589926
G01 X2.330117 Y0.444494
G01 X2.353429 Y0.297307
G01 X2.367454 Y0.148948
G01 X2.371156 Y0.031123
G01 X2.369061 Y0.027761
G01 X2.353889 Y0.006632
G01 X2.332879 Y-0.018535
G01 X2.305651 Y-0.046273
G01 X2.27178 Y-0.075184
G01 X2.230758 Y-0.103937
G01 X2.181957 Y-0.131236
G01 X2.124609 Y-0.155772
G01 X2.057822 Y-0.176159
G01 X1.980631 Y-0.190885
G01 X1.892071 Y-0.198288
G01 X1.791248 Y-0.19658
G01 X1.677376 Y-0.183892
G01 X1.549793 Y-0.158324
G01 X1.407937 Y-0.11799
G01 X1.251322 Y-0.061039
G01 X1.079507 Y0.014332
G01 X0.947747 Y0.081502
G01 X0.94132 Y0.130325
G01 X1.033246 Y0.161804
G03 X1.038656 Y0.163796 I-0.040495 J0.118259
G01 X1.20885 Y0.230993
G03 X1.214521 Y0.233395 I-0.045905 J0.116266
G01 X1.36715 Y0.30253
G03 X1.373054 Y0.305393 I-0.051576 J0.113864
G01 F15 Z-0.39
G01 F300 X1.509074 Y0.375829
G03 X1.515168 Y0.379204 I-0.05748 J0.111
G01 X1.635535 Y0.450304
G03 X1.641761 Y0.454233 I-0.063574 J0.107626
G01 X1.747431 Y0.525362
G03 X1.753712 Y0.529878 I-0.0698 J0.103697
G01 X1.845643 Y0.600397
G03 X1.851889 Y0.605517 I-0.076081 J0.09918
G01 X1.931036 Y0.674791
G03 X1.937144 Y0.68051 I-0.082326 J0.09406
G01 X2.004464 Y0.747901
G03 X2.010327 Y0.754188 I-0.088435 J0.088341
G01 X2.066775 Y0.81906
G03 X2.072285 Y0.825858 I-0.094298 J0.082054
G01 X2.118819 Y0.887574
G03 X2.123878 Y0.8948 I-0.099808 J0.075255
G01 X2.161453 Y0.952723
G03 X2.165981 Y0.960273 I-0.104867 J0.068029
G01 X2.167053 Y0.962212
G01 X2.205555 Y0.873241
G01 X2.256034 Y0.73303
G01 X2.297609 Y0.589926
G01 X2.330117 Y0.444494
G01 X2.353429 Y0.297307
G01 X2.367454 Y0.148948
G01 X2.371156 Y0.031123
G01 X2.369061 Y0.027761
G01 X2.353889 Y0.006632
G01 X2.332879 Y-0.018535
G01 X2.305651 Y-0.046273
G01 X2.27178 Y-0.075184
G01 X2.230758 Y-0.103937
G01 X2.181957 Y-0.131236
G01 X2.124609 Y-0.155772
G01 X2.057822 Y-0.176159
G01 X1.980631 Y-0.190885
G01 X1.892071 Y-0.198288
G01 X1.791248 Y-0.19658
G01 X1.677376 Y-0.183892
G01 X1.549793 Y-0.158324
G01 X1.407937 Y-0.11799
G01 X1.251322 Y-0.061039
G01 X1.079507 Y0.014332
G01 X0.947747 Y0.081502
G01 X0.94132 Y0.130325
G01 X1.033246 Y0.161804
G03 X1.038656 Y0.163796 I-0.040495 J0.118259
G01 X1.20885 Y0.230993
G03 X1.214521 Y0.233395 I-0.045905 J0.116266
G01 X1.36715 Y0.30253
G03 X1.373054 Y0.305393 I-0.051576 J0.113864
G01 F15 Z-0.42
G01 F300 X1.509074 Y0.375829
G03 X1.515168 Y0.379204 I-0.05748 J0.111
G01 X1.635535 Y0.450304
G03 X1.641761 Y0.454233 I-0.063574 J0.107626
G01 X1.747431 Y0.525362
G03 X1.753712 Y0.529878 I-0.0698 J0.103697
G01 X1.845643 Y0.600397
G03 X1.851889 Y0.605517 I-0.076081 J0.09918
G01 X1.931036 Y0.674791
G03 X1.937144 Y0.68051 I-0.082326 J0.09406
G01 X2.004464 Y0.747901
G03 X2.010327 Y0.754188 I-0.088435 J0.088341
G01 X2.066775 Y0.81906
G03 X2.072285 Y0.825858 I-0.094298 J0.082054
G01 X2.118819 Y0.887574
G03 X2.123878 Y0.8948 I-0.099808 J0.075255
G01 X2.161453 Y0.952723
G03 X2.165981 Y0.960273 I-0.104867 J0.068029
G01 X2.167053 Y0.962212
G01 X2.205555 Y0.873241
G01 X2.256034 Y0.73303
G01 X2.297609 Y0.589926
G01 X2.330117 Y0.444494
G01 X2.353429 Y0.297307
G01 X2.367454 Y0.148948
G01 X2.371156 Y0.031123
G01 X2.369061 Y0.027761
G01 X2.353889 Y0.006632
G01 X2.332879 Y-0.018535
G01 X2.305651 Y-0.046273
G01 X2.27178 Y-0.075184
G01 X2.230758 Y-0.103937
G01 X2.181957 Y-0.131236
G01 X2.124609 Y-0.155772
G01 X2.057822 Y-0.176159
G01 X1.980631 Y-0.190885
G01 X1.892071 Y-0.198288
G01 X1.791248 Y-0.19658
G01 X1.677376 Y-0.183892
G01 X1.549793 Y-0.158324
G01 X1.407937 Y-0.11799
G01 X1.251322 Y-0.061039
G01 X1.079507 Y0.014332
G01 X0.947747 Y0.081502
G01 X0.94132 Y0.130325
G01 X1.033246 Y0.161804
G03 X1.038656 Y0.163796 I-0.040495 J0.118259
G01 X1.20885 Y0.230993
G03 X1.214521 Y0.233395 I-0.045905 J0.116266
G01 X1.36715 Y0.30253
G03 X1.373054 Y0.305393 I-0.051576 J0.113864
G01 F15 Z-0.45
G01 F300 X1.509074 Y0.375829
G03 X1.515168 Y0.379204 I-0.05748 J0.111
G01 X1.635535 Y0.450304
G03 X1.641761 Y0.454233 I-0.063574 J0.107626
G01 X1.747431 Y0.525362
G03 X1.753712 Y0.529878 I-0.0698 J0.103697
G01 X1.845643 Y0.600397
G03 X1.851889 Y0.605517 I-0.076081 J0.09918
G01 X1.931036 Y0.674791
G03 X1.937144 Y0.68051 I-0.082326 J0.09406
G01 X2.004464 Y0.747901
G03 X2.010327 Y0.754188 I-0.088435 J0.088341
G01 X2.066775 Y0.81906
G03 X2.072285 Y0.825858 I-0.094298 J0.082054
G01 X2.118819 Y0.887574
G03 X2.123878 Y0.8948 I-0.099808 J0.075255
G01 X2.161453 Y0.952723
G03 X2.165981 Y0.960273 I-0.104867 J0.068029
G01 X2.167053 Y0.962212
G01 X2.205555 Y0.873241
G01 X2.256034 Y0.73303
G01 X2.297609 Y0.589926
G01 X2.330117 Y0.444494
G01 X2.353429 Y0.297307
G01 X2.367454 Y0.148948
G01 X2.371156 Y0.031123
G01 X2.369061 Y0.027761
G01 X2.353889 Y0.006632
G01 X2.332879 Y-0.018535
G01 X2.305651 Y-0.046273
G01 X2.27178 Y-0.075184
G01 X2.230758 Y-0.103937
G01 X2.181957 Y-0.131236
G01 X2.124609 Y-0.155772
G01 X2.057822 Y-0.176159
G01 X1.980631 Y-0.190885
G01 X1.892071 Y-0.198288
G01 X1.791248 Y-0.19658
G01 X1.677376 Y-0.183892
G01 X1.549793 Y-0.158324
G01 X1.407937 Y-0.11799
G01 X1.251322 Y-0.061039
G01 X1.079507 Y0.014332
G01 X0.947747 Y0.081502
G01 X0.94132 Y0.130325
G01 X1.033246 Y0.161804
G03 X1.038656 Y0.163796 I-0.040495 J0.118259
G01 X1.20885 Y0.230993
G03 X1.214521 Y0.233395 I-0.045905 J0.116266
G01 X1.36715 Y0.30253
G03 X1.373054 Y0.305393 I-0.051576 J0.113864
G01 F15 Z-0.48
G01 F300 X1.509074 Y0.375829
G03 X1.515168 Y0.379204 I-0.05748 J0.111
G01 X1.635535 Y0.450304
G03 X1.641761 Y0.454233 I-0.063574 J0.107626
G01 X1.747431 Y0.525362
G03 X1.753712 Y0.529878 I-0.0698 J0.103697
G01 X1.845643 Y0.600397
G03 X1.851889 Y0.605517 I-0.076081 J0.09918
G01 X1.931036 Y0.674791
G03 X1.937144 Y0.68051 I-0.082326 J0.09406
G01 X2.004464 Y0.747901
G03 X2.010327 Y0.754188 I-0.088435 J0.088341
G01 X2.066775 Y0.81906
G03 X2.072285 Y0.825858 I-0.094298 J0.082054
G01 X2.118819 Y0.887574
G03 X2.123878 Y0.8948 I-0.099808 J0.075255
G01 X2.161453 Y0.952723
G03 X2.165981 Y0.960273 I-0.104867 J0.068029
G01 X2.167053 Y0.962212
G01 X2.205555 Y0.873241
G01 X2.256034 Y0.73303
G01 X2.297609 Y0.589926
G01 X2.330117 Y0.444494
G01 X2.353429 Y0.297307
G01 X2.367454 Y0.148948
G01 X2.371156 Y0.031123
G01 X2.369061 Y0.027761
G01 X2.353889 Y0.006632
G01 X2.332879 Y-0.018535
G01 X2.305651 Y-0.046273
G01 X2.27178 Y-0.075184
G01 X2.230758 Y-0.103937
G01 X2.181957 Y-0.131236
G01 X2.124609 Y-0.155772
G01 X2.057822 Y-0.176159
G01 X1.980631 Y-0.190885
G01 X1.892071 Y-0.198288
G01 X1.791248 Y-0.19658
G01 X1.677376 Y-0.183892
G01 X1.549793 Y-0.158324
G01 X1.407937 Y-0.11799
G01 X1.251322 Y-0.061039
G01 X1.079507 Y0.014332
G01 X0.947747 Y0.081502
G01 X0.94132 Y0.130325
G01 X1.033246 Y0.161804
G03 X1.038656 Y0.163796 I-0.040495 J0.118259
G01 X1.20885 Y0.230993
G03 X1.214521 Y0.233395 I-0.045905 J0.116266
G01 X1.36715 Y0.30253
G03 X1.373054 Y0.305393 I-0.051576 J0.113864
G01 F15 Z-0.51
G01 F300 X1.509074 Y0.375829
G03 X1.515168 Y0.379204 I-0.05748 J0.111
G01 X1.635535 Y0.450304
G03 X1.641761 Y0.454233 I-0.063574 J0.107626
G01 X1.747431 Y0.525362
G03 X1.753712 Y0.529878 I-0.0698 J0.103697
G01 X1.845643 Y0.600397
G03 X1.851889 Y0.605517 I-0.076081 J0.09918
G01 X1.931036 Y0.674791
G03 X1.937144 Y0.68051 I-0.082326 J0.09406
G01 X2.004464 Y0.747901
G03 X2.010327 Y0.754188 I-0.088435 J0.088341
G01 X2.066775 Y0.81906
G03 X2.072285 Y0.825858 I-0.094298 J0.082054
G01 X2.118819 Y0.887574
G03 X2.123878 Y0.8948 I-0.099808 J0.075255
G01 X2.161453 Y0.952723
G03 X2.165981 Y0.960273 I-0.104867 J0.068029
G01 X2.167053 Y0.962212
G01 X2.205555 Y0.873241
G01 X2.256034 Y0.73303
G01 X2.297609 Y0.589926
G01 X2.330117 Y0.444494
G01 X2.353429 Y0.297307
G01 X2.367454 Y0.148948
G01 X2.371156 Y0.031123
G01 X2.369061 Y0.027761
G01 X2.353889 Y0.006632
G01 X2.332879 Y-0.018535
G01 X2.305651 Y-0.046273
G01 X2.27178 Y-0.075184
G01 X2.230758 Y-0.103937
G01 X2.181957 Y-0.131236
G01 X2.124609 Y-0.155772
G01 X2.057822 Y-0.176159
G01 X1.980631 Y-0.190885
G01 X1.892071 Y-0.198288
G01 X1.791248 Y-0.19658
G01 X1.677376 Y-0.183892
G01 X1.549793 Y-0.158324
G01 X1.407937 Y-0.11799
G01 X1.251322 Y-0.061039
G01 X1.079507 Y0.014332
G01 X0.947747 Y0.081502
G01 X0.94132 Y0.130325
G01 X1.033246 Y0.161804
G03 X1.038656 Y0.163796 I-0.040495 J0.118259
G01 X1.20885 Y0.230993
G03 X1.214521 Y0.233395 I-0.045905 J0.116266
G01 X1.36715 Y0.30253
G03 X1.373054 Y0.305393 I-0.051576 J0.113864
G01 F15 Z-0.54
G01 F300 X1.509074 Y0.375829
G03 X1.515168 Y0.379204 I-0.05748 J0.111
G01 X1.635535 Y0.450304
G03 X1.641761 Y0.454233 I-0.063574 J0.107626
G01 X1.747431 Y0.525362
G03 X1.753712 Y0.529878 I-0.0698 J0.103697
G01 X1.845643 Y0.600397
G03 X1.851889 Y0.605517 I-0.076081 J0.09918
G01 X1.931036 Y0.674791
G03 X1.937144 Y0.68051 I-0.082326 J0.09406
G01 X2.004464 Y0.747901
G03 X2.010327 Y0.754188 I-0.088435 J0.088341
G01 X2.066775 Y0.81906
G03 X2.072285 Y0.825858 I-0.094298 J0.082054
G01 X2.118819 Y0.887574
G03 X2.123878 Y0.8948 I-0.099808 J0.075255
G01 X2.161453 Y0.952723
G03 X2.165981 Y0.960273 I-0.104867 J0.068029
G01 X2.167053 Y0.962212
G01 X2.205555 Y0.873241
G01 X2.256034 Y0.73303
G01 X2.297609 Y0.589926
G01 X2.330117 Y0.444494
G01 X2.353429 Y0.297307
G01 X2.367454 Y0.148948
G01 X2.371156 Y0.031123
G01 X2.369061 Y0.027761
G01 X2.353889 Y0.006632
G01 X2.332879 Y-0.018535
G01 X2.305651 Y-0.046273
G01 X2.27178 Y-0.075184
G01 X2.230758 Y-0.103937
G01 X2.181957 Y-0.131236
G01 X2.124609 Y-0.155772
G01 X2.057822 Y-0.176159
G01 X1.980631 Y-0.190885
G01 X1.892071 Y-0.198288
G01 X1.791248 Y-0.19658
G01 X1.677376 Y-0.183892
G01 X1.549793 Y-0.158324
G01 X1.407937 Y-0.11799
G01 X1.251322 Y-0.061039
G01 X1.079507 Y0.014332
G01 X0.947747 Y0.081502
G01 X0.94132 Y0.130325
G01 X1.033246 Y0.161804
G03 X1.038656 Y0.163796 I-0.040495 J0.118259
G01 X1.20885 Y0.230993
G03 X1.214521 Y0.233395 I-0.045905 J0.116266
G01 X1.36715 Y0.30253
G03 X1.373054 Y0.305393 I-0.051576 J0.113864
G01 F15 Z-0.57
G01 F300 X1.509074 Y0.375829
G03 X1.515168 Y0.379204 I-0.05748 J0.111
G01 X1.635535 Y0.450304
G03 X1.641761 Y0.454233 I-0.063574 J0.107626
G01 X1.747431 Y0.525362
G03 X1.753712 Y0.529878 I-0.0698 J0.103697
G01 X1.845643 Y0.600397
G03 X1.851889 Y0.605517 I-0.076081 J0.09918
G01 X1.931036 Y0.674791
G03 X1.937144 Y0.68051 I-0.082326 J0.09406
G01 X2.004464 Y0.747901
G03 X2.010327 Y0.754188 I-0.088435 J0.088341
G01 X2.066775 Y0.81906
G03 X2.072285 Y0.825858 I-0.094298 J0.082054
G01 X2.118819 Y0.887574
G03 X2.123878 Y0.8948 I-0.099808 J0.075255
G01 X2.161453 Y0.952723
G03 X2.165981 Y0.960273 I-0.104867 J0.068029
G01 X2.167053 Y0.962212
G01 X2.205555 Y0.873241
G01 X2.256034 Y0.73303
G01 X2.297609 Y0.589926
G01 X2.330117 Y0.444494
G01 X2.353429 Y0.297307
G01 X2.367454 Y0.148948
G01 X2.371156 Y0.031123
G01 X2.369061 Y0.027761
G01 X2.353889 Y0.006632
G01 X2.332879 Y-0.018535
G01 X2.305651 Y-0.046273
G01 X2.27178 Y-0.075184
G01 X2.230758 Y-0.103937
G01 X2.181957 Y-0.131236
G01 X2.124609 Y-0.155772
G01 X2.057822 Y-0.176159
G01 X1.980631 Y-0.190885
G01 X1.892071 Y-0.198288
G01 X1.791248 Y-0.19658
G01 X1.677376 Y-0.183892
G01 X1.549793 Y-0.158324
G01 X1.407937 Y-0.11799
G01 X1.251322 Y-0.061039
G01 X1.079507 Y0.014332
G01 X0.947747 Y0.081502
G01 X0.94132 Y0.130325
G01 X1.033246 Y0.161804
G03 X1.038656 Y0.163796 I-0.040495 J0.118259
G01 X1.20885 Y0.230993
G03 X1.214521 Y0.233395 I-0.045905 J0.116266
G01 X1.36715 Y0.30253
G03 X1.373054 Y0.305393 I-0.051576 J0.113864
G01 F15 Z-0.6
G01 F300 X1.509074 Y0.375829
G03 X1.515168 Y0.379204 I-0.05748 J0.111
G01 X1.635535 Y0.450304
G03 X1.641761 Y0.454233 I-0.063574 J0.107626
G01 X1.747431 Y0.525362
G03 X1.753712 Y0.529878 I-0.0698 J0.103697
G01 X1.845643 Y0.600397
G03 X1.851889 Y0.605517 I-0.076081 J0.09918
G01 X1.931036 Y0.674791
G03 X1.937144 Y0.68051 I-0.082326 J0.09406
G01 X2.004464 Y0.747901
G03 X2.010327 Y0.754188 I-0.088435 J0.088341
G01 X2.066775 Y0.81906
G03 X2.072285 Y0.825858 I-0.094298 J0.082054
G01 X2.118819 Y0.887574
G03 X2.123878 Y0.8948 I-0.099808 J0.075255
G01 X2.161453 Y0.952723
G03 X2.165981 Y0.960273 I-0.104867 J0.068029
G01 X2.167053 Y0.962212
G01 X2.205555 Y0.873241
G01 X2.256034 Y0.73303
G01 X2.297609 Y0.589926
G01 X2.330117 Y0.444494
G01 X2.353429 Y0.297307
G01 X2.367454 Y0.148948
G01 X2.371156 Y0.031123
G01 X2.369061 Y0.027761
G01 X2.353889 Y0.006632
G01 X2.332879 Y-0.018535
G01 X2.305651 Y-0.046273
G01 X2.27178 Y-0.075184
G01 X2.230758 Y-0.103937
G01 X2.181957 Y-0.131236
G01 X2.124609 Y-0.155772
G01 X2.057822 Y-0.176159
G01 X1.980631 Y-0.190885
G01 X1.892071 Y-0.198288
G01 X1.791248 Y-0.19658
G01 X1.677376 Y-0.183892
G01 X1.549793 Y-0.158324
G01 X1.407937 Y-0.11799
G01 X1.251322 Y-0.061039
G01 X1.079507 Y0.014332
G01 X0.947747 Y0.081502
G01 X0.94132 Y0.130325
G01 X1.033246 Y0.161804
G03 X1.038656 Y0.163796 I-0.040495 J0.118259
G01 X1.20885 Y0.230993
G03 X1.214521 Y0.233395 I-0.045905 J0.116266
G01 X1.36715 Y0.30253
G03 X1.373054 Y0.305393 I-0.051576 J0.113864
G01 F15 Z-0.63
G01 F300 X1.509074 Y0.375829
G03 X1.515168 Y0.379204 I-0.05748 J0.111
G01 X1.635535 Y0.450304
G03 X1.641761 Y0.454233 I-0.063574 J0.107626
G01 X1.747431 Y0.525362
G03 X1.753712 Y0.529878 I-0.0698 J0.103697
G01 X1.845643 Y0.600397
G03 X1.851889 Y0.605517 I-0.076081 J0.09918
G01 X1.931036 Y0.674791
G03 X1.937144 Y0.68051 I-0.082326 J0.09406
G01 X2.004464 Y0.747901
G03 X2.010327 Y0.754188 I-0.088435 J0.088341
G01 X2.066775 Y0.81906
G03 X2.072285 Y0.825858 I-0.094298 J0.082054
G01 X2.118819 Y0.887574
G03 X2.123878 Y0.8948 I-0.099808 J0.075255
G01 X2.161453 Y0.952723
G03 X2.165981 Y0.960273 I-0.104867 J0.068029
G01 X2.167053 Y0.962212
G01 X2.205555 Y0.873241
G01 X2.256034 Y0.73303
G01 X2.297609 Y0.589926
G01 X2.330117 Y0.444494
G01 X2.353429 Y0.297307
G01 X2.367454 Y0.148948
G01 X2.371156 Y0.031123
G01 X2.369061 Y0.027761
G01 X2.353889 Y0.006632
G01 X2.332879 Y-0.018535
G01 X2.305651 Y-0.046273
G01 X2.27178 Y-0.075184
G01 X2.230758 Y-0.103937
G01 X2.181957 Y-0.131236
G01 X2.124609 Y-0.155772
G01 X2.057822 Y-0.176159
G01 X1.980631 Y-0.190885
G01 X1.892071 Y-0.198288
G01 X1.791248 Y-0.19658
G01 X1.677376 Y-0.183892
G01 X1.549793 Y-0.158324
G01 X1.407937 Y-0.11799
G01 X1.251322 Y-0.061039
G01 X1.079507 Y0.014332
G01 X0.947747 Y0.081502
G01 X0.94132 Y0.130325
G01 X1.033246 Y0.161804
G03 X1.038656 Y0.163796 I-0.040495 J0.118259
G01 X1.20885 Y0.230993
G03 X1.214521 Y0.233395 I-0.045905 J0.116266
G01 X1.36715 Y0.30253
G03 X1.373054 Y0.305393 I-0.051576 J0.113864
G01 F15 Z-0.66
G01 F300 X1.509074 Y0.375829
G03 X1.515168 Y0.379204 I-0.05748 J0.111
G01 X1.635535 Y0.450304
G03 X1.641761 Y0.454233 I-0.063574 J0.107626
G01 X1.747431 Y0.525362
G03 X1.753712 Y0.529878 I-0.0698 J0.103697
G01 X1.845643 Y0.600397
G03 X1.851889 Y0.605517 I-0.076081 J0.09918
G01 X1.931036 Y0.674791
G03 X1.937144 Y0.68051 I-0.082326 J0.09406
G01 X2.004464 Y0.747901
G03 X2.010327 Y0.754188 I-0.088435 J0.088341
G01 X2.066775 Y0.81906
G03 X2.072285 Y0.825858 I-0.094298 J0.082054
G01 X2.118819 Y0.887574
G03 X2.123878 Y0.8948 I-0.099808 J0.075255
G01 X2.161453 Y0.952723
G03 X2.165981 Y0.960273 I-0.104867 J0.068029
G01 X2.167053 Y0.962212
G01 X2.205555 Y0.873241
G01 X2.256034 Y0.73303
G01 X2.297609 Y0.589926
G01 X2.330117 Y0.444494
G01 X2.353429 Y0.297307
G01 X2.367454 Y0.148948
G01 X2.371156 Y0.031123
G01 X2.369061 Y0.027761
G01 X2.353889 Y0.006632
G01 X2.332879 Y-0.018535
G01 X2.305651 Y-0.046273
G01 X2.27178 Y-0.075184
G01 X2.230758 Y-0.103937
G01 X2.181957 Y-0.131236
G01 X2.124609 Y-0.155772
G01 X2.057822 Y-0.176159
G01 X1.980631 Y-0.190885
G01 X1.892071 Y-0.198288
G01 X1.791248 Y-0.19658
G01 X1.677376 Y-0.183892
G01 X1.549793 Y-0.158324
G01 X1.407937 Y-0.11799
G01 X1.251322 Y-0.061039
G01 X1.079507 Y0.014332
G01 X0.947747 Y0.081502
G01 X0.94132 Y0.130325
G01 X1.033246 Y0.161804
G03 X1.038656 Y0.163796 I-0.040495 J0.118259
G01 X1.20885 Y0.230993
G03 X1.214521 Y0.233395 I-0.045905 J0.116266
G01 X1.36715 Y0.30253
G03 X1.373054 Y0.305393 I-0.051576 J0.113864
G01 F15 Z-0.69
G01 F300 X1.509074 Y0.375829
G03 X1.515168 Y0.379204 I-0.05748 J0.111
G01 X1.635535 Y0.450304
G03 X1.641761 Y0.454233 I-0.063574 J0.107626
G01 X1.747431 Y0.525362
G03 X1.753712 Y0.529878 I-0.0698 J0.103697
G01 X1.845643 Y0.600397
G03 X1.851889 Y0.605517 I-0.076081 J0.09918
G01 X1.931036 Y0.674791
G03 X1.937144 Y0.68051 I-0.082326 J0.09406
G01 X2.004464 Y0.747901
G03 X2.010327 Y0.754188 I-0.088435 J0.088341
G01 X2.066775 Y0.81906
G03 X2.072285 Y0.825858 I-0.094298 J0.082054
G01 X2.118819 Y0.887574
G03 X2.123878 Y0.8948 I-0.099808 J0.075255
G01 X2.161453 Y0.952723
G03 X2.165981 Y0.960273 I-0.104867 J0.068029
G01 X2.167053 Y0.962212
G01 X2.205555 Y0.873241
G01 X2.256034 Y0.73303
G01 X2.297609 Y0.589926
G01 X2.330117 Y0.444494
G01 X2.353429 Y0.297307
G01 X2.367454 Y0.148948
G01 X2.371156 Y0.031123
G01 X2.369061 Y0.027761
G01 X2.353889 Y0.006632
G01 X2.332879 Y-0.018535
G01 X2.305651 Y-0.046273
G01 X2.27178 Y-0.075184
G01 X2.230758 Y-0.103937
G01 X2.181957 Y-0.131236
G01 X2.124609 Y-0.155772
G01 X2.057822 Y-0.176159
G01 X1.980631 Y-0.190885
G01 X1.892071 Y-0.198288
G01 X1.791248 Y-0.19658
G01 X1.677376 Y-0.183892
G01 X1.549793 Y-0.158324
G01 X1.407937 Y-0.11799
G01 X1.251322 Y-0.061039
G01 X1.079507 Y0.014332
G01 X0.947747 Y0.081502
G01 X0.94132 Y0.130325
G01 X1.033246 Y0.161804
G03 X1.038656 Y0.163796 I-0.040495 J0.118259
G01 X1.20885 Y0.230993
G03 X1.214521 Y0.233395 I-0.045905 J0.116266
G01 X1.36715 Y0.30253
G03 X1.373054 Y0.305393 I-0.051576 J0.113864
G01 F15 Z-0.72
G01 F300 X1.509074 Y0.375829
G03 X1.515168 Y0.379204 I-0.05748 J0.111
G01 X1.635535 Y0.450304
G03 X1.641761 Y0.454233 I-0.063574 J0.107626
G01 X1.747431 Y0.525362
G03 X1.753712 Y0.529878 I-0.0698 J0.103697
G01 X1.845643 Y0.600397
G03 X1.851889 Y0.605517 I-0.076081 J0.09918
G01 X1.931036 Y0.674791
G03 X1.937144 Y0.68051 I-0.082326 J0.09406
G01 X2.004464 Y0.747901
G03 X2.010327 Y0.754188 I-0.088435 J0.088341
G01 X2.066775 Y0.81906
G03 X2.072285 Y0.825858 I-0.094298 J0.082054
G01 X2.118819 Y0.887574
G03 X2.123878 Y0.8948 I-0.099808 J0.075255
G01 X2.161453 Y0.952723
G03 X2.165981 Y0.960273 I-0.104867 J0.068029
G01 X2.167053 Y0.962212
G01 X2.205555 Y0.873241
G01 X2.256034 Y0.73303
G01 X2.297609 Y0.589926
G01 X2.330117 Y0.444494
G01 X2.353429 Y0.297307
G01 X2.367454 Y0.148948
G01 X2.371156 Y0.031123
G01 X2.369061 Y0.027761
G01 X2.353889 Y0.006632
G01 X2.332879 Y-0.018535
G01 X2.305651 Y-0.046273
G01 X2.27178 Y-0.075184
G01 X2.230758 Y-0.103937
G01 X2.181957 Y-0.131236
G01 X2.124609 Y-0.155772
G01 X2.057822 Y-0.176159
G01 X1.980631 Y-0.190885
G01 X1.892071 Y-0.198288
G01 X1.791248 Y-0.19658
G01 X1.677376 Y-0.183892
G01 X1.549793 Y-0.158324
G01 X1.407937 Y-0.11799
G01 X1.251322 Y-0.061039
G01 X1.079507 Y0.014332
G01 X0.947747 Y0.081502
G01 X0.94132 Y0.130325
G01 X1.033246 Y0.161804
G03 X1.038656 Y0.163796 I-0.040495 J0.118259
G01 X1.20885 Y0.230993
G03 X1.214521 Y0.233395 I-0.045905 J0.116266
G01 X1.36715 Y0.30253
G03 X1.373054 Y0.305393 I-0.051576 J0.113864
G01 F15 Z-0.75
G01 F300 X1.509074 Y0.375829
G03 X1.515168 Y0.379204 I-0.05748 J0.111
G01 X1.635535 Y0.450304
G03 X1.641761 Y0.454233 I-0.063574 J0.107626
G01 X1.747431 Y0.525362
G03 X1.753712 Y0.529878 I-0.0698 J0.103697
G01 X1.845643 Y0.600397
G03 X1.851889 Y0.605517 I-0.076081 J0.09918
G01 X1.931036 Y0.674791
G03 X1.937144 Y0.68051 I-0.082326 J0.09406
G01 X2.004464 Y0.747901
G03 X2.010327 Y0.754188 I-0.088435 J0.088341
G01 X2.066775 Y0.81906
G03 X2.072285 Y0.825858 I-0.094298 J0.082054
G01 X2.118819 Y0.887574
G03 X2.123878 Y0.8948 I-0.099808 J0.075255
G01 X2.161453 Y0.952723
G03 X2.165981 Y0.960273 I-0.104867 J0.068029
G01 X2.167053 Y0.962212
G01 X2.205555 Y0.873241
G01 X2.256034 Y0.73303
G01 X2.297609 Y0.589926
G01 X2.330117 Y0.444494
G01 X2.353429 Y0.297307
G01 X2.367454 Y0.148948
G01 X2.371156 Y0.031123
G01 X2.369061 Y0.027761
G01 X2.353889 Y0.006632
G01 X2.332879 Y-0.018535
G01 X2.305651 Y-0.046273
G01 X2.27178 Y-0.075184
G01 X2.230758 Y-0.103937
G01 X2.181957 Y-0.131236
G01 X2.124609 Y-0.155772
G01 X2.057822 Y-0.176159
G01 X1.980631 Y-0.190885
G01 X1.892071 Y-0.198288
G01 X1.791248 Y-0.19658
G01 X1.677376 Y-0.183892
G01 X1.549793 Y-0.158324
G01 X1.407937 Y-0.11799
G01 X1.251322 Y-0.061039
G01 X1.079507 Y0.014332
G01 X0.947747 Y0.081502
G01 X0.94132 Y0.130325
G01 X1.033246 Y0.161804
G03 X1.038656 Y0.163796 I-0.040495 J0.118259
G01 X1.20885 Y0.230993
G03 X1.214521 Y0.233395 I-0.045905 J0.116266
G01 X1.36715 Y0.30253
G03 X1.373054 Y0.305393 I-0.051576 J0.113864
G01 F15 Z-0.78
G01 F300 X1.509074 Y0.375829
G03 X1.515168 Y0.379204 I-0.05748 J0.111
G01 X1.635535 Y0.450304
G03 X1.641761 Y0.454233 I-0.063574 J0.107626
G01 X1.747431 Y0.525362
G03 X1.753712 Y0.529878 I-0.0698 J0.103697
G01 X1.845643 Y0.600397
G03 X1.851889 Y0.605517 I-0.076081 J0.09918
G01 X1.931036 Y0.674791
G03 X1.937144 Y0.68051 I-0.082326 J0.09406
G01 X2.004464 Y0.747901
G03 X2.010327 Y0.754188 I-0.088435 J0.088341
G01 X2.066775 Y0.81906
G03 X2.072285 Y0.825858 I-0.094298 J0.082054
G01 X2.118819 Y0.887574
G03 X2.123878 Y0.8948 I-0.099808 J0.075255
G01 X2.161453 Y0.952723
G03 X2.165981 Y0.960273 I-0.104867 J0.068029
G01 X2.167053 Y0.962212
G01 X2.205555 Y0.873241
G01 X2.256034 Y0.73303
G01 X2.297609 Y0.589926
G01 X2.330117 Y0.444494
G01 X2.353429 Y0.297307
G01 X2.367454 Y0.148948
G01 X2.371156 Y0.031123
G01 X2.369061 Y0.027761
G01 X2.353889 Y0.006632
G01 X2.332879 Y-0.018535
G01 X2.305651 Y-0.046273
G01 X2.27178 Y-0.075184
G01 X2.230758 Y-0.103937
G01 X2.181957 Y-0.131236
G01 X2.124609 Y-0.155772
G01 X2.057822 Y-0.176159
G01 X1.980631 Y-0.190885
G01 X1.892071 Y-0.198288
G01 X1.791248 Y-0.19658
G01 X1.677376 Y-0.183892
G01 X1.549793 Y-0.158324
G01 X1.407937 Y-0.11799
G01 X1.251322 Y-0.061039
G01 X1.079507 Y0.014332
G01 X0.947747 Y0.081502
G01 X0.94132 Y0.130325
G01 X1.033246 Y0.161804
G03 X1.038656 Y0.163796 I-0.040495 J0.118259
G01 X1.20885 Y0.230993
G03 X1.214521 Y0.233395 I-0.045905 J0.116266
G01 X1.36715 Y0.30253
G03 X1.373054 Y0.305393 I-0.051576 J0.113864
G01 F15 Z-0.8
G01 F300 X1.509074 Y0.375829
G03 X1.515168 Y0.379204 I-0.05748 J0.111
G01 X1.635535 Y0.450304
G03 X1.641761 Y0.454233 I-0.063574 J0.107626
G01 X1.747431 Y0.525362
G03 X1.753712 Y0.529878 I-0.0698 J0.103697
G01 X1.845643 Y0.600397
G03 X1.851889 Y0.605517 I-0.076081 J0.09918
G01 X1.931036 Y0.674791
G03 X1.937144 Y0.68051 I-0.082326 J0.09406
G01 X2.004464 Y0.747901
G03 X2.010327 Y0.754188 I-0.088435 J0.088341
G01 X2.066775 Y0.81906
G03 X2.072285 Y0.825858 I-0.094298 J0.082054
G01 X2.118819 Y0.887574
G03 X2.123878 Y0.8948 I-0.099808 J0.075255
G01 X2.161453 Y0.952723
G03 X2.165981 Y0.960273 I-0.104867 J0.068029
G01 X2.167053 Y0.962212
G01 X2.205555 Y0.873241
G01 X2.256034 Y0.73303
G01 X2.297609 Y0.589926
G01 X2.330117 Y0.444494
G01 X2.353429 Y0.297307
G01 X2.367454 Y0.148948
G01 X2.371156 Y0.031123
G01 X2.369061 Y0.027761
G01 X2.353889 Y0.006632
G01 X2.332879 Y-0.018535
G01 X2.305651 Y-0.046273
G01 X2.27178 Y-0.075184
G01 X2.230758 Y-0.103937
G01 X2.181957 Y-0.131236
G01 X2.124609 Y-0.155772
G01 X2.057822 Y-0.176159
G01 X1.980631 Y-0.190885
G01 X1.892071 Y-0.198288
G01 X1.791248 Y-0.19658
G01 X1.677376 Y-0.183892
G01 X1.549793 Y-0.158324
G01 X1.407937 Y-0.11799
G01 X1.251322 Y-0.061039
G01 X1.079507 Y0.014332
G01 X0.947747 Y0.081502
G01 X0.94132 Y0.130325
G01 X1.033246 Y0.161804
G03 X1.038656 Y0.163796 I-0.040495 J0.118259
G01 X1.20885 Y0.230993
G03 X1.214521 Y0.233395 I-0.045905 J0.116266
G01 X1.36715 Y0.30253
G03 X1.373054 Y0.305393 I-0.051576 J0.113864
G00 Z0.125
G00 X2.213277 Y-0.851792
G01 F15 Z-0.03
G01 F300 X2.205555 Y-0.873241
G01 X2.146371 Y-1.010006
G01 X2.078717 Y-1.142784
G01 X2.002859 Y-1.271053
G01 X1.919097 Y-1.394306
G01 X1.827761 Y-1.512055
G01 X1.729847 Y-1.623117
G01 X1.696904 Y-1.655063
G01 X1.694809 Y-1.655549
G01 X1.66914 Y-1.659761
G01 X1.636488 Y-1.662701
G01 X1.597621 Y-1.663061
G01 X1.553227 Y-1.659554
G01 X1.503889 Y-1.650879
G01 X1.450078 Y-1.635674
G01 X1.392178 Y-1.612472
G01 X1.330536 Y-1.579663
G01 X1.265542 Y-1.535493
G01 X1.197686 Y-1.478107
G01 X1.1276 Y-1.405607
G01 X1.056053 Y-1.316115
G01 X0.983917 Y-1.207821
G01 X0.91213 Y-1.078993
G01 X0.841657 Y-0.927979
G01 X0.773461 Y-0.753192
G01 X0.727789 Y-0.612528
G01 X0.757767 Y-0.57346
G01 X0.845028 Y-0.616203
G03 X0.850262 Y-0.618619 I0.054987 J0.112256
G01 X1.018123 Y-0.691449
G03 X1.023831 Y-0.693761 I0.049753 J0.114672
G01 X1.180642 Y-0.7528
G03 X1.186842 Y-0.75495 I0.044044 J0.116983
G01 X1.332828 Y-0.801325
G03 X1.339523 Y-0.803248 I0.037845 J0.119133
G01 X1.474911 Y-0.838085
G03 X1.482092 Y-0.839708 I0.031149 J0.121057
G01 X1.607107 Y-0.864134
G03 X1.614742 Y-0.865381 I0.023969 J0.12268
G01 X1.729612 Y-0.880522
G03 X1.737649 Y-0.881318 I0.016334 J0.123928
G01 X1.842598 Y-0.888299
G03 X1.850961 Y-0.888575 I0.008297 J0.124724
G01 X1.946216 Y-0.888524
G03 X1.954807 Y-0.888224 I-0.000066 J0.125
G01 X2.040593 Y-0.882268
G03 X2.049297 Y-0.881357 I-0.008658 J0.1247
G01 X2.12584 Y-0.870622
G03 X2.134528 Y-0.869089 I-0.017361 J0.123788
G01 X2.202055 Y-0.854701
G03 X2.210596 Y-0.852564 I-0.026049 J0.122256
G01 X2.213277 Y-0.851792
G01 F15 Z-0.06
G01 F300 X2.205555 Y-0.873241
G01 X2.146371 Y-1.010006
G01 X2.078717 Y-1.142784
G01 X2.002859 Y-1.271053
G01 X1.919097 Y-1.394306
G01 X1.827761 Y-1.512055
G01 X1.729847 Y-1.623117
G01 X1.696904 Y-1.655063
G01 X1.694809 Y-1.655549
G01 X1.66914 Y-1.659761
G01 X1.636488 Y-1.662701
G01 X1.597621 Y-1.663061
G01 X1.553227 Y-1.659554
G01 X1.503889 Y-1.650879
G01 X1.450078 Y-1.635674
G01 X1.392178 Y-1.612472
G01 X1.330536 Y-1.579663
G01 X1.265542 Y-1.535493
G01 X1.197686 Y-1.478107
G01 X1.1276 Y-1.405607
G01 X1.056053 Y-1.316115
G01 X0.983917 Y-1.207821
G01 X0.91213 Y-1.078993
G01 X0.841657 Y-0.927979
G01 X0.773461 Y-0.753192
G01 X0.727789 Y-0.612528
G01 X0.757767 Y-0.57346
G01 X0.845028 Y-0.616203
G03 X0.850262 Y-0.618619 I0.054987 J0.112256
G01 X1.018123 Y-0.691449
G03 X1.023831 Y-0.693761 I0.049753 J0.114672
G01 X1.180642 Y-0.7528
G03 X1.186842 Y-0.75495 I0.044044 J0.116983
G01 X1.332828 Y-0.801325
G03 X1.339523 Y-0.803248 I0.037845 J0.119133
G01 X1.474911 Y-0.838085
G03 X1.482092 Y-0.839708 I0.031149 J0.121057
G01 X1.607107 Y-0.864134
G03 X1.614742 Y-0.865381 I0.023969 J0.12268
G01 X1.729612 Y-0.880522
G03 X1.737649 Y-0.881318 I0.016334 J0.123928
G01 X1.842598 Y-0.888299
G03 X1.850961 Y-0.888575 I0.008297 J0.124724
G01 X1.946216 Y-0.888524
G03 X1.954807 Y-0.888224 I-0.000066 J0.125
G01 X2.040593 Y-0.882268
G03 X2.049297 Y-0.881357 I-0.008658 J0.1247
G01 X2.12584 Y-0.870622
G03 X2.134528 Y-0.869089 I-0.017361 J0.123788
G01 X2.202055 Y-0.854701
G03 X2.210596 Y-0.852564 I-0.026049 J0.122256
G01 X2.213277 Y-0.851792
G01 F15 Z-0.09
G01 F300 X2.205555 Y-0.873241
G01 X2.146371 Y-1.010006
G01 X2.078717 Y-1.142784
G01 X2.002859 Y-1.271053
G01 X1.919097 Y-1.394306
G01 X1.827761 Y-1.512055
G01 X1.729847 Y-1.623117
G01 X1.696904 Y-1.655063
G01 X1.694809 Y-1.655549
G01 X1.66914 Y-1.659761
G01 X1.636488 Y-1.662701
G01 X1.597621 Y-1.663061
G01 X1.553227 Y-1.659554
G01 X1.503889 Y-1.650879
G01 X1.450078 Y-1.635674
G01 X1.392178 Y-1.612472
G01 X1.330536 Y-1.579663
G01 X1.265542 Y-1.535493
G01 X1.197686 Y-1.478107
G01 X1.1276 Y-1.405607
G01 X1.056053 Y-1.316115
G01 X0.983917 Y-1.207821
G01 X0.91213 Y-1.078993
G01 X0.841657 Y-0.927979
G01 X0.773461 Y-0.753192
G01 X0.727789 Y-0.612528
G01 X0.757767 Y-0.57346
G01 X0.845028 Y-0.616203
G03 X0.850262 Y-0.618619 I0.054987 J0.112256
G01 X1.018123 Y-0.691449
G03 X1.023831 Y-0.693761 I0.049753 J0.114672
G01 X1.180642 Y-0.7528
G03 X1.186842 Y-0.75495 I0.044044 J0.116983
G01 X1.332828 Y-0.801325
G03 X1.339523 Y-0.803248 I0.037845 J0.119133
G01 X1.474911 Y-0.838085
G03 X1.482092 Y-0.839708 I0.031149 J0.121057
G01 X1.607107 Y-0.864134
G03 X1.614742 Y-0.865381 I0.023969 J0.12268
G01 X1.729612 Y-0.880522
G03 X1.737649 Y-0.881318 I0.016334 J0.123928
G01 X1.842598 Y-0.888299
G03 X1.850961 Y-0.888575 I0.008297 J0.124724
G01 X1.946216 Y-0.888524
G03 X1.954807 Y-0.888224 I-0.000066 J0.125
G01 X2.040593 Y-0.882268
G03 X2.049297 Y-0.881357 I-0.008658 J0.1247
G01 X2.12584 Y-0.870622
G03 X2.134528 Y-0.869089 I-0.017361 J0.123788
G01 X2.202055 Y-0.854701
G03 X2.210596 Y-0.852564 I-0.026049 J0.122256
G01 X2.213277 Y-0.851792
G01 F15 Z-0.12
G01 F300 X2.205555 Y-0.873241
G01 X2.146371 Y-1.010006
G01 X2.078717 Y-1.142784
G01 X2.002859 Y-1.271053
G01 X1.919097 Y-1.394306
G01 X1.827761 Y-1.512055
G01 X1.729847 Y-1.623117
G01 X1.696904 Y-1.655063
G01 X1.694809 Y-1.655549
G01 X1.66914 Y-1.659761
G01 X1.636488 Y-1.662701
G01 X1.597621 Y-1.663061
G01 X1.553227 Y-1.659554
G01 X1.503889 Y-1.650879
G01 X1.450078 Y-1.635674
G01 X1.392178 Y-1.612472
G01 X1.330536 Y-1.579663
G01 X1.265542 Y-1.535493
G01 X1.197686 Y-1.478107
G01 X1.1276 Y-1.405607
G01 X1.056053 Y-1.316115
G01 X0.983917 Y-1.207821
G01 X0.91213 Y-1.078993
G01 X0.841657 Y-0.927979
G01 X0.773461 Y-0.753192
G01 X0.727789 Y-0.612528
G01 X0.757767 Y-0.57346
G01 X0.845028 Y-0.616203
G03 X0.850262 Y-0.618619 I0.054987 J0.112256
G01 X1.018123 Y-0.691449
G03 X1.023831 Y-0.693761 I0.049753 J0.114672
G01 X1.180642 Y-0.7528
G03 X1.186842 Y-0.75495 I0.044044 J0.116983
G01 X1.332828 Y-0.801325
G03 X1.339523 Y-0.803248 I0.037845 J0.119133
G01 X1.474911 Y-0.838085
G03 X1.482092 Y-0.839708 I0.031149 J0.121057
G01 X1.607107 Y-0.864134
G03 X1.614742 Y-0.865381 I0.023969 J0.12268
G01 X1.729612 Y-0.880522
G03 X1.737649 Y-0.881318 I0.016334 J0.123928
G01 X1.842598 Y-0.888299
G03 X1.850961 Y-0.888575 I0.008297 J0.124724
G01 X1.946216 Y-0.888524
G03 X1.954807 Y-0.888224 I-0.000066 J0.125
G01 X2.040593 Y-0.882268
G03 X2.049297 Y-0.881357 I-0.008658 J0.1247
G01 X2.12584 Y-0.870622
G03 X2.134528 Y-0.869089 I-0.017361 J0.123788
G01 X2.202055 Y-0.854701
G03 X2.210596 Y-0.852564 I-0.026049 J0.122256
G01 X2.213277 Y-0.851792
G01 F15 Z-0.15
G01 F300 X2.205555 Y-0.873241
G01 X2.146371 Y-1.010006
G01 X2.078717 Y-1.142784
G01 X2.002859 Y-1.271053
G01 X1.919097 Y-1.394306
G01 X1.827761 Y-1.512055
G01 X1.729847 Y-1.623117
G01 X1.696904 Y-1.655063
G01 X1.694809 Y-1.655549
G01 X1.66914 Y-1.659761
G01 X1.636488 Y-1.662701
G01 X1.597621 Y-1.663061
G01 X1.553227 Y-1.659554
G01 X1.503889 Y-1.650879
G01 X1.450078 Y-1.635674
G01 X1.392178 Y-1.612472
G01 X1.330536 Y-1.579663
G01 X1.265542 Y-1.535493
G01 X1.197686 Y-1.478107
G01 X1.1276 Y-1.405607
G01 X1.056053 Y-1.316115
G01 X0.983917 Y-1.207821
G01 X0.91213 Y-1.078993
G01 X0.841657 Y-0.927979
G01 X0.773461 Y-0.753192
G01 X0.727789 Y-0.612528
G01 X0.757767 Y-0.57346
G01 X0.845028 Y-0.616203
G03 X0.850262 Y-0.618619 I0.054987 J0.112256
G01 X1.018123 Y-0.691449
G03 X1.023831 Y-0.693761 I0.049753 J0.114672
G01 X1.180642 Y-0.7528
G03 X1.186842 Y-0.75495 I0.044044 J0.116983
G01 X1.332828 Y-0.801325
G03 X1.339523 Y-0.803248 I0.037845 J0.119133
G01 X1.474911 Y-0.838085
G03 X1.482092 Y-0.839708 I0.031149 J0.121057
G01 X1.607107 Y-0.864134
G03 X1.614742 Y-0.865381 I0.023969 J0.12268
G01 X1.729612 Y-0.880522
G03 X1.737649 Y-0.881318 I0.016334 J0.123928
G01 X1.842598 Y-0.888299
G03 X1.850961 Y-0.888575 I0.008297 J0.124724
G01 X1.946216 Y-0.888524
G03 X1.954807 Y-0.888224 I-0.000066 J0.125
G01 X2.040593 Y-0.882268
G03 X2.049297 Y-0.881357 I-0.008658 J0.1247
G01 X2.12584 Y-0.870622
G03 X2.134528 Y-0.869089 I-0.017361 J0.123788
G01 X2.202055 Y-0.854701
G03 X2.210596 Y-0.852564 I-0.026049 J0.122256
G01 X2.213277 Y-0.851792
G01 F15 Z-0.18
G01 F300 X2.205555 Y-0.873241
G01 X2.146371 Y-1.010006
G01 X2.078717 Y-1.142784
G01 X2.002859 Y-1.271053
G01 X1.919097 Y-1.394306
G01 X1.827761 Y-1.512055
G01 X1.729847 Y-1.623117
G01 X1.696904 Y-1.655063
G01 X1.694809 Y-1.655549
G01 X1.66914 Y-1.659761
G01 X1.636488 Y-1.662701
G01 X1.597621 Y-1.663061
G01 X1.553227 Y-1.659554
G01 X1.503889 Y-1.650879
G01 X1.450078 Y-1.635674
G01 X1.392178 Y-1.612472
G01 X1.330536 Y-1.579663
G01 X1.265542 Y-1.535493
G01 X1.197686 Y-1.478107
G01 X1.1276 Y-1.405607
G01 X1.056053 Y-1.316115
G01 X0.983917 Y-1.207821
G01 X0.91213 Y-1.078993
G01 X0.841657 Y-0.927979
G01 X0.773461 Y-0.753192
G01 X0.727789 Y-0.612528
G01 X0.757767 Y-0.57346
G01 X0.845028 Y-0.616203
G03 X0.850262 Y-0.618619 I0.054987 J0.112256
G01 X1.018123 Y-0.691449
G03 X1.023831 Y-0.693761 I0.049753 J0.114672
G01 X1.180642 Y-0.7528
G03 X1.186842 Y-0.75495 I0.044044 J0.116983
G01 X1.332828 Y-0.801325
G03 X1.339523 Y-0.803248 I0.037845 J0.119133
G01 X1.474911 Y-0.838085
G03 X1.482092 Y-0.839708 I0.031149 J0.121057
G01 X1.607107 Y-0.864134
G03 X1.614742 Y-0.865381 I0.023969 J0.12268
G01 X1.729612 Y-0.880522
G03 X1.737649 Y-0.881318 I0.016334 J0.123928
G01 X1.842598 Y-0.888299
G03 X1.850961 Y-0.888575 I0.008297 J0.124724
G01 X1.946216 Y-0.888524
G03 X1.954807 Y-0.888224 I-0.000066 J0.125
G01 X2.040593 Y-0.882268
G03 X2.049297 Y-0.881357 I-0.008658 J0.1247
G01 X2.12584 Y-0.870622
G03 X2.134528 Y-0.869089 I-0.017361 J0.123788
G01 X2.202055 Y-0.854701
G03 X2.210596 Y-0.852564 I-0.026049 J0.122256
G01 X2.213277 Y-0.851792
G01 F15 Z-0.21
G01 F300 X2.205555 Y-0.873241
G01 X2.146371 Y-1.010006
G01 X2.078717 Y-1.142784
G01 X2.002859 Y-1.271053
G01 X1.919097 Y-1.394306
G01 X1.827761 Y-1.512055
G01 X1.729847 Y-1.623117
G01 X1.696904 Y-1.655063
G01 X1.694809 Y-1.655549
G01 X1.66914 Y-1.659761
G01 X1.636488 Y-1.662701
G01 X1.597621 Y-1.663061
G01 X1.553227 Y-1.659554
G01 X1.503889 Y-1.650879
G01 X1.450078 Y-1.635674
G01 X1.392178 Y-1.612472
G01 X1.330536 Y-1.579663
G01 X1.265542 Y-1.535493
G01 X1.197686 Y-1.478107
G01 X1.1276 Y-1.405607
G01 X1.056053 Y-1.316115
G01 X0.983917 Y-1.207821
G01 X0.91213 Y-1.078993
G01 X0.841657 Y-0.927979
G01 X0.773461 Y-0.753192
G01 X0.727789 Y-0.612528
G01 X0.757767 Y-0.57346
G01 X0.845028 Y-0.616203
G03 X0.850262 Y-0.618619 I0.054987 J0.112256
G01 X1.018123 Y-0.691449
G03 X1.023831 Y-0.693761 I0.049753 J0.114672
G01 X1.180642 Y-0.7528
G03 X1.186842 Y-0.75495 I0.044044 J0.116983
G01 X1.332828 Y-0.801325
G03 X1.339523 Y-0.803248 I0.037845 J0.119133
G01 X1.474911 Y-0.838085
G03 X1.482092 Y-0.839708 I0.031149 J0.121057
G01 X1.607107 Y-0.864134
G03 X1.614742 Y-0.865381 I0.023969 J0.12268
G01 X1.729612 Y-0.880522
G03 X1.737649 Y-0.881318 I0.016334 J0.123928
G01 X1.842598 Y-0.888299
G03 X1.850961 Y-0.888575 I0.008297 J0.124724
G01 X1.946216 Y-0.888524
G03 X1.954807 Y-0.888224 I-0.000066 J0.125
G01 X2.040593 Y-0.882268
G03 X2.049297 Y-0.881357 I-0.008658 J0.1247
G01 X2.12584 Y-0.870622
G03 X2.134528 Y-0.869089 I-0.017361 J0.123788
G01 X2.202055 Y-0.854701
G03 X2.210596 Y-0.852564 I-0.026049 J0.122256
G01 X2.213277 Y-0.851792
G01 F15 Z-0.24
G01 F300 X2.205555 Y-0.873241
G01 X2.146371 Y-1.010006
G01 X2.078717 Y-1.142784
G01 X2.002859 Y-1.271053
G01 X1.919097 Y-1.394306
G01 X1.827761 Y-1.512055
G01 X1.729847 Y-1.623117
G01 X1.696904 Y-1.655063
G01 X1.694809 Y-1.655549
G01 X1.66914 Y-1.659761
G01 X1.636488 Y-1.662701
G01 X1.597621 Y-1.663061
G01 X1.553227 Y-1.659554
G01 X1.503889 Y-1.650879
G01 X1.450078 Y-1.635674
G01 X1.392178 Y-1.612472
G01 X1.330536 Y-1.579663
G01 X1.265542 Y-1.535493
G01 X1.197686 Y-1.478107
G01 X1.1276 Y-1.405607
G01 X1.056053 Y-1.316115
G01 X0.983917 Y-1.207821
G01 X0.91213 Y-1.078993
G01 X0.841657 Y-0.927979
G01 X0.773461 Y-0.753192
G01 X0.727789 Y-0.612528
G01 X0.757767 Y-0.57346
G01 X0.845028 Y-0.616203
G03 X0.850262 Y-0.618619 I0.054987 J0.112256
G01 X1.018123 Y-0.691449
G03 X1.023831 Y-0.693761 I0.049753 J0.114672
G01 X1.180642 Y-0.7528
G03 X1.186842 Y-0.75495 I0.044044 J0.116983
G01 X1.332828 Y-0.801325
G03 X1.339523 Y-0.803248 I0.037845 J0.119133
G01 X1.474911 Y-0.838085
G03 X1.482092 Y-0.839708 I0.031149 J0.121057
G01 X1.607107 Y-0.864134
G03 X1.614742 Y-0.865381 I0.023969 J0.12268
G01 X1.729612 Y-0.880522
G03 X1.737649 Y-0.881318 I0.016334 J0.123928
G01 X1.842598 Y-0.888299
G03 X1.850961 Y-0.888575 I0.008297 J0.124724
G01 X1.946216 Y-0.888524
G03 X1.954807 Y-0.888224 I-0.000066 J0.125
G01 X2.040593 Y-0.882268
G03 X2.049297 Y-0.881357 I-0.008658 J0.1247
G01 X2.12584 Y-0.870622
G03 X2.134528 Y-0.869089 I-0.017361 J0.123788
G01 X2.202055 Y-0.854701
G03 X2.210596 Y-0.852564 I-0.026049 J0.122256
G01 X2.213277 Y-0.851792
G01 F15 Z-0.27
G01 F300 X2.205555 Y-0.873241
G01 X2.146371 Y-1.010006
G01 X2.078717 Y-1.142784
G01 X2.002859 Y-1.271053
G01 X1.919097 Y-1.394306
G01 X1.827761 Y-1.512055
G01 X1.729847 Y-1.623117
G01 X1.696904 Y-1.655063
G01 X1.694809 Y-1.655549
G01 X1.66914 Y-1.659761
G01 X1.636488 Y-1.662701
G01 X1.597621 Y-1.663061
G01 X1.553227 Y-1.659554
G01 X1.503889 Y-1.650879
G01 X1.450078 Y-1.635674
G01 X1.392178 Y-1.612472
G01 X1.330536 Y-1.579663
G01 X1.265542 Y-1.535493
G01 X1.197686 Y-1.478107
G01 X1.1276 Y-1.405607
G01 X1.056053 Y-1.316115
G01 X0.983917 Y-1.207821
G01 X0.91213 Y-1.078993
G01 X0.841657 Y-0.927979
G01 X0.773461 Y-0.753192
G01 X0.727789 Y-0.612528
G01 X0.757767 Y-0.57346
G01 X0.845028 Y-0.616203
G03 X0.850262 Y-0.618619 I0.054987 J0.112256
G01 X1.018123 Y-0.691449
G03 X1.023831 Y-0.693761 I0.049753 J0.114672
G01 X1.180642 Y-0.7528
G03 X1.186842 Y-0.75495 I0.044044 J0.116983
G01 X1.332828 Y-0.801325
G03 X1.339523 Y-0.803248 I0.037845 J0.119133
G01 X1.474911 Y-0.838085
G03 X1.482092 Y-0.839708 I0.031149 J0.121057
G01 X1.607107 Y-0.864134
G03 X1.614742 Y-0.865381 I0.023969 J0.12268
G01 X1.729612 Y-0.880522
G03 X1.737649 Y-0.881318 I0.016334 J0.123928
G01 X1.842598 Y-0.888299
G03 X1.850961 Y-0.888575 I0.008297 J0.124724
G01 X1.946216 Y-0.888524
G03 X1.954807 Y-0.888224 I-0.000066 J0.125
G01 X2.040593 Y-0.882268
G03 X2.049297 Y-0.881357 I-0.008658 J0.1247
G01 X2.12584 Y-0.870622
G03 X2.134528 Y-0.869089 I-0.017361 J0.123788
G01 X2.202055 Y-0.854701
G03 X2.210596 Y-0.852564 I-0.026049 J0.122256
G01 X2.213277 Y-0.851792
G01 F15 Z-0.3
G01 F300 X2.205555 Y-0.873241
G01 X2.146371 Y-1.010006
G01 X2.078717 Y-1.142784
G01 X2.002859 Y-1.271053
G01 X1.919097 Y-1.394306
G01 X1.827761 Y-1.512055
G01 X1.729847 Y-1.623117
G01 X1.696904 Y-1.655063
G01 X1.694809 Y-1.655549
G01 X1.66914 Y-1.659761
G01 X1.636488 Y-1.662701
G01 X1.597621 Y-1.663061
G01 X1.553227 Y-1.659554
G01 X1.503889 Y-1.650879
G01 X1.450078 Y-1.635674
G01 X1.392178 Y-1.612472
G01 X1.330536 Y-1.579663
G01 X1.265542 Y-1.535493
G01 X1.197686 Y-1.478107
G01 X1.1276 Y-1.405607
G01 X1.056053 Y-1.316115
G01 X0.983917 Y-1.207821
G01 X0.91213 Y-1.078993
G01 X0.841657 Y-0.927979
G01 X0.773461 Y-0.753192
G01 X0.727789 Y-0.612528
G01 X0.757767 Y-0.57346
G01 X0.845028 Y-0.616203
G03 X0.850262 Y-0.618619 I0.054987 J0.112256
G01 X1.018123 Y-0.691449
G03 X1.023831 Y-0.693761 I0.049753 J0.114672
G01 X1.180642 Y-0.7528
G03 X1.186842 Y-0.75495 I0.044044 J0.116983
G01 X1.332828 Y-0.801325
G03 X1.339523 Y-0.803248 I0.037845 J0.119133
G01 X1.474911 Y-0.838085
G03 X1.482092 Y-0.839708 I0.031149 J0.121057
G01 X1.607107 Y-0.864134
G03 X1.614742 Y-0.865381 I0.023969 J0.12268
G01 X1.729612 Y-0.880522
G03 X1.737649 Y-0.881318 I0.016334 J0.123928
G01 X1.842598 Y-0.888299
G03 X1.850961 Y-0.888575 I0.008297 J0.124724
G01 X1.946216 Y-0.888524
G03 X1.954807 Y-0.888224 I-0.000066 J0.125
G01 X2.040593 Y-0.882268
G03 X2.049297 Y-0.881357 I-0.008658 J0.1247
G01 X2.12584 Y-0.870622
G03 X2.134528 Y-0.869089 I-0.017361 J0.123788
G01 X2.202055 Y-0.854701
G03 X2.210596 Y-0.852564 I-0.026049 J0.122256
G01 X2.213277 Y-0.851792
G01 F15 Z-0.33
G01 F300 X2.205555 Y-0.873241
G01 X2.146371 Y-1.010006
G01 X2.078717 Y-1.142784
G01 X2.002859 Y-1.271053
G01 X1.919097 Y-1.394306
G01 X1.827761 Y-1.512055
G01 X1.729847 Y-1.623117
G01 X1.696904 Y-1.655063
G01 X1.694809 Y-1.655549
G01 X1.66914 Y-1.659761
G01 X1.636488 Y-1.662701
G01 X1.597621 Y-1.663061
G01 X1.553227 Y-1.659554
G01 X1.503889 Y-1.650879
G01 X1.450078 Y-1.635674
G01 X1.392178 Y-1.612472
G01 X1.330536 Y-1.579663
G01 X1.265542 Y-1.535493
G01 X1.197686 Y-1.478107
G01 X1.1276 Y-1.405607
G01 X1.056053 Y-1.316115
G01 X0.983917 Y-1.207821
G01 X0.91213 Y-1.078993
G01 X0.841657 Y-0.927979
G01 X0.773461 Y-0.753192
G01 X0.727789 Y-0.612528
G01 X0.757767 Y-0.57346
G01 X0.845028 Y-0.616203
G03 X0.850262 Y-0.618619 I0.054987 J0.112256
G01 X1.018123 Y-0.691449
G03 X1.023831 Y-0.693761 I0.049753 J0.114672
G01 X1.180642 Y-0.7528
G03 X1.186842 Y-0.75495 I0.044044 J0.116983
G01 X1.332828 Y-0.801325
G03 X1.339523 Y-0.803248 I0.037845 J0.119133
G01 X1.474911 Y-0.838085
G03 X1.482092 Y-0.839708 I0.031149 J0.121057
G01 X1.607107 Y-0.864134
G03 X1.614742 Y-0.865381 I0.023969 J0.12268
G01 X1.729612 Y-0.880522
G03 X1.737649 Y-0.881318 I0.016334 J0.123928
G01 X1.842598 Y-0.888299
G03 X1.850961 Y-0.888575 I0.008297 J0.124724
G01 X1.946216 Y-0.888524
G03 X1.954807 Y-0.888224 I-0.000066 J0.125
G01 X2.040593 Y-0.882268
G03 X2.049297 Y-0.881357 I-0.008658 J0.1247
G01 X2.12584 Y-0.870622
G03 X2.134528 Y-0.869089 I-0.017361 J0.123788
G01 X2.202055 Y-0.854701
G03 X2.210596 Y-0.852564 I-0.026049 J0.122256
G01 X2.213277 Y-0.851792
G01 F15 Z-0.36
G01 F300 X2.205555 Y-0.873241
G01 X2.146371 Y-1.010006
G01 X2.078717 Y-1.142784
G01 X2.002859 Y-1.271053
G01 X1.919097 Y-1.394306
G01 X1.827761 Y-1.512055
G01 X1.729847 Y-1.623117
G01 X1.696904 Y-1.655063
G01 X1.694809 Y-1.655549
G01 X1.66914 Y-1.659761
G01 X1.636488 Y-1.662701
G01 X1.597621 Y-1.663061
G01 X1.553227 Y-1.659554
G01 X1.503889 Y-1.650879
G01 X1.450078 Y-1.635674
G01 X1.392178 Y-1.612472
G01 X1.330536 Y-1.579663
G01 X1.265542 Y-1.535493
G01 X1.197686 Y-1.478107
G01 X1.1276 Y-1.405607
G01 X1.056053 Y-1.316115
G01 X0.983917 Y-1.207821
G01 X0.91213 Y-1.078993
G01 X0.841657 Y-0.927979
G01 X0.773461 Y-0.753192
G01 X0.727789 Y-0.612528
G01 X0.757767 Y-0.57346
G01 X0.845028 Y-0.616203
G03 X0.850262 Y-0.618619 I0.054987 J0.112256
G01 X1.018123 Y-0.691449
G03 X1.023831 Y-0.693761 I0.049753 J0.114672
G01 X1.180642 Y-0.7528
G03 X1.186842 Y-0.75495 I0.044044 J0.116983
G01 X1.332828 Y-0.801325
G03 X1.339523 Y-0.803248 I0.037845 J0.119133
G01 X1.474911 Y-0.838085
G03 X1.482092 Y-0.839708 I0.031149 J0.121057
G01 X1.607107 Y-0.864134
G03 X1.614742 Y-0.865381 I0.023969 J0.12268
G01 X1.729612 Y-0.880522
G03 X1.737649 Y-0.881318 I0.016334 J0.123928
G01 X1.842598 Y-0.888299
G03 X1.850961 Y-0.888575 I0.008297 J0.124724
G01 X1.946216 Y-0.888524
G03 X1.954807 Y-0.888224 I-0.000066 J0.125
G01 X2.040593 Y-0.882268
G03 X2.049297 Y-0.881357 I-0.008658 J0.1247
G01 X2.12584 Y-0.870622
G03 X2.134528 Y-0.869089 I-0.017361 J0.123788
G01 X2.202055 Y-0.854701
G03 X2.210596 Y-0.852564 I-0.026049 J0.122256
G01 X2.213277 Y-0.851792
G01 F15 Z-0.39
G01 F300 X2.205555 Y-0.873241
G01 X2.146371 Y-1.010006
G01 X2.078717 Y-1.142784
G01 X2.002859 Y-1.271053
G01 X1.919097 Y-1.394306
G01 X1.827761 Y-1.512055
G01 X1.729847 Y-1.623117
G01 X1.696904 Y-1.655063
G01 X1.694809 Y-1.655549
G01 X1.66914 Y-1.659761
G01 X1.636488 Y-1.662701
G01 X1.597621 Y-1.663061
G01 X1.553227 Y-1.659554
G01 X1.503889 Y-1.650879
G01 X1.450078 Y-1.635674
G01 X1.392178 Y-1.612472
G01 X1.330536 Y-1.579663
G01 X1.265542 Y-1.535493
G01 X1.197686 Y-1.478107
G01 X1.1276 Y-1.405607
G01 X1.056053 Y-1.316115
G01 X0.983917 Y-1.207821
G01 X0.91213 Y-1.078993
G01 X0.841657 Y-0.927979
G01 X0.773461 Y-0.753192
G01 X0.727789 Y-0.612528
G01 X0.757767 Y-0.57346
G01 X0.845028 Y-0.616203
G03 X0.850262 Y-0.618619 I0.054987 J0.112256
G01 X1.018123 Y-0.691449
G03 X1.023831 Y-0.693761 I0.049753 J0.114672
G01 X1.180642 Y-0.7528
G03 X1.186842 Y-0.75495 I0.044044 J0.116983
G01 X1.332828 Y-0.801325
G03 X1.339523 Y-0.803248 I0.037845 J0.119133
G01 X1.474911 Y-0.838085
G03 X1.482092 Y-0.839708 I0.031149 J0.121057
G01 X1.607107 Y-0.864134
G03 X1.614742 Y-0.865381 I0.023969 J0.12268
G01 X1.729612 Y-0.880522
G03 X1.737649 Y-0.881318 I0.016334 J0.123928
G01 X1.842598 Y-0.888299
G03 X1.850961 Y-0.888575 I0.008297 J0.124724
G01 X1.946216 Y-0.888524
G03 X1.954807 Y-0.888224 I-0.000066 J0.125
G01 X2.040593 Y-0.882268
G03 X2.049297 Y-0.881357 I-0.008658 J0.1247
G01 X2.12584 Y-0.870622
G03 X2.134528 Y-0.869089 I-0.017361 J0.123788
G01 X2.202055 Y-0.854701
G03 X2.210596 Y-0.852564 I-0.026049 J0.122256
G01 X2.213277 Y-0.851792
G01 F15 Z-0.42
G01 F300 X2.205555 Y-0.873241
G01 X2.146371 Y-1.010006
G01 X2.078717 Y-1.142784
G01 X2.002859 Y-1.271053
G01 X1.919097 Y-1.394306
G01 X1.827761 Y-1.512055
G01 X1.729847 Y-1.623117
G01 X1.696904 Y-1.655063
G01 X1.694809 Y-1.655549
G01 X1.66914 Y-1.659761
G01 X1.636488 Y-1.662701
G01 X1.597621 Y-1.663061
G01 X1.553227 Y-1.659554
G01 X1.503889 Y-1.650879
G01 X1.450078 Y-1.635674
G01 X1.392178 Y-1.612472
G01 X1.330536 Y-1.579663
G01 X1.265542 Y-1.535493
G01 X1.197686 Y-1.478107
G01 X1.1276 Y-1.405607
G01 X1.056053 Y-1.316115
G01 X0.983917 Y-1.207821
G01 X0.91213 Y-1.078993
G01 X0.841657 Y-0.927979
G01 X0.773461 Y-0.753192
G01 X0.727789 Y-0.612528
G01 X0.757767 Y-0.57346
G01 X0.845028 Y-0.616203
G03 X0.850262 Y-0.618619 I0.054987 J0.112256
G01 X1.018123 Y-0.691449
G03 X1.023831 Y-0.693761 I0.049753 J0.114672
G01 X1.180642 Y-0.7528
G03 X1.186842 Y-0.75495 I0.044044 J0.116983
G01 X1.332828 Y-0.801325
G03 X1.339523 Y-0.803248 I0.037845 J0.119133
G01 X1.474911 Y-0.838085
G03 X1.482092 Y-0.839708 I0.031149 J0.121057
G01 X1.607107 Y-0.864134
G03 X1.614742 Y-0.865381 I0.023969 J0.12268
G01 X1.729612 Y-0.880522
G03 X1.737649 Y-0.881318 I0.016334 J0.123928
G01 X1.842598 Y-0.888299
G03 X1.850961 Y-0.888575 I0.008297 J0.124724
G01 X1.946216 Y-0.888524
G03 X1.954807 Y-0.888224 I-0.000066 J0.125
G01 X2.040593 Y-0.882268
G03 X2.049297 Y-0.881357 I-0.008658 J0.1247
G01 X2.12584 Y-0.870622
G03 X2.134528 Y-0.869089 I-0.017361 J0.123788
G01 X2.202055 Y-0.854701
G03 X2.210596 Y-0.852564 I-0.026049 J0.122256
G01 X2.213277 Y-0.851792
G01 F15 Z-0.45
G01 F300 X2.205555 Y-0.873241
G01 X2.146371 Y-1.010006
G01 X2.078717 Y-1.142784
G01 X2.002859 Y-1.271053
G01 X1.919097 Y-1.394306
G01 X1.827761 Y-1.512055
G01 X1.729847 Y-1.623117
G01 X1.696904 Y-1.655063
G01 X1.694809 Y-1.655549
G01 X1.66914 Y-1.659761
G01 X1.636488 Y-1.662701
G01 X1.597621 Y-1.663061
G01 X1.553227 Y-1.659554
G01 X1.503889 Y-1.650879
G01 X1.450078 Y-1.635674
G01 X1.392178 Y-1.612472
G01 X1.330536 Y-1.579663
G01 X1.265542 Y-1.535493
G01 X1.197686 Y-1.478107
G01 X1.1276 Y-1.405607
G01 X1.056053 Y-1.316115
G01 X0.983917 Y-1.207821
G01 X0.91213 Y-1.078993
G01 X0.841657 Y-0.927979
G01 X0.773461 Y-0.753192
G01 X0.727789 Y-0.612528
G01 X0.757767 Y-0.57346
G01 X0.845028 Y-0.616203
G03 X0.850262 Y-0.618619 I0.054987 J0.112256
G01 X1.018123 Y-0.691449
G03 X1.023831 Y-0.693761 I0.049753 J0.114672
G01 X1.180642 Y-0.7528
G03 X1.186842 Y-0.75495 I0.044044 J0.116983
G01 X1.332828 Y-0.801325
G03 X1.339523 Y-0.803248 I0.037845 J0.119133
G01 X1.474911 Y-0.838085
G03 X1.482092 Y-0.839708 I0.031149 J0.121057
G01 X1.607107 Y-0.864134
G03 X1.614742 Y-0.865381 I0.023969 J0.12268
G01 X1.729612 Y-0.880522
G03 X1.737649 Y-0.881318 I0.016334 J0.123928
G01 X1.842598 Y-0.888299
G03 X1.850961 Y-0.888575 I0.008297 J0.124724
G01 X1.946216 Y-0.888524
G03 X1.954807 Y-0.888224 I-0.000066 J0.125
G01 X2.040593 Y-0.882268
G03 X2.049297 Y-0.881357 I-0.008658 J0.1247
G01 X2.12584 Y-0.870622
G03 X2.134528 Y-0.869089 I-0.017361 J0.123788
G01 X2.202055 Y-0.854701
G03 X2.210596 Y-0.852564 I-0.026049 J0.122256
G01 X2.213277 Y-0.851792
G01 F15 Z-0.48
G01 F300 X2.205555 Y-0.873241
G01 X2.146371 Y-1.010006
G01 X2.078717 Y-1.142784
G01 X2.002859 Y-1.271053
G01 X1.919097 Y-1.394306
G01 X1.827761 Y-1.512055
G01 X1.729847 Y-1.623117
G01 X1.696904 Y-1.655063
G01 X1.694809 Y-1.655549
G01 X1.66914 Y-1.659761
G01 X1.636488 Y-1.662701
G01 X1.597621 Y-1.663061
G01 X1.553227 Y-1.659554
G01 X1.503889 Y-1.650879
G01 X1.450078 Y-1.635674
G01 X1.392178 Y-1.612472
G01 X1.330536 Y-1.579663
G01 X1.265542 Y-1.535493
G01 X1.197686 Y-1.478107
G01 X1.1276 Y-1.405607
G01 X1.056053 Y-1.316115
G01 X0.983917 Y-1.207821
G01 X0.91213 Y-1.078993
G01 X0.841657 Y-0.927979
G01 X0.773461 Y-0.753192
G01 X0.727789 Y-0.612528
G01 X0.757767 Y-0.57346
G01 X0.845028 Y-0.616203
G03 X0.850262 Y-0.618619 I0.054987 J0.112256
G01 X1.018123 Y-0.691449
G03 X1.023831 Y-0.693761 I0.049753 J0.114672
G01 X1.180642 Y-0.7528
G03 X1.186842 Y-0.75495 I0.044044 J0.116983
G01 X1.332828 Y-0.801325
G03 X1.339523 Y-0.803248 I0.037845 J0.119133
G01 X1.474911 Y-0.838085
G03 X1.482092 Y-0.839708 I0.031149 J0.121057
G01 X1.607107 Y-0.864134
G03 X1.614742 Y-0.865381 I0.023969 J0.12268
G01 X1.729612 Y-0.880522
G03 X1.737649 Y-0.881318 I0.016334 J0.123928
G01 X1.842598 Y-0.888299
G03 X1.850961 Y-0.888575 I0.008297 J0.124724
G01 X1.946216 Y-0.888524
G03 X1.954807 Y-0.888224 I-0.000066 J0.125
G01 X2.040593 Y-0.882268
G03 X2.049297 Y-0.881357 I-0.008658 J0.1247
G01 X2.12584 Y-0.870622
G03 X2.134528 Y-0.869089 I-0.017361 J0.123788
G01 X2.202055 Y-0.854701
G03 X2.210596 Y-0.852564 I-0.026049 J0.122256
G01 X2.213277 Y-0.851792
G01 F15 Z-0.51
G01 F300 X2.205555 Y-0.873241
G01 X2.146371 Y-1.010006
G01 X2.078717 Y-1.142784
G01 X2.002859 Y-1.271053
G01 X1.919097 Y-1.394306
G01 X1.827761 Y-1.512055
G01 X1.729847 Y-1.623117
G01 X1.696904 Y-1.655063
G01 X1.694809 Y-1.655549
G01 X1.66914 Y-1.659761
G01 X1.636488 Y-1.662701
G01 X1.597621 Y-1.663061
G01 X1.553227 Y-1.659554
G01 X1.503889 Y-1.650879
G01 X1.450078 Y-1.635674
G01 X1.392178 Y-1.612472
G01 X1.330536 Y-1.579663
G01 X1.265542 Y-1.535493
G01 X1.197686 Y-1.478107
G01 X1.1276 Y-1.405607
G01 X1.056053 Y-1.316115
G01 X0.983917 Y-1.207821
G01 X0.91213 Y-1.078993
G01 X0.841657 Y-0.927979
G01 X0.773461 Y-0.753192
G01 X0.727789 Y-0.612528
G01 X0.757767 Y-0.57346
G01 X0.845028 Y-0.616203
G03 X0.850262 Y-0.618619 I0.054987 J0.112256
G01 X1.018123 Y-0.691449
G03 X1.023831 Y-0.693761 I0.049753 J0.114672
G01 X1.180642 Y-0.7528
G03 X1.186842 Y-0.75495 I0.044044 J0.116983
G01 X1.332828 Y-0.801325
G03 X1.339523 Y-0.803248 I0.037845 J0.119133
G01 X1.474911 Y-0.838085
G03 X1.482092 Y-0.839708 I0.031149 J0.121057
G01 X1.607107 Y-0.864134
G03 X1.614742 Y-0.865381 I0.023969 J0.12268
G01 X1.729612 Y-0.880522
G03 X1.737649 Y-0.881318 I0.016334 J0.123928
G01 X1.842598 Y-0.888299
G03 X1.850961 Y-0.888575 I0.008297 J0.124724
G01 X1.946216 Y-0.888524
G03 X1.954807 Y-0.888224 I-0.000066 J0.125
G01 X2.040593 Y-0.882268
G03 X2.049297 Y-0.881357 I-0.008658 J0.1247
G01 X2.12584 Y-0.870622
G03 X2.134528 Y-0.869089 I-0.017361 J0.123788
G01 X2.202055 Y-0.854701
G03 X2.210596 Y-0.852564 I-0.026049 J0.122256
G01 X2.213277 Y-0.851792
G01 F15 Z-0.54
G01 F300 X2.205555 Y-0.873241
G01 X2.146371 Y-1.010006
G01 X2.078717 Y-1.142784
G01 X2.002859 Y-1.271053
G01 X1.919097 Y-1.394306
G01 X1.827761 Y-1.512055
G01 X1.729847 Y-1.623117
G01 X1.696904 Y-1.655063
G01 X1.694809 Y-1.655549
G01 X1.66914 Y-1.659761
G01 X1.636488 Y-1.662701
G01 X1.597621 Y-1.663061
G01 X1.553227 Y-1.659554
G01 X1.503889 Y-1.650879
G01 X1.450078 Y-1.635674
G01 X1.392178 Y-1.612472
G01 X1.330536 Y-1.579663
G01 X1.265542 Y-1.535493
G01 X1.197686 Y-1.478107
G01 X1.1276 Y-1.405607
G01 X1.056053 Y-1.316115
G01 X0.983917 Y-1.207821
G01 X0.91213 Y-1.078993
G01 X0.841657 Y-0.927979
G01 X0.773461 Y-0.753192
G01 X0.727789 Y-0.612528
G01 X0.757767 Y-0.57346
G01 X0.845028 Y-0.616203
G03 X0.850262 Y-0.618619 I0.054987 J0.112256
G01 X1.018123 Y-0.691449
G03 X1.023831 Y-0.693761 I0.049753 J0.114672
G01 X1.180642 Y-0.7528
G03 X1.186842 Y-0.75495 I0.044044 J0.116983
G01 X1.332828 Y-0.801325
G03 X1.339523 Y-0.803248 I0.037845 J0.119133
G01 X1.474911 Y-0.838085
G03 X1.482092 Y-0.839708 I0.031149 J0.121057
G01 X1.607107 Y-0.864134
G03 X1.614742 Y-0.865381 I0.023969 J0.12268
G01 X1.729612 Y-0.880522
G03 X1.737649 Y-0.881318 I0.016334 J0.123928
G01 X1.842598 Y-0.888299
G03 X1.850961 Y-0.888575 I0.008297 J0.124724
G01 X1.946216 Y-0.888524
G03 X1.954807 Y-0.888224 I-0.000066 J0.125
G01 X2.040593 Y-0.882268
G03 X2.049297 Y-0.881357 I-0.008658 J0.1247
G01 X2.12584 Y-0.870622
G03 X2.134528 Y-0.869089 I-0.017361 J0.123788
G01 X2.202055 Y-0.854701
G03 X2.210596 Y-0.852564 I-0.026049 J0.122256
G01 X2.213277 Y-0.851792
G01 F15 Z-0.57
G01 F300 X2.205555 Y-0.873241
G01 X2.146371 Y-1.010006
G01 X2.078717 Y-1.142784
G01 X2.002859 Y-1.271053
G01 X1.919097 Y-1.394306
G01 X1.827761 Y-1.512055
G01 X1.729847 Y-1.623117
G01 X1.696904 Y-1.655063
G01 X1.694809 Y-1.655549
G01 X1.66914 Y-1.659761
G01 X1.636488 Y-1.662701
G01 X1.597621 Y-1.663061
G01 X1.553227 Y-1.659554
G01 X1.503889 Y-1.650879
G01 X1.450078 Y-1.635674
G01 X1.392178 Y-1.612472
G01 X1.330536 Y-1.579663
G01 X1.265542 Y-1.535493
G01 X1.197686 Y-1.478107
G01 X1.1276 Y-1.405607
G01 X1.056053 Y-1.316115
G01 X0.983917 Y-1.207821
G01 X0.91213 Y-1.078993
G01 X0.841657 Y-0.927979
G01 X0.773461 Y-0.753192
G01 X0.727789 Y-0.612528
G01 X0.757767 Y-0.57346
G01 X0.845028 Y-0.616203
G03 X0.850262 Y-0.618619 I0.054987 J0.112256
G01 X1.018123 Y-0.691449
G03 X1.023831 Y-0.693761 I0.049753 J0.114672
G01 X1.180642 Y-0.7528
G03 X1.186842 Y-0.75495 I0.044044 J0.116983
G01 X1.332828 Y-0.801325
G03 X1.339523 Y-0.803248 I0.037845 J0.119133
G01 X1.474911 Y-0.838085
G03 X1.482092 Y-0.839708 I0.031149 J0.121057
G01 X1.607107 Y-0.864134
G03 X1.614742 Y-0.865381 I0.023969 J0.12268
G01 X1.729612 Y-0.880522
G03 X1.737649 Y-0.881318 I0.016334 J0.123928
G01 X1.842598 Y-0.888299
G03 X1.850961 Y-0.888575 I0.008297 J0.124724
G01 X1.946216 Y-0.888524
G03 X1.954807 Y-0.888224 I-0.000066 J0.125
G01 X2.040593 Y-0.882268
G03 X2.049297 Y-0.881357 I-0.008658 J0.1247
G01 X2.12584 Y-0.870622
G03 X2.134528 Y-0.869089 I-0.017361 J0.123788
G01 X2.202055 Y-0.854701
G03 X2.210596 Y-0.852564 I-0.026049 J0.122256
G01 X2.213277 Y-0.851792
G01 F15 Z-0.6
G01 F300 X2.205555 Y-0.873241
G01 X2.146371 Y-1.010006
G01 X2.078717 Y-1.142784
G01 X2.002859 Y-1.271053
G01 X1.919097 Y-1.394306
G01 X1.827761 Y-1.512055
G01 X1.729847 Y-1.623117
G01 X1.696904 Y-1.655063
G01 X1.694809 Y-1.655549
G01 X1.66914 Y-1.659761
G01 X1.636488 Y-1.662701
G01 X1.597621 Y-1.663061
G01 X1.553227 Y-1.659554
G01 X1.503889 Y-1.650879
G01 X1.450078 Y-1.635674
G01 X1.392178 Y-1.612472
G01 X1.330536 Y-1.579663
G01 X1.265542 Y-1.535493
G01 X1.197686 Y-1.478107
G01 X1.1276 Y-1.405607
G01 X1.056053 Y-1.316115
G01 X0.983917 Y-1.207821
G01 X0.91213 Y-1.078993
G01 X0.841657 Y-0.927979
G01 X0.773461 Y-0.753192
G01 X0.727789 Y-0.612528
G01 X0.757767 Y-0.57346
G01 X0.845028 Y-0.616203
G03 X0.850262 Y-0.618619 I0.054987 J0.112256
G01 X1.018123 Y-0.691449
G03 X1.023831 Y-0.693761 I0.049753 J0.114672
G01 X1.180642 Y-0.7528
G03 X1.186842 Y-0.75495 I0.044044 J0.116983
G01 X1.332828 Y-0.801325
G03 X1.339523 Y-0.803248 I0.037845 J0.119133
G01 X1.474911 Y-0.838085
G03 X1.482092 Y-0.839708 I0.031149 J0.121057
G01 X1.607107 Y-0.864134
G03 X1.614742 Y-0.865381 I0.023969 J0.12268
G01 X1.729612 Y-0.880522
G03 X1.737649 Y-0.881318 I0.016334 J0.123928
G01 X1.842598 Y-0.888299
G03 X1.850961 Y-0.888575 I0.008297 J0.124724
G01 X1.946216 Y-0.888524
G03 X1.954807 Y-0.888224 I-0.000066 J0.125
G01 X2.040593 Y-0.882268
G03 X2.049297 Y-0.881357 I-0.008658 J0.1247
G01 X2.12584 Y-0.870622
G03 X2.134528 Y-0.869089 I-0.017361 J0.123788
G01 X2.202055 Y-0.854701
G03 X2.210596 Y-0.852564 I-0.026049 J0.122256
G01 X2.213277 Y-0.851792
G01 F15 Z-0.63
G01 F300 X2.205555 Y-0.873241
G01 X2.146371 Y-1.010006
G01 X2.078717 Y-1.142784
G01 X2.002859 Y-1.271053
G01 X1.919097 Y-1.394306
G01 X1.827761 Y-1.512055
G01 X1.729847 Y-1.623117
G01 X1.696904 Y-1.655063
G01 X1.694809 Y-1.655549
G01 X1.66914 Y-1.659761
G01 X1.636488 Y-1.662701
G01 X1.597621 Y-1.663061
G01 X1.553227 Y-1.659554
G01 X1.503889 Y-1.650879
G01 X1.450078 Y-1.635674
G01 X1.392178 Y-1.612472
G01 X1.330536 Y-1.579663
G01 X1.265542 Y-1.535493
G01 X1.197686 Y-1.478107
G01 X1.1276 Y-1.405607
G01 X1.056053 Y-1.316115
G01 X0.983917 Y-1.207821
G01 X0.91213 Y-1.078993
G01 X0.841657 Y-0.927979
G01 X0.773461 Y-0.753192
G01 X0.727789 Y-0.612528
G01 X0.757767 Y-0.57346
G01 X0.845028 Y-0.616203
G03 X0.850262 Y-0.618619 I0.054987 J0.112256
G01 X1.018123 Y-0.691449
G03 X1.023831 Y-0.693761 I0.049753 J0.114672
G01 X1.180642 Y-0.7528
G03 X1.186842 Y-0.75495 I0.044044 J0.116983
G01 X1.332828 Y-0.801325
G03 X1.339523 Y-0.803248 I0.037845 J0.119133
G01 X1.474911 Y-0.838085
G03 X1.482092 Y-0.839708 I0.031149 J0.121057
G01 X1.607107 Y-0.864134
G03 X1.614742 Y-0.865381 I0.023969 J0.12268
G01 X1.729612 Y-0.880522
G03 X1.737649 Y-0.881318 I0.016334 J0.123928
G01 X1.842598 Y-0.888299
G03 X1.850961 Y-0.888575 I0.008297 J0.124724
G01 X1.946216 Y-0.888524
G03 X1.954807 Y-0.888224 I-0.000066 J0.125
G01 X2.040593 Y-0.882268
G03 X2.049297 Y-0.881357 I-0.008658 J0.1247
G01 X2.12584 Y-0.870622
G03 X2.134528 Y-0.869089 I-0.017361 J0.123788
G01 X2.202055 Y-0.854701
G03 X2.210596 Y-0.852564 I-0.026049 J0.122256
G01 X2.213277 Y-0.851792
G01 F15 Z-0.66
G01 F300 X2.205555 Y-0.873241
G01 X2.146371 Y-1.010006
G01 X2.078717 Y-1.142784
G01 X2.002859 Y-1.271053
G01 X1.919097 Y-1.394306
G01 X1.827761 Y-1.512055
G01 X1.729847 Y-1.623117
G01 X1.696904 Y-1.655063
G01 X1.694809 Y-1.655549
G01 X1.66914 Y-1.659761
G01 X1.636488 Y-1.662701
G01 X1.597621 Y-1.663061
G01 X1.553227 Y-1.659554
G01 X1.503889 Y-1.650879
G01 X1.450078 Y-1.635674
G01 X1.392178 Y-1.612472
G01 X1.330536 Y-1.579663
G01 X1.265542 Y-1.535493
G01 X1.197686 Y-1.478107
G01 X1.1276 Y-1.405607
G01 X1.056053 Y-1.316115
G01 X0.983917 Y-1.207821
G01 X0.91213 Y-1.078993
G01 X0.841657 Y-0.927979
G01 X0.773461 Y-0.753192
G01 X0.727789 Y-0.612528
G01 X0.757767 Y-0.57346
G01 X0.845028 Y-0.616203
G03 X0.850262 Y-0.618619 I0.054987 J0.112256
G01 X1.018123 Y-0.691449
G03 X1.023831 Y-0.693761 I0.049753 J0.114672
G01 X1.180642 Y-0.7528
G03 X1.186842 Y-0.75495 I0.044044 J0.116983
G01 X1.332828 Y-0.801325
G03 X1.339523 Y-0.803248 I0.037845 J0.119133
G01 X1.474911 Y-0.838085
G03 X1.482092 Y-0.839708 I0.031149 J0.121057
G01 X1.607107 Y-0.864134
G03 X1.614742 Y-0.865381 I0.023969 J0.12268
G01 X1.729612 Y-0.880522
G03 X1.737649 Y-0.881318 I0.016334 J0.123928
G01 X1.842598 Y-0.888299
G03 X1.850961 Y-0.888575 I0.008297 J0.124724
G01 X1.946216 Y-0.888524
G03 X1.954807 Y-0.888224 I-0.000066 J0.125
G01 X2.040593 Y-0.882268
G03 X2.049297 Y-0.881357 I-0.008658 J0.1247
G01 X2.12584 Y-0.870622
G03 X2.134528 Y-0.869089 I-0.017361 J0.123788
G01 X2.202055 Y-0.854701
G03 X2.210596 Y-0.852564 I-0.026049 J0.122256
G01 X2.213277 Y-0.851792
G01 F15 Z-0.69
G01 F300 X2.205555 Y-0.873241
G01 X2.146371 Y-1.010006
G01 X2.078717 Y-1.142784
G01 X2.002859 Y-1.271053
G01 X1.919097 Y-1.394306
G01 X1.827761 Y-1.512055
G01 X1.729847 Y-1.623117
G01 X1.696904 Y-1.655063
G01 X1.694809 Y-1.655549
G01 X1.66914 Y-1.659761
G01 X1.636488 Y-1.662701
G01 X1.597621 Y-1.663061
G01 X1.553227 Y-1.659554
G01 X1.503889 Y-1.650879
G01 X1.450078 Y-1.635674
G01 X1.392178 Y-1.612472
G01 X1.330536 Y-1.579663
G01 X1.265542 Y-1.535493
G01 X1.197686 Y-1.478107
G01 X1.1276 Y-1.405607
G01 X1.056053 Y-1.316115
G01 X0.983917 Y-1.207821
G01 X0.91213 Y-1.078993
G01 X0.841657 Y-0.927979
G01 X0.773461 Y-0.753192
G01 X0.727789 Y-0.612528
G01 X0.757767 Y-0.57346
G01 X0.845028 Y-0.616203
G03 X0.850262 Y-0.618619 I0.054987 J0.112256
G01 X1.018123 Y-0.691449
G03 X1.023831 Y-0.693761 I0.049753 J0.114672
G01 X1.180642 Y-0.7528
G03 X1.186842 Y-0.75495 I0.044044 J0.116983
G01 X1.332828 Y-0.801325
G03 X1.339523 Y-0.803248 I0.037845 J0.119133
G01 X1.474911 Y-0.838085
G03 X1.482092 Y-0.839708 I0.031149 J0.121057
G01 X1.607107 Y-0.864134
G03 X1.614742 Y-0.865381 I0.023969 J0.12268
G01 X1.729612 Y-0.880522
G03 X1.737649 Y-0.881318 I0.016334 J0.123928
G01 X1.842598 Y-0.888299
G03 X1.850961 Y-0.888575 I0.008297 J0.124724
G01 X1.946216 Y-0.888524
G03 X1.954807 Y-0.888224 I-0.000066 J0.125
G01 X2.040593 Y-0.882268
G03 X2.049297 Y-0.881357 I-0.008658 J0.1247
G01 X2.12584 Y-0.870622
G03 X2.134528 Y-0.869089 I-0.017361 J0.123788
G01 X2.202055 Y-0.854701
G03 X2.210596 Y-0.852564 I-0.026049 J0.122256
G01 X2.213277 Y-0.851792
G01 F15 Z-0.72
G01 F300 X2.205555 Y-0.873241
G01 X2.146371 Y-1.010006
G01 X2.078717 Y-1.142784
G01 X2.002859 Y-1.271053
G01 X1.919097 Y-1.394306
G01 X1.827761 Y-1.512055
G01 X1.729847 Y-1.623117
G01 X1.696904 Y-1.655063
G01 X1.694809 Y-1.655549
G01 X1.66914 Y-1.659761
G01 X1.636488 Y-1.662701
G01 X1.597621 Y-1.663061
G01 X1.553227 Y-1.659554
G01 X1.503889 Y-1.650879
G01 X1.450078 Y-1.635674
G01 X1.392178 Y-1.612472
G01 X1.330536 Y-1.579663
G01 X1.265542 Y-1.535493
G01 X1.197686 Y-1.478107
G01 X1.1276 Y-1.405607
G01 X1.056053 Y-1.316115
G01 X0.983917 Y-1.207821
G01 X0.91213 Y-1.078993
G01 X0.841657 Y-0.927979
G01 X0.773461 Y-0.753192
G01 X0.727789 Y-0.612528
G01 X0.757767 Y-0.57346
G01 X0.845028 Y-0.616203
G03 X0.850262 Y-0.618619 I0.054987 J0.112256
G01 X1.018123 Y-0.691449
G03 X1.023831 Y-0.693761 I0.049753 J0.114672
G01 X1.180642 Y-0.7528
G03 X1.186842 Y-0.75495 I0.044044 J0.116983
G01 X1.332828 Y-0.801325
G03 X1.339523 Y-0.803248 I0.037845 J0.119133
G01 X1.474911 Y-0.838085
G03 X1.482092 Y-0.839708 I0.031149 J0.121057
G01 X1.607107 Y-0.864134
G03 X1.614742 Y-0.865381 I0.023969 J0.12268
G01 X1.729612 Y-0.880522
G03 X1.737649 Y-0.881318 I0.016334 J0.123928
G01 X1.842598 Y-0.888299
G03 X1.850961 Y-0.888575 I0.008297 J0.124724
G01 X1.946216 Y-0.888524
G03 X1.954807 Y-0.888224 I-0.000066 J0.125
G01 X2.040593 Y-0.882268
G03 X2.049297 Y-0.881357 I-0.008658 J0.1247
G01 X2.12584 Y-0.870622
G03 X2.134528 Y-0.869089 I-0.017361 J0.123788
G01 X2.202055 Y-0.854701
G03 X2.210596 Y-0.852564 I-0.026049 J0.122256
G01 X2.213277 Y-0.851792
G01 F15 Z-0.75
G01 F300 X2.205555 Y-0.873241
G01 X2.146371 Y-1.010006
G01 X2.078717 Y-1.142784
G01 X2.002859 Y-1.271053
G01 X1.919097 Y-1.394306
G01 X1.827761 Y-1.512055
G01 X1.729847 Y-1.623117
G01 X1.696904 Y-1.655063
G01 X1.694809 Y-1.655549
G01 X1.66914 Y-1.659761
G01 X1.636488 Y-1.662701
G01 X1.597621 Y-1.663061
G01 X1.553227 Y-1.659554
G01 X1.503889 Y-1.650879
G01 X1.450078 Y-1.635674
G01 X1.392178 Y-1.612472
G01 X1.330536 Y-1.579663
G01 X1.265542 Y-1.535493
G01 X1.197686 Y-1.478107
G01 X1.1276 Y-1.405607
G01 X1.056053 Y-1.316115
G01 X0.983917 Y-1.207821
G01 X0.91213 Y-1.078993
G01 X0.841657 Y-0.927979
G01 X0.773461 Y-0.753192
G01 X0.727789 Y-0.612528
G01 X0.757767 Y-0.57346
G01 X0.845028 Y-0.616203
G03 X0.850262 Y-0.618619 I0.054987 J0.112256
G01 X1.018123 Y-0.691449
G03 X1.023831 Y-0.693761 I0.049753 J0.114672
G01 X1.180642 Y-0.7528
G03 X1.186842 Y-0.75495 I0.044044 J0.116983
G01 X1.332828 Y-0.801325
G03 X1.339523 Y-0.803248 I0.037845 J0.119133
G01 X1.474911 Y-0.838085
G03 X1.482092 Y-0.839708 I0.031149 J0.121057
G01 X1.607107 Y-0.864134
G03 X1.614742 Y-0.865381 I0.023969 J0.12268
G01 X1.729612 Y-0.880522
G03 X1.737649 Y-0.881318 I0.016334 J0.123928
G01 X1.842598 Y-0.888299
G03 X1.850961 Y-0.888575 I0.008297 J0.124724
G01 X1.946216 Y-0.888524
G03 X1.954807 Y-0.888224 I-0.000066 J0.125
G01 X2.040593 Y-0.882268
G03 X2.049297 Y-0.881357 I-0.008658 J0.1247
G01 X2.12584 Y-0.870622
G03 X2.134528 Y-0.869089 I-0.017361 J0.123788
G01 X2.202055 Y-0.854701
G03 X2.210596 Y-0.852564 I-0.026049 J0.122256
G01 X2.213277 Y-0.851792
G01 F15 Z-0.78
G01 F300 X2.205555 Y-0.873241
G01 X2.146371 Y-1.010006
G01 X2.078717 Y-1.142784
G01 X2.002859 Y-1.271053
G01 X1.919097 Y-1.394306
G01 X1.827761 Y-1.512055
G01 X1.729847 Y-1.623117
G01 X1.696904 Y-1.655063
G01 X1.694809 Y-1.655549
G01 X1.66914 Y-1.659761
G01 X1.636488 Y-1.662701
G01 X1.597621 Y-1.663061
G01 X1.553227 Y-1.659554
G01 X1.503889 Y-1.650879
G01 X1.450078 Y-1.635674
G01 X1.392178 Y-1.612472
G01 X1.330536 Y-1.579663
G01 X1.265542 Y-1.535493
G01 X1.197686 Y-1.478107
G01 X1.1276 Y-1.405607
G01 X1.056053 Y-1.316115
G01 X0.983917 Y-1.207821
G01 X0.91213 Y-1.078993
G01 X0.841657 Y-0.927979
G01 X0.773461 Y-0.753192
G01 X0.727789 Y-0.612528
G01 X0.757767 Y-0.57346
G01 X0.845028 Y-0.616203
G03 X0.850262 Y-0.618619 I0.054987 J0.112256
G01 X1.018123 Y-0.691449
G03 X1.023831 Y-0.693761 I0.049753 J0.114672
G01 X1.180642 Y-0.7528
G03 X1.186842 Y-0.75495 I0.044044 J0.116983
G01 X1.332828 Y-0.801325
G03 X1.339523 Y-0.803248 I0.037845 J0.119133
G01 X1.474911 Y-0.838085
G03 X1.482092 Y-0.839708 I0.031149 J0.121057
G01 X1.607107 Y-0.864134
G03 X1.614742 Y-0.865381 I0.023969 J0.12268
G01 X1.729612 Y-0.880522
G03 X1.737649 Y-0.881318 I0.016334 J0.123928
G01 X1.842598 Y-0.888299
G03 X1.850961 Y-0.888575 I0.008297 J0.124724
G01 X1.946216 Y-0.888524
G03 X1.954807 Y-0.888224 I-0.000066 J0.125
G01 X2.040593 Y-0.882268
G03 X2.049297 Y-0.881357 I-0.008658 J0.1247
G01 X2.12584 Y-0.870622
G03 X2.134528 Y-0.869089 I-0.017361 J0.123788
G01 X2.202055 Y-0.854701
G03 X2.210596 Y-0.852564 I-0.026049 J0.122256
G01 X2.213277 Y-0.851792
G01 F15 Z-0.8
G01 F300 X2.205555 Y-0.873241
G01 X2.146371 Y-1.010006
G01 X2.078717 Y-1.142784
G01 X2.002859 Y-1.271053
G01 X1.919097 Y-1.394306
G01 X1.827761 Y-1.512055
G01 X1.729847 Y-1.623117
G01 X1.696904 Y-1.655063
G01 X1.694809 Y-1.655549
G01 X1.66914 Y-1.659761
G01 X1.636488 Y-1.662701
G01 X1.597621 Y-1.663061
G01 X1.553227 Y-1.659554
G01 X1.503889 Y-1.650879
G01 X1.450078 Y-1.635674
G01 X1.392178 Y-1.612472
G01 X1.330536 Y-1.579663
G01 X1.265542 Y-1.535493
G01 X1.197686 Y-1.478107
G01 X1.1276 Y-1.405607
G01 X1.056053 Y-1.316115
G01 X0.983917 Y-1.207821
G01 X0.91213 Y-1.078993
G01 X0.841657 Y-0.927979
G01 X0.773461 Y-0.753192
G01 X0.727789 Y-0.612528
G01 X0.757767 Y-0.57346
G01 X0.845028 Y-0.616203
G03 X0.850262 Y-0.618619 I0.054987 J0.112256
G01 X1.018123 Y-0.691449
G03 X1.023831 Y-0.693761 I0.049753 J0.114672
G01 X1.180642 Y-0.7528
G03 X1.186842 Y-0.75495 I0.044044 J0.116983
G01 X1.332828 Y-0.801325
G03 X1.339523 Y-0.803248 I0.037845 J0.119133
G01 X1.474911 Y-0.838085
G03 X1.482092 Y-0.839708 I0.031149 J0.121057
G01 X1.607107 Y-0.864134
G03 X1.614742 Y-0.865381 I0.023969 J0.12268
G01 X1.729612 Y-0.880522
G03 X1.737649 Y-0.881318 I0.016334 J0.123928
G01 X1.842598 Y-0.888299
G03 X1.850961 Y-0.888575 I0.008297 J0.124724
G01 X1.946216 Y-0.888524
G03 X1.954807 Y-0.888224 I-0.000066 J0.125
G01 X2.040593 Y-0.882268
G03 X2.049297 Y-0.881357 I-0.008658 J0.1247
G01 X2.12584 Y-0.870622
G03 X2.134528 Y-0.869089 I-0.017361 J0.123788
G01 X2.202055 Y-0.854701
G03 X2.210596 Y-0.852564 I-0.026049 J0.122256
G01 X2.213277 Y-0.851792
G00 Z0.125
G00 X0.962212 Y-2.167053
G01 F15 Z-0.03
G01 F300 X0.873241 Y-2.205555
G01 X0.73303 Y-2.256034
G01 X0.589926 Y-2.297609
G01 X0.444494 Y-2.330117
G01 X0.297307 Y-2.353429
G01 X0.149978 Y-2.367356
G01 X0.027939 Y-2.369172
G01 X0.027761 Y-2.369061
G01 X0.006632 Y-2.353889
G01 X-0.018535 Y-2.332879
G01 X-0.046273 Y-2.305651
G01 X-0.075184 Y-2.27178
G01 X-0.103937 Y-2.230758
G01 X-0.131236 Y-2.181957
G01 X-0.155772 Y-2.124609
G01 X-0.176159 Y-2.057822
G01 X-0.190885 Y-1.980631
G01 X-0.198288 Y-1.892071
G01 X-0.19658 Y-1.791248
G01 X-0.183892 Y-1.677376
G01 X-0.158324 Y-1.549793
G01 X-0.11799 Y-1.407937
G01 X-0.061039 Y-1.251322
G01 X0.014332 Y-1.079507
G01 X0.081502 Y-0.947747
G01 X0.130325 Y-0.94132
G01 X0.161804 Y-1.033246
G03 X0.163796 Y-1.038656 I0.118259 J0.040495
G01 X0.230993 Y-1.20885
G03 X0.233395 Y-1.214521 I0.116266 J0.045905
G01 X0.30253 Y-1.36715
G03 X0.305393 Y-1.373054 I0.113864 J0.051576
G01 X0.375829 Y-1.509074
G03 X0.379204 Y-1.515168 I0.111 J0.05748
G01 X0.450304 Y-1.635535
G03 X0.454233 Y-1.641761 I0.107626 J0.063574
G01 X0.525362 Y-1.747431
G03 X0.529878 Y-1.753712 I0.103697 J0.0698
G01 X0.600397 Y-1.845643
G03 X0.605517 Y-1.851889 I0.09918 J0.076081
G01 X0.674791 Y-1.931036
G03 X0.68051 Y-1.937144 I0.09406 J0.082326
G01 X0.747901 Y-2.004464
G03 X0.754188 Y-2.010327 I0.088341 J0.088435
G01 X0.81906 Y-2.066775
G03 X0.825858 Y-2.072285 I0.082054 J0.094298
G01 X0.887574 Y-2.118819
G03 X0.8948 Y-2.123878 I0.075255 J0.099808
G01 X0.952723 Y-2.161453
G03 X0.960273 Y-2.165981 I0.068029 J0.104867
G01 X0.962212 Y-2.167053
G01 F15 Z-0.06
G01 F300 X0.873241 Y-2.205555
G01 X0.73303 Y-2.256034
G01 X0.589926 Y-2.297609
G01 X0.444494 Y-2.330117
G01 X0.297307 Y-2.353429
G01 X0.149978 Y-2.367356
