(Generated with: DXF2GCODE, Version: PyQt5 Beta, Date: $Date: Sun Oct 4 21:49:52 2015 +0200 $)
(Created from file: E:/microstat/teste.dxf)
(Time: Fri Jan 22 09:35:51 2016)
G21 (Units in millimeters)  G90 (Absolute programming) G64 (Default cutting) G17 (XY plane) G40 (Cancel radius comp.) G49 (Cancel length comp.)
G0 Z  15.000 

(*** LAYER: 0 ***)
T1 M6
S6000

(* SHAPE Nr: 0 *)
G0 X -34.465 Y -18.591
M3 M8
G0 Z   3.000 
F150
G1 Z  -1.500
F400
G1 X -35.872 Y -16.179
G1 X -37.299 Y -13.781
G1 X -38.744 Y -11.398
G1 X -40.207 Y  -9.034
G1 X -41.687 Y  -6.689
G1 X -43.182 Y  -4.364
G1 X -44.691 Y  -2.063
G1 X -46.213 Y   0.214
G1 X -47.746 Y   2.466
G1 X -49.288 Y   4.690
G1 X -50.839 Y   6.884
G1 X -52.397 Y   9.049
G1 X -53.961 Y  11.181
G1 X -55.528 Y  13.280
G1 X -57.098 Y  15.345
G1 X -58.669 Y  17.374
G1 X -60.239 Y  19.365
G1 X -61.807 Y  21.318
G1 X -63.370 Y  23.232
G1 X -64.928 Y  25.105
G1 X -66.479 Y  26.937
G1 X -68.020 Y  28.726
G1 X -69.551 Y  30.472
G1 X -71.070 Y  32.173
G1 X -72.574 Y  33.829
G1 X -74.063 Y  35.440
G1 X -75.534 Y  37.003
G1 X -76.985 Y  38.520
G1 X -78.416 Y  39.989
G1 X -79.824 Y  41.409
G1 X -81.208 Y  42.781
G1 X -82.566 Y  44.104
G1 X -83.896 Y  45.377
G1 X -85.196 Y  46.601
G1 X -86.466 Y  47.774
G1 X -87.703 Y  48.898
G1 X -88.905 Y  49.971
G1 X -90.071 Y  50.994
G1 X -91.200 Y  51.966
G1 X -92.290 Y  52.889
G1 X -93.339 Y  53.762
G1 X -94.346 Y  54.584
G1 X -95.309 Y  55.357
G1 X -96.227 Y  56.081
G1 X -97.098 Y  56.756
G1 X -97.922 Y  57.382
G1 X -98.696 Y  57.961
G1 X -99.420 Y  58.491
G1 X-100.092 Y  58.975
G1 X-100.711 Y  59.413
G1 X-101.276 Y  59.805
G1 X-101.785 Y  60.152
G1 X-102.238 Y  60.454
G1 X-102.634 Y  60.714
G1 X-102.971 Y  60.930
G1 X-103.248 Y  61.106
G1 X-103.466 Y  61.240
G1 X-103.622 Y  61.335
G1 X-103.716 Y  61.391
G1 X-103.747 Y  61.409
G1 X-103.716 Y  61.391
G1 X-103.620 Y  61.338
G1 X-103.460 Y  61.250
G1 X-103.235 Y  61.129
G1 X-102.944 Y  60.976
G1 X-102.588 Y  60.793
G1 X-102.166 Y  60.580
G1 X-101.677 Y  60.339
G1 X-101.122 Y  60.072
G1 X-100.500 Y  59.778
G1 X -99.812 Y  59.461
G1 X -99.057 Y  59.121
G1 X -98.235 Y  58.760
G1 X -97.347 Y  58.378
G1 X -96.393 Y  57.978
G1 X -95.373 Y  57.561
G1 X -94.287 Y  57.127
G1 X -93.136 Y  56.680
G1 X -91.920 Y  56.219
G1 X -90.640 Y  55.747
G1 X -89.296 Y  55.265
G1 X -87.889 Y  54.773
G1 X -86.420 Y  54.275
G1 X -84.889 Y  53.770
G1 X -83.298 Y  53.261
G1 X -81.647 Y  52.748
G1 X -79.937 Y  52.234
G1 X -78.170 Y  51.718
G1 X -76.345 Y  51.204
G1 X -74.465 Y  50.691
G1 X -72.531 Y  50.182
G1 X -70.544 Y  49.678
G1 X -68.504 Y  49.179
G1 X -66.414 Y  48.686
G1 X -64.276 Y  48.203
G1 X -62.089 Y  47.728
G1 X -59.856 Y  47.263
G1 X -57.579 Y  46.811
G1 X -55.259 Y  46.370
G1 X -52.897 Y  45.943
G1 X -50.496 Y  45.530
G1 X -48.057 Y  45.133
G1 X -45.582 Y  44.752
G1 X -43.072 Y  44.388
G1 X -40.530 Y  44.042
G1 X -37.957 Y  43.715
G1 X -35.355 Y  43.407
G1 X -32.727 Y  43.119
G1 X -30.073 Y  42.852
G1 X -27.397 Y  42.606
G1 X -24.700 Y  42.382
G1 X -21.984 Y  42.180
G1 X -19.251 Y  42.001
G1 X -16.503 Y  41.845
G1 X -13.743 Y  41.713
G1 X -10.972 Y  41.604
G1 X  -8.192 Y  41.519
G1 X  -5.407 Y  41.458
G1 X  -2.616 Y  41.422
G1 X   0.176 Y  41.409
G1 X   2.968 Y  41.422
G1 X   5.758 Y  41.458
G1 X   8.544 Y  41.519
G1 X  11.323 Y  41.604
G1 X  14.094 Y  41.713
G1 X  16.854 Y  41.845
G1 X  19.602 Y  42.001
G1 X  22.335 Y  42.180
G1 X  25.051 Y  42.382
G1 X  27.748 Y  42.606
G1 X  30.425 Y  42.852
G1 X  33.078 Y  43.119
G1 X  35.707 Y  43.407
G1 X  38.308 Y  43.715
G1 X  40.881 Y  44.042
G1 X  43.423 Y  44.388
G1 X  45.933 Y  44.752
G1 X  48.408 Y  45.133
G1 X  50.848 Y  45.530
G1 X  53.249 Y  45.943
G1 X  55.610 Y  46.370
G1 X  57.931 Y  46.811
G1 X  60.208 Y  47.263
G1 X  62.440 Y  47.728
G1 X  64.627 Y  48.203
G1 X  66.766 Y  48.686
G1 X  68.856 Y  49.179
G1 X  70.895 Y  49.678
G1 X  72.882 Y  50.182
G1 X  74.817 Y  50.691
G1 X  76.697 Y  51.204
G1 X  78.521 Y  51.718
G1 X  80.289 Y  52.234
G1 X  81.998 Y  52.748
G1 X  83.650 Y  53.261
G1 X  85.241 Y  53.770
G1 X  86.771 Y  54.275
G1 X  88.240 Y  54.773
G1 X  89.647 Y  55.265
G1 X  90.991 Y  55.747
G1 X  92.271 Y  56.219
G1 X  93.487 Y  56.680
G1 X  94.638 Y  57.127
G1 X  95.724 Y  57.561
G1 X  96.744 Y  57.978
G1 X  97.698 Y  58.378
G1 X  98.587 Y  58.760
G1 X  99.408 Y  59.121
G1 X 100.163 Y  59.461
G1 X 100.852 Y  59.778
G1 X 101.473 Y  60.072
G1 X 102.028 Y  60.339
G1 X 102.517 Y  60.580
G1 X 102.939 Y  60.793
G1 X 103.296 Y  60.976
G1 X 103.586 Y  61.129
G1 X 103.811 Y  61.250
G1 X 103.971 Y  61.338
G1 X 104.067 Y  61.391
G1 X 104.099 Y  61.409
G1 X 104.067 Y  61.391
G1 X 103.973 Y  61.335
G1 X 103.817 Y  61.240
G1 X 103.600 Y  61.106
G1 X 103.322 Y  60.930
G1 X 102.985 Y  60.714
G1 X 102.590 Y  60.454
G1 X 102.137 Y  60.152
G1 X 101.627 Y  59.805
G1 X 101.063 Y  59.413
G1 X 100.444 Y  58.975
G1 X  99.772 Y  58.491
G1 X  99.048 Y  57.961
G1 X  98.273 Y  57.382
G1 X  97.450 Y  56.756
G1 X  96.578 Y  56.081
G1 X  95.660 Y  55.357
G1 X  94.697 Y  54.584
G1 X  93.690 Y  53.762
G1 X  92.641 Y  52.889
G1 X  91.551 Y  51.966
G1 X  90.423 Y  50.994
G1 X  89.256 Y  49.971
G1 X  88.054 Y  48.898
G1 X  86.817 Y  47.774
G1 X  85.548 Y  46.601
G1 X  84.247 Y  45.377
G1 X  82.917 Y  44.104
G1 X  81.559 Y  42.781
G1 X  80.176 Y  41.409
G1 X  78.768 Y  39.989
G1 X  77.337 Y  38.520
G1 X  75.885 Y  37.003
G1 X  74.414 Y  35.440
G1 X  72.925 Y  33.829
G1 X  71.421 Y  32.173
G1 X  69.903 Y  30.472
G1 X  68.372 Y  28.726
G1 X  66.830 Y  26.937
G1 X  65.279 Y  25.105
G1 X  63.722 Y  23.232
G1 X  62.158 Y  21.318
G1 X  60.590 Y  19.365
G1 X  59.020 Y  17.374
G1 X  57.450 Y  15.345
G1 X  55.880 Y  13.280
G1 X  54.312 Y  11.181
G1 X  52.749 Y   9.049
G1 X  51.191 Y   6.884
G1 X  49.640 Y   4.690
G1 X  48.097 Y   2.466
G1 X  46.564 Y   0.214
G1 X  45.042 Y  -2.063
G1 X  43.534 Y  -4.364
G1 X  42.039 Y  -6.689
G1 X  40.559 Y  -9.034
G1 X  39.096 Y -11.398
G1 X  37.650 Y -13.781
G1 X  36.223 Y -16.179
G1 X  34.817 Y -18.591
G1 X  33.431 Y -21.015
G1 X  32.068 Y -23.449
G1 X  30.728 Y -25.892
G1 X  29.411 Y -28.342
G1 X  28.120 Y -30.796
G1 X  26.855 Y -33.253
G1 X  25.616 Y -35.710
G1 X  24.405 Y -38.167
G1 X  23.221 Y -40.620
G1 X  22.067 Y -43.068
G1 X  20.942 Y -45.508
G1 X  19.846 Y -47.940
G1 X  18.781 Y -50.360
G1 X  17.747 Y -52.767
G1 X  16.744 Y -55.159
G1 X  15.773 Y -57.534
G1 X  14.833 Y -59.889
G1 X  13.925 Y -62.223
G1 X  13.050 Y -64.534
G1 X  12.206 Y -66.820
G1 X  11.395 Y -69.079
G1 X  10.617 Y -71.308
G1 X   9.870 Y -73.507
G1 X   9.156 Y -75.673
G1 X   8.474 Y -77.804
G1 X   7.824 Y -79.898
G1 X   7.205 Y -81.954
G1 X   6.617 Y -83.969
G1 X   6.061 Y -85.943
G1 X   5.535 Y -87.873
G1 X   5.039 Y -89.757
G1 X   4.572 Y -91.594
G1 X   4.134 Y -93.382
G1 X   3.725 Y -95.121
G1 X   3.343 Y -96.807
G1 X   2.989 Y -98.439
G1 X   2.661 Y-100.017
G1 X   2.358 Y-101.539
G1 X   2.080 Y-103.003
G1 X   1.826 Y-104.408
G1 X   1.595 Y-105.752
G1 X   1.386 Y-107.036
G1 X   1.198 Y-108.256
G1 X   1.030 Y-109.413
G1 X   0.881 Y-110.506
G1 X   0.751 Y-111.532
G1 X   0.637 Y-112.492
G1 X   0.539 Y-113.384
G1 X   0.456 Y-114.208
G1 X   0.387 Y-114.963
G1 X   0.330 Y-115.648
G1 X   0.284 Y-116.262
G1 X   0.248 Y-116.806
G1 X   0.221 Y-117.278
G1 X   0.202 Y-117.678
G1 X   0.189 Y-118.006
G1 X   0.181 Y-118.262
G1 X   0.177 Y-118.444
G1 X   0.176 Y-118.554
G1 X   0.176 Y-118.591
G1 X   0.175 Y-118.554
G1 X   0.174 Y-118.444
G1 X   0.170 Y-118.262
G1 X   0.162 Y-118.006
G1 X   0.149 Y-117.678
G1 X   0.130 Y-117.278
G1 X   0.103 Y-116.806
G1 X   0.067 Y-116.262
G1 X   0.022 Y-115.648
G1 X  -0.035 Y-114.963
G1 X  -0.105 Y-114.208
G1 X  -0.188 Y-113.384
G1 X  -0.286 Y-112.492
G1 X  -0.399 Y-111.532
G1 X  -0.530 Y-110.506
G1 X  -0.679 Y-109.413
G1 X  -0.846 Y-108.256
G1 X  -1.034 Y-107.036
G1 X  -1.243 Y-105.752
G1 X  -1.474 Y-104.408
G1 X  -1.729 Y-103.003
G1 X  -2.007 Y-101.539
G1 X  -2.309 Y-100.017
G1 X  -2.637 Y -98.439
G1 X  -2.992 Y -96.807
G1 X  -3.374 Y -95.121
G1 X  -3.783 Y -93.382
G1 X  -4.221 Y -91.594
G1 X  -4.687 Y -89.757
G1 X  -5.183 Y -87.873
G1 X  -5.709 Y -85.943
G1 X  -6.266 Y -83.969
G1 X  -6.854 Y -81.954
G1 X  -7.472 Y -79.898
G1 X  -8.123 Y -77.804
G1 X  -8.805 Y -75.673
G1 X  -9.519 Y -73.507
G1 X -10.265 Y -71.308
G1 X -11.044 Y -69.079
G1 X -11.855 Y -66.820
G1 X -12.698 Y -64.534
G1 X -13.574 Y -62.223
G1 X -14.482 Y -59.889
G1 X -15.421 Y -57.534
G1 X -16.393 Y -55.159
G1 X -17.396 Y -52.767
G1 X -18.430 Y -50.360
G1 X -19.495 Y -47.940
G1 X -20.590 Y -45.508
G1 X -21.716 Y -43.068
G1 X -22.870 Y -40.620
G1 X -24.053 Y -38.167
G1 X -25.265 Y -35.710
G1 X -26.503 Y -33.253
G1 X -27.769 Y -30.796
G1 X -29.060 Y -28.342
G1 X -30.376 Y -25.892
G1 X -31.716 Y -23.449
G1 X -33.080 Y -21.015
G1 X -34.465 Y -18.591
F150
G1 Z  -3.000
F400
G1 X -35.872 Y -16.179
G1 X -37.299 Y -13.781
G1 X -38.744 Y -11.398
G1 X -40.207 Y  -9.034
G1 X -41.687 Y  -6.689
G1 X -43.182 Y  -4.364
G1 X -44.691 Y  -2.063
G1 X -46.213 Y   0.214
G1 X -47.746 Y   2.466
G1 X -49.288 Y   4.690
G1 X -50.839 Y   6.884
G1 X -52.397 Y   9.049
G1 X -53.961 Y  11.181
G1 X -55.528 Y  13.280
G1 X -57.098 Y  15.345
G1 X -58.669 Y  17.374
G1 X -60.239 Y  19.365
G1 X -61.807 Y  21.318
G1 X -63.370 Y  23.232
G1 X -64.928 Y  25.105
G1 X -66.479 Y  26.937
G1 X -68.020 Y  28.726
G1 X -69.551 Y  30.472
G1 X -71.070 Y  32.173
G1 X -72.574 Y  33.829
G1 X -74.063 Y  35.440
G1 X -75.534 Y  37.003
G1 X -76.985 Y  38.520
G1 X -78.416 Y  39.989
G1 X -79.824 Y  41.409
G1 X -81.208 Y  42.781
G1 X -82.566 Y  44.104
G1 X -83.896 Y  45.377
G1 X -85.196 Y  46.601
G1 X -86.466 Y  47.774
G1 X -87.703 Y  48.898
G1 X -88.905 Y  49.971
G1 X -90.071 Y  50.994
G1 X -91.200 Y  51.966
G1 X -92.290 Y  52.889
G1 X -93.339 Y  53.762
G1 X -94.346 Y  54.584
G1 X -95.309 Y  55.357
G1 X -96.227 Y  56.081
G1 X -97.098 Y  56.756
G1 X -97.922 Y  57.382
G1 X -98.696 Y  57.961
G1 X -99.420 Y  58.491
G1 X-100.092 Y  58.975
G1 X-100.711 Y  59.413
G1 X-101.276 Y  59.805
G1 X-101.785 Y  60.152
G1 X-102.238 Y  60.454
G1 X-102.634 Y  60.714
G1 X-102.971 Y  60.930
G1 X-103.248 Y  61.106
G1 X-103.466 Y  61.240
G1 X-103.622 Y  61.335
G1 X-103.716 Y  61.391
G1 X-103.747 Y  61.409
G1 X-103.716 Y  61.391
G1 X-103.620 Y  61.338
G1 X-103.460 Y  61.250
G1 X-103.235 Y  61.129
G1 X-102.944 Y  60.976
G1 X-102.588 Y  60.793
G1 X-102.166 Y  60.580
G1 X-101.677 Y  60.339
G1 X-101.122 Y  60.072
G1 X-100.500 Y  59.778
G1 X -99.812 Y  59.461
G1 X -99.057 Y  59.121
G1 X -98.235 Y  58.760
G1 X -97.347 Y  58.378
G1 X -96.393 Y  57.978
G1 X -95.373 Y  57.561
G1 X -94.287 Y  57.127
G1 X -93.136 Y  56.680
G1 X -91.920 Y  56.219
G1 X -90.640 Y  55.747
G1 X -89.296 Y  55.265
G1 X -87.889 Y  54.773
G1 X -86.420 Y  54.275
G1 X -84.889 Y  53.770
G1 X -83.298 Y  53.261
G1 X -81.647 Y  52.748
G1 X -79.937 Y  52.234
G1 X -78.170 Y  51.718
G1 X -76.345 Y  51.204
G1 X -74.465 Y  50.691
G1 X -72.531 Y  50.182
G1 X -70.544 Y  49.678
G1 X -68.504 Y  49.179
G1 X -66.414 Y  48.686
G1 X -64.276 Y  48.203
G1 X -62.089 Y  47.728
G1 X -59.856 Y  47.263
G1 X -57.579 Y  46.811
G1 X -55.259 Y  46.370
G1 X -52.897 Y  45.943
G1 X -50.496 Y  45.530
G1 X -48.057 Y  45.133
G1 X -45.582 Y  44.752
G1 X -43.072 Y  44.388
G1 X -40.530 Y  44.042
G1 X -37.957 Y  43.715
G1 X -35.355 Y  43.407
G1 X -32.727 Y  43.119
G1 X -30.073 Y  42.852
G1 X -27.397 Y  42.606
G1 X -24.700 Y  42.382
G1 X -21.984 Y  42.180
G1 X -19.251 Y  42.001
G1 X -16.503 Y  41.845
G1 X -13.743 Y  41.713
G1 X -10.972 Y  41.604
G1 X  -8.192 Y  41.519
G1 X  -5.407 Y  41.458
G1 X  -2.616 Y  41.422
G1 X   0.176 Y  41.409
G1 X   2.968 Y  41.422
G1 X   5.758 Y  41.458
G1 X   8.544 Y  41.519
G1 X  11.323 Y  41.604
G1 X  14.094 Y  41.713
G1 X  16.854 Y  41.845
G1 X  19.602 Y  42.001
G1 X  22.335 Y  42.180
G1 X  25.051 Y  42.382
G1 X  27.748 Y  42.606
G1 X  30.425 Y  42.852
G1 X  33.078 Y  43.119
G1 X  35.707 Y  43.407
G1 X  38.308 Y  43.715
G1 X  40.881 Y  44.042
G1 X  43.423 Y  44.388
G1 X  45.933 Y  44.752
G1 X  48.408 Y  45.133
G1 X  50.848 Y  45.530
G1 X  53.249 Y  45.943
G1 X  55.610 Y  46.370
G1 X  57.931 Y  46.811
G1 X  60.208 Y  47.263
G1 X  62.440 Y  47.728
G1 X  64.627 Y  48.203
G1 X  66.766 Y  48.686
G1 X  68.856 Y  49.179
G1 X  70.895 Y  49.678
G1 X  72.882 Y  50.182
G1 X  74.817 Y  50.691
G1 X  76.697 Y  51.204
G1 X  78.521 Y  51.718
G1 X  80.289 Y  52.234
G1 X  81.998 Y  52.748
G1 X  83.650 Y  53.261
G1 X  85.241 Y  53.770
G1 X  86.771 Y  54.275
G1 X  88.240 Y  54.773
G1 X  89.647 Y  55.265
G1 X  90.991 Y  55.747
G1 X  92.271 Y  56.219
G1 X  93.487 Y  56.680
G1 X  94.638 Y  57.127
G1 X  95.724 Y  57.561
G1 X  96.744 Y  57.978
G1 X  97.698 Y  58.378
G1 X  98.587 Y  58.760
G1 X  99.408 Y  59.121
G1 X 100.163 Y  59.461
G1 X 100.852 Y  59.778
G1 X 101.473 Y  60.072
G1 X 102.028 Y  60.339
G1 X 102.517 Y  60.580
G1 X 102.939 Y  60.793
G1 X 103.296 Y  60.976
G1 X 103.586 Y  61.129
G1 X 103.811 Y  61.250
G1 X 103.971 Y  61.338
G1 X 104.067 Y  61.391
G1 X 104.099 Y  61.409
G1 X 104.067 Y  61.391
G1 X 103.973 Y  61.335
G1 X 103.817 Y  61.240
G1 X 103.600 Y  61.106
G1 X 103.322 Y  60.930
G1 X 102.985 Y  60.714
G1 X 102.590 Y  60.454
G1 X 102.137 Y  60.152
G1 X 101.627 Y  59.805
G1 X 101.063 Y  59.413
G1 X 100.444 Y  58.975
G1 X  99.772 Y  58.491
G1 X  99.048 Y  57.961
G1 X  98.273 Y  57.382
G1 X  97.450 Y  56.756
G1 X  96.578 Y  56.081
G1 X  95.660 Y  55.357
G1 X  94.697 Y  54.584
G1 X  93.690 Y  53.762
G1 X  92.641 Y  52.889
G1 X  91.551 Y  51.966
G1 X  90.423 Y  50.994
G1 X  89.256 Y  49.971
G1 X  88.054 Y  48.898
G1 X  86.817 Y  47.774
G1 X  85.548 Y  46.601
G1 X  84.247 Y  45.377
G1 X  82.917 Y  44.104
G1 X  81.559 Y  42.781
G1 X  80.176 Y  41.409
G1 X  78.768 Y  39.989
G1 X  77.337 Y  38.520
G1 X  75.885 Y  37.003
G1 X  74.414 Y  35.440
G1 X  72.925 Y  33.829
G1 X  71.421 Y  32.173
G1 X  69.903 Y  30.472
G1 X  68.372 Y  28.726
G1 X  66.830 Y  26.937
G1 X  65.279 Y  25.105
G1 X  63.722 Y  23.232
G1 X  62.158 Y  21.318
G1 X  60.590 Y  19.365
G1 X  59.020 Y  17.374
G1 X  57.450 Y  15.345
G1 X  55.880 Y  13.280
G1 X  54.312 Y  11.181
G1 X  52.749 Y   9.049
G1 X  51.191 Y   6.884
G1 X  49.640 Y   4.690
G1 X  48.097 Y   2.466
G1 X  46.564 Y   0.214
G1 X  45.042 Y  -2.063
G1 X  43.534 Y  -4.364
G1 X  42.039 Y  -6.689
G1 X  40.559 Y  -9.034
G1 X  39.096 Y -11.398
G1 X  37.650 Y -13.781
G1 X  36.223 Y -16.179
G1 X  34.817 Y -18.591
G1 X  33.431 Y -21.015
G1 X  32.068 Y -23.449
G1 X  30.728 Y -25.892
G1 X  29.411 Y -28.342
G1 X  28.120 Y -30.796
G1 X  26.855 Y -33.253
G1 X  25.616 Y -35.710
G1 X  24.405 Y -38.167
G1 X  23.221 Y -40.620
G1 X  22.067 Y -43.068
G1 X  20.942 Y -45.508
G1 X  19.846 Y -47.940
G1 X  18.781 Y -50.360
G1 X  17.747 Y -52.767
G1 X  16.744 Y -55.159
G1 X  15.773 Y -57.534
G1 X  14.833 Y -59.889
G1 X  13.925 Y -62.223
G1 X  13.050 Y -64.534
G1 X  12.206 Y -66.820
G1 X  11.395 Y -69.079
G1 X  10.617 Y -71.308
G1 X   9.870 Y -73.507
G1 X   9.156 Y -75.673
G1 X   8.474 Y -77.804
G1 X   7.824 Y -79.898
G1 X   7.205 Y -81.954
G1 X   6.617 Y -83.969
G1 X   6.061 Y -85.943
G1 X   5.535 Y -87.873
G1 X   5.039 Y -89.757
G1 X   4.572 Y -91.594
G1 X   4.134 Y -93.382
G1 X   3.725 Y -95.121
G1 X   3.343 Y -96.807
G1 X   2.989 Y -98.439
G1 X   2.661 Y-100.017
G1 X   2.358 Y-101.539
G1 X   2.080 Y-103.003
G1 X   1.826 Y-104.408
G1 X   1.595 Y-105.752
G1 X   1.386 Y-107.036
G1 X   1.198 Y-108.256
G1 X   1.030 Y-109.413
G1 X   0.881 Y-110.506
G1 X   0.751 Y-111.532
G1 X   0.637 Y-112.492
G1 X   0.539 Y-113.384
G1 X   0.456 Y-114.208
G1 X   0.387 Y-114.963
G1 X   0.330 Y-115.648
G1 X   0.284 Y-116.262
G1 X   0.248 Y-116.806
G1 X   0.221 Y-117.278
G1 X   0.202 Y-117.678
G1 X   0.189 Y-118.006
G1 X   0.181 Y-118.262
G1 X   0.177 Y-118.444
G1 X   0.176 Y-118.554
G1 X   0.176 Y-118.591
G1 X   0.175 Y-118.554
G1 X   0.174 Y-118.444
G1 X   0.170 Y-118.262
G1 X   0.162 Y-118.006
G1 X   0.149 Y-117.678
G1 X   0.130 Y-117.278
G1 X   0.103 Y-116.806
G1 X   0.067 Y-116.262
G1 X   0.022 Y-115.648
G1 X  -0.035 Y-114.963
G1 X  -0.105 Y-114.208
G1 X  -0.188 Y-113.384
G1 X  -0.286 Y-112.492
G1 X  -0.399 Y-111.532
G1 X  -0.530 Y-110.506
G1 X  -0.679 Y-109.413
G1 X  -0.846 Y-108.256
G1 X  -1.034 Y-107.036
G1 X  -1.243 Y-105.752
G1 X  -1.474 Y-104.408
G1 X  -1.729 Y-103.003
G1 X  -2.007 Y-101.539
G1 X  -2.309 Y-100.017
G1 X  -2.637 Y -98.439
G1 X  -2.992 Y -96.807
G1 X  -3.374 Y -95.121
G1 X  -3.783 Y -93.382
G1 X  -4.221 Y -91.594
G1 X  -4.687 Y -89.757
G1 X  -5.183 Y -87.873
G1 X  -5.709 Y -85.943
G1 X  -6.266 Y -83.969
G1 X  -6.854 Y -81.954
G1 X  -7.472 Y -79.898
G1 X  -8.123 Y -77.804
G1 X  -8.805 Y -75.673
G1 X  -9.519 Y -73.507
G1 X -10.265 Y -71.308
G1 X -11.044 Y -69.079
G1 X -11.855 Y -66.820
G1 X -12.698 Y -64.534
G1 X -13.574 Y -62.223
G1 X -14.482 Y -59.889
G1 X -15.421 Y -57.534
G1 X -16.393 Y -55.159
G1 X -17.396 Y -52.767
G1 X -18.430 Y -50.360
G1 X -19.495 Y -47.940
G1 X -20.590 Y -45.508
G1 X -21.716 Y -43.068
G1 X -22.870 Y -40.620
G1 X -24.053 Y -38.167
G1 X -25.265 Y -35.710
G1 X -26.503 Y -33.253
G1 X -27.769 Y -30.796
G1 X -29.060 Y -28.342
G1 X -30.376 Y -25.892
G1 X -31.716 Y -23.449
G1 X -33.080 Y -21.015
G1 X -34.465 Y -18.591
F150
G1 Z   3.000
G0 Z  15.000 
M9 M5

(* SHAPE Nr: 1 *)
G0 X -84.677 Y -83.443
M3 M8
G0 Z   3.000 
G1 Z  -1.500
F400
G2 X  85.028 Y  86.262 I  84.853 J  84.853
G2 X -84.677 Y -83.443 I -84.853 J -84.853
F150
G1 Z  -3.000
F400
G2 X  85.028 Y  86.262 I  84.853 J  84.853
G2 X -84.677 Y -83.443 I -84.853 J -84.853
F150
G1 Z   3.000
G0 Z  15.000 
M9 M5

(* SHAPE Nr: 2 *)
G0 X -29.898 Y -24.964
M3 M8
G0 Z   3.000 
G1 Z  -1.500
F400
G1 X -31.748 Y -22.873
G1 X -33.615 Y -20.800
G1 X -35.498 Y -18.745
G1 X -37.394 Y -16.711
G1 X -39.303 Y -14.700
G1 X -41.223 Y -12.712
G1 X -43.152 Y -10.749
G1 X -45.088 Y  -8.812
G1 X -47.031 Y  -6.903
G1 X -48.978 Y  -5.023
G1 X -50.927 Y  -3.173
G1 X -52.878 Y  -1.355
G1 X -54.827 Y   0.432
G1 X -56.774 Y   2.185
G1 X -58.717 Y   3.904
G1 X -60.653 Y   5.587
G1 X -62.581 Y   7.234
G1 X -64.500 Y   8.844
G1 X -66.407 Y  10.416
G1 X -68.300 Y  11.949
G1 X -70.178 Y  13.443
G1 X -72.039 Y  14.897
G1 X -73.881 Y  16.310
G1 X -75.702 Y  17.683
G1 X -77.501 Y  19.014
G1 X -79.275 Y  20.303
G1 X -81.023 Y  21.549
G1 X -82.743 Y  22.754
G1 X -84.433 Y  23.915
G1 X -86.091 Y  25.034
G1 X -87.716 Y  26.109
G1 X -89.305 Y  27.142
G1 X -90.858 Y  28.131
G1 X -92.372 Y  29.077
G1 X -93.846 Y  29.980
G1 X -95.278 Y  30.841
G1 X -96.667 Y  31.659
G1 X -98.011 Y  32.435
G1 X -99.307 Y  33.168
G1 X-100.556 Y  33.861
G1 X-101.755 Y  34.512
G1 X-102.903 Y  35.122
G1 X-103.999 Y  35.693
G1 X-105.040 Y  36.223
G1 X-106.027 Y  36.715
G1 X-106.957 Y  37.169
G1 X-107.829 Y  37.585
G1 X-108.643 Y  37.964
G1 X-109.396 Y  38.308
G1 X-110.089 Y  38.616
G1 X-110.719 Y  38.890
G1 X-111.286 Y  39.131
G1 X-111.790 Y  39.340
G1 X-112.228 Y  39.517
G1 X-112.601 Y  39.664
G1 X-112.907 Y  39.782
G1 X-113.146 Y  39.871
G1 X-113.318 Y  39.934
G1 X-113.421 Y  39.970
G1 X-113.456 Y  39.982
G1 X-113.421 Y  39.971
G1 X-113.317 Y  39.937
G1 X-113.143 Y  39.882
G1 X-112.898 Y  39.807
G1 X-112.584 Y  39.714
G1 X-112.199 Y  39.604
G1 X-111.743 Y  39.477
G1 X-111.217 Y  39.336
G1 X-110.620 Y  39.182
G1 X-109.953 Y  39.016
G1 X-109.216 Y  38.839
G1 X-108.409 Y  38.653
G1 X-107.533 Y  38.459
G1 X-106.587 Y  38.258
G1 X-105.573 Y  38.051
G1 X-104.491 Y  37.841
G1 X-103.342 Y  37.628
G1 X-102.125 Y  37.414
G1 X-100.843 Y  37.199
G1 X -99.495 Y  36.986
G1 X -98.083 Y  36.775
G1 X -96.608 Y  36.567
G1 X -95.070 Y  36.365
G1 X -93.470 Y  36.169
G1 X -91.810 Y  35.980
G1 X -90.091 Y  35.799
G1 X -88.313 Y  35.628
G1 X -86.479 Y  35.467
G1 X -84.589 Y  35.319
G1 X -82.646 Y  35.183
G1 X -80.649 Y  35.061
G1 X -78.601 Y  34.953
G1 X -76.504 Y  34.862
G1 X -74.358 Y  34.787
G1 X -72.166 Y  34.730
G1 X -69.929 Y  34.691
G1 X -67.649 Y  34.671
G1 X -65.327 Y  34.671
G1 X -62.965 Y  34.691
G1 X -60.566 Y  34.733
G1 X -58.130 Y  34.797
G1 X -55.660 Y  34.883
G1 X -53.158 Y  34.993
G1 X -50.626 Y  35.125
G1 X -48.065 Y  35.282
G1 X -45.478 Y  35.463
G1 X -42.866 Y  35.669
G1 X -40.232 Y  35.899
G1 X -37.577 Y  36.155
G1 X -34.904 Y  36.436
G1 X -32.215 Y  36.742
G1 X -29.512 Y  37.074
G1 X -26.797 Y  37.431
G1 X -24.071 Y  37.814
G1 X -21.338 Y  38.223
G1 X -18.599 Y  38.657
G1 X -15.857 Y  39.116
G1 X -13.112 Y  39.600
G1 X -10.369 Y  40.108
G1 X  -7.628 Y  40.641
G1 X  -4.892 Y  41.198
G1 X  -2.162 Y  41.778
G1 X   0.558 Y  42.381
G1 X   3.267 Y  43.006
G1 X   5.964 Y  43.654
G1 X   8.645 Y  44.322
G1 X  11.310 Y  45.011
G1 X  13.955 Y  45.720
G1 X  16.580 Y  46.448
G1 X  19.181 Y  47.194
G1 X  21.758 Y  47.957
G1 X  24.309 Y  48.737
G1 X  26.831 Y  49.532
G1 X  29.322 Y  50.342
G1 X  31.782 Y  51.165
G1 X  34.208 Y  52.000
G1 X  36.598 Y  52.846
G1 X  38.952 Y  53.703
G1 X  41.266 Y  54.568
G1 X  43.541 Y  55.441
G1 X  45.774 Y  56.321
G1 X  47.963 Y  57.206
G1 X  50.109 Y  58.094
G1 X  52.208 Y  58.985
G1 X  54.260 Y  59.877
G1 X  56.263 Y  60.769
G1 X  58.217 Y  61.659
G1 X  60.119 Y  62.547
G1 X  61.970 Y  63.429
G1 X  63.768 Y  64.306
G1 X  65.512 Y  65.176
G1 X  67.201 Y  66.036
G1 X  68.834 Y  66.886
G1 X  70.411 Y  67.725
G1 X  71.930 Y  68.549
G1 X  73.391 Y  69.359
G1 X  74.794 Y  70.153
G1 X  76.137 Y  70.929
G1 X  77.421 Y  71.685
G1 X  78.645 Y  72.420
G1 X  79.809 Y  73.133
G1 X  80.911 Y  73.822
G1 X  81.953 Y  74.486
G1 X  82.933 Y  75.122
G1 X  83.853 Y  75.731
G1 X  84.711 Y  76.309
G1 X  85.507 Y  76.857
G1 X  86.242 Y  77.371
G1 X  86.917 Y  77.852
G1 X  87.530 Y  78.298
G1 X  88.082 Y  78.707
G1 X  88.575 Y  79.077
G1 X  89.007 Y  79.409
G1 X  89.380 Y  79.700
G1 X  89.693 Y  79.949
G1 X  89.948 Y  80.156
G1 X  90.146 Y  80.318
G1 X  90.285 Y  80.436
G1 X  90.369 Y  80.507
G1 X  90.396 Y  80.531
G1 X  90.369 Y  80.507
G1 X  90.288 Y  80.433
G1 X  90.153 Y  80.310
G1 X  89.966 Y  80.136
G1 X  89.728 Y  79.910
G1 X  89.440 Y  79.631
G1 X  89.103 Y  79.300
G1 X  88.718 Y  78.914
G1 X  88.286 Y  78.475
G1 X  87.808 Y  77.980
G1 X  87.286 Y  77.431
G1 X  86.722 Y  76.825
G1 X  86.115 Y  76.163
G1 X  85.469 Y  75.445
G1 X  84.783 Y  74.670
G1 X  84.060 Y  73.838
G1 X  83.301 Y  72.949
G1 X  82.507 Y  72.003
G1 X  81.680 Y  70.999
G1 X  80.821 Y  69.939
G1 X  79.932 Y  68.822
G1 X  79.015 Y  67.647
G1 X  78.071 Y  66.416
G1 X  77.101 Y  65.129
G1 X  76.107 Y  63.786
G1 X  75.091 Y  62.388
G1 X  74.054 Y  60.934
G1 X  72.998 Y  59.426
G1 X  71.924 Y  57.864
G1 X  70.835 Y  56.248
G1 X  69.731 Y  54.580
G1 X  68.614 Y  52.860
G1 X  67.486 Y  51.090
G1 X  66.348 Y  49.269
G1 X  65.203 Y  47.399
G1 X  64.050 Y  45.481
G1 X  62.893 Y  43.516
G1 X  61.732 Y  41.506
G1 X  60.569 Y  39.450
G1 X  59.406 Y  37.351
G1 X  58.243 Y  35.210
G1 X  57.083 Y  33.028
G1 X  55.927 Y  30.806
G1 X  54.775 Y  28.547
G1 X  53.631 Y  26.251
G1 X  52.494 Y  23.920
G1 X  51.366 Y  21.555
G1 X  50.248 Y  19.158
G1 X  49.142 Y  16.732
G1 X  48.049 Y  14.277
G1 X  46.970 Y  11.794
G1 X  45.906 Y   9.287
G1 X  44.858 Y   6.757
G1 X  43.827 Y   4.205
G1 X  42.814 Y   1.634
G1 X  41.820 Y  -0.955
G1 X  40.846 Y  -3.559
G1 X  39.893 Y  -6.178
G1 X  38.962 Y  -8.808
G1 X  38.053 Y -11.448
G1 X  37.167 Y -14.096
G1 X  36.305 Y -16.750
G1 X  35.467 Y -19.407
G1 X  34.654 Y -22.066
G1 X  33.866 Y -24.725
G1 X  33.104 Y -27.382
G1 X  32.369 Y -30.034
G1 X  31.660 Y -32.679
G1 X  30.978 Y -35.316
G1 X  30.323 Y -37.942
G1 X  29.696 Y -40.556
G1 X  29.096 Y -43.154
G1 X  28.524 Y -45.736
G1 X  27.979 Y -48.298
G1 X  27.462 Y -50.840
G1 X  26.972 Y -53.358
G1 X  26.510 Y -55.852
G1 X  26.075 Y -58.318
G1 X  25.667 Y -60.756
G1 X  25.286 Y -63.162
G1 X  24.931 Y -65.535
G1 X  24.603 Y -67.874
G1 X  24.300 Y -70.176
G1 X  24.022 Y -72.439
G1 X  23.768 Y -74.663
G1 X  23.539 Y -76.843
G1 X  23.333 Y -78.981
G1 X  23.150 Y -81.072
G1 X  22.989 Y -83.116
G1 X  22.850 Y -85.112
G1 X  22.731 Y -87.056
G1 X  22.632 Y -88.949
G1 X  22.551 Y -90.789
G1 X  22.489 Y -92.573
G1 X  22.444 Y -94.302
G1 X  22.414 Y -95.972
G1 X  22.400 Y -97.584
G1 X  22.400 Y -99.135
G1 X  22.413 Y-100.625
G1 X  22.438 Y-102.053
G1 X  22.474 Y-103.417
G1 X  22.519 Y-104.716
G1 X  22.573 Y-105.950
G1 X  22.634 Y-107.117
G1 X  22.701 Y-108.218
G1 X  22.773 Y-109.250
G1 X  22.849 Y-110.213
G1 X  22.927 Y-111.108
G1 X  23.007 Y-111.932
G1 X  23.086 Y-112.686
G1 X  23.164 Y-113.369
G1 X  23.239 Y-113.980
G1 X  23.310 Y-114.520
G1 X  23.375 Y-114.989
G1 X  23.435 Y-115.385
G1 X  23.486 Y-115.709
G1 X  23.528 Y-115.961
G1 X  23.560 Y-116.141
G1 X  23.580 Y-116.249
G1 X  23.587 Y-116.285
G1 X  23.579 Y-116.249
G1 X  23.556 Y-116.142
G1 X  23.517 Y-115.963
G1 X  23.459 Y-115.715
G1 X  23.383 Y-115.395
G1 X  23.286 Y-115.007
G1 X  23.167 Y-114.549
G1 X  23.026 Y-114.023
G1 X  22.861 Y-113.429
G1 X  22.672 Y-112.768
G1 X  22.456 Y-112.041
G1 X  22.214 Y-111.249
G1 X  21.944 Y-110.393
G1 X  21.646 Y-109.474
G1 X  21.317 Y-108.493
G1 X  20.958 Y-107.451
G1 X  20.568 Y-106.349
G1 X  20.146 Y-105.188
G1 X  19.690 Y-103.970
G1 X  19.201 Y-102.696
G1 X  18.678 Y-101.368
G1 X  18.120 Y -99.986
G1 X  17.526 Y -98.553
G1 X  16.896 Y -97.070
G1 X  16.230 Y -95.537
G1 X  15.527 Y -93.958
G1 X  14.786 Y -92.333
G1 X  14.008 Y -90.665
G1 X  13.192 Y -88.954
G1 X  12.338 Y -87.203
G1 X  11.445 Y -85.412
G1 X  10.514 Y -83.585
G1 X   9.545 Y -81.723
G1 X   8.537 Y -79.828
G1 X   7.490 Y -77.900
G1 X   6.406 Y -75.944
G1 X   5.283 Y -73.959
G1 X   4.122 Y -71.948
G1 X   2.923 Y -69.913
G1 X   1.687 Y -67.856
G1 X   0.414 Y -65.779
G1 X  -0.896 Y -63.683
G1 X  -2.241 Y -61.571
G1 X  -3.622 Y -59.444
G1 X  -5.039 Y -57.305
G1 X  -6.489 Y -55.154
G1 X  -7.973 Y -52.995
G1 X  -9.489 Y -50.829
G1 X -11.038 Y -48.658
G1 X -12.618 Y -46.484
G1 X -14.228 Y -44.308
G1 X -15.867 Y -42.133
G1 X -17.534 Y -39.960
G1 X -19.229 Y -37.792
G1 X -20.949 Y -35.629
G1 X -22.694 Y -33.474
G1 X -24.463 Y -31.328
G1 X -26.254 Y -29.193
G1 X -28.066 Y -27.072
G1 X -29.898 Y -24.964
F150
G1 Z  -3.000
F400
G1 X -31.748 Y -22.873
G1 X -33.615 Y -20.800
G1 X -35.498 Y -18.745
G1 X -37.394 Y -16.711
G1 X -39.303 Y -14.700
G1 X -41.223 Y -12.712
G1 X -43.152 Y -10.749
G1 X -45.088 Y  -8.812
G1 X -47.031 Y  -6.903
G1 X -48.978 Y  -5.023
G1 X -50.927 Y  -3.173
G1 X -52.878 Y  -1.355
G1 X -54.827 Y   0.432
G1 X -56.774 Y   2.185
G1 X -58.717 Y   3.904
G1 X -60.653 Y   5.587
G1 X -62.581 Y   7.234
G1 X -64.500 Y   8.844
G1 X -66.407 Y  10.416
G1 X -68.300 Y  11.949
G1 X -70.178 Y  13.443
G1 X -72.039 Y  14.897
G1 X -73.881 Y  16.310
G1 X -75.702 Y  17.683
G1 X -77.501 Y  19.014
G1 X -79.275 Y  20.303
G1 X -81.023 Y  21.549
G1 X -82.743 Y  22.754
G1 X -84.433 Y  23.915
G1 X -86.091 Y  25.034
G1 X -87.716 Y  26.109
G1 X -89.305 Y  27.142
G1 X -90.858 Y  28.131
G1 X -92.372 Y  29.077
G1 X -93.846 Y  29.980
G1 X -95.278 Y  30.841
G1 X -96.667 Y  31.659
G1 X -98.011 Y  32.435
G1 X -99.307 Y  33.168
G1 X-100.556 Y  33.861
G1 X-101.755 Y  34.512
G1 X-102.903 Y  35.122
G1 X-103.999 Y  35.693
G1 X-105.040 Y  36.223
G1 X-106.027 Y  36.715
G1 X-106.957 Y  37.169
G1 X-107.829 Y  37.585
G1 X-108.643 Y  37.964
G1 X-109.396 Y  38.308
G1 X-110.089 Y  38.616
G1 X-110.719 Y  38.890
G1 X-111.286 Y  39.131
G1 X-111.790 Y  39.340
G1 X-112.228 Y  39.517
G1 X-112.601 Y  39.664
G1 X-112.907 Y  39.782
G1 X-113.146 Y  39.871
G1 X-113.318 Y  39.934
G1 X-113.421 Y  39.970
G1 X-113.456 Y  39.982
G1 X-113.421 Y  39.971
G1 X-113.317 Y  39.937
G1 X-113.143 Y  39.882
G1 X-112.898 Y  39.807
G1 X-112.584 Y  39.714
G1 X-112.199 Y  39.604
G1 X-111.743 Y  39.477
G1 X-111.217 Y  39.336
G1 X-110.620 Y  39.182
G1 X-109.953 Y  39.016
G1 X-109.216 Y  38.839
G1 X-108.409 Y  38.653
G1 X-107.533 Y  38.459
G1 X-106.587 Y  38.258
G1 X-105.573 Y  38.051
G1 X-104.491 Y  37.841
G1 X-103.342 Y  37.628
G1 X-102.125 Y  37.414
G1 X-100.843 Y  37.199
G1 X -99.495 Y  36.986
G1 X -98.083 Y  36.775
G1 X -96.608 Y  36.567
G1 X -95.070 Y  36.365
G1 X -93.470 Y  36.169
G1 X -91.810 Y  35.980
G1 X -90.091 Y  35.799
G1 X -88.313 Y  35.628
G1 X -86.479 Y  35.467
G1 X -84.589 Y  35.319
G1 X -82.646 Y  35.183
G1 X -80.649 Y  35.061
G1 X -78.601 Y  34.953
G1 X -76.504 Y  34.862
G1 X -74.358 Y  34.787
G1 X -72.166 Y  34.730
G1 X -69.929 Y  34.691
G1 X -67.649 Y  34.671
G1 X -65.327 Y  34.671
G1 X -62.965 Y  34.691
G1 X -60.566 Y  34.733
G1 X -58.130 Y  34.797
G1 X -55.660 Y  34.883
G1 X -53.158 Y  34.993
G1 X -50.626 Y  35.125
G1 X -48.065 Y  35.282
G1 X -45.478 Y  35.463
G1 X -42.866 Y  35.669
G1 X -40.232 Y  35.899
G1 X -37.577 Y  36.155
G1 X -34.904 Y  36.436
G1 X -32.215 Y  36.742
G1 X -29.512 Y  37.074
G1 X -26.797 Y  37.431
G1 X -24.071 Y  37.814
G1 X -21.338 Y  38.223
G1 X -18.599 Y  38.657
G1 X -15.857 Y  39.116
G1 X -13.112 Y  39.600
G1 X -10.369 Y  40.108
G1 X  -7.628 Y  40.641
G1 X  -4.892 Y  41.198
G1 X  -2.162 Y  41.778
G1 X   0.558 Y  42.381
G1 X   3.267 Y  43.006
G1 X   5.964 Y  43.654
G1 X   8.645 Y  44.322
G1 X  11.310 Y  45.011
G1 X  13.955 Y  45.720
G1 X  16.580 Y  46.448
G1 X  19.181 Y  47.194
G1 X  21.758 Y  47.957
G1 X  24.309 Y  48.737
G1 X  26.831 Y  49.532
G1 X  29.322 Y  50.342
G1 X  31.782 Y  51.165
G1 X  34.208 Y  52.000
G1 X  36.598 Y  52.846
G1 X  38.952 Y  53.703
G1 X  41.266 Y  54.568
G1 X  43.541 Y  55.441
G1 X  45.774 Y  56.321
G1 X  47.963 Y  57.206
G1 X  50.109 Y  58.094
G1 X  52.208 Y  58.985
G1 X  54.260 Y  59.877
G1 X  56.263 Y  60.769
G1 X  58.217 Y  61.659
G1 X  60.119 Y  62.547
G1 X  61.970 Y  63.429
G1 X  63.768 Y  64.306
G1 X  65.512 Y  65.176
G1 X  67.201 Y  66.036
G1 X  68.834 Y  66.886
G1 X  70.411 Y  67.725
G1 X  71.930 Y  68.549
G1 X  73.391 Y  69.359
G1 X  74.794 Y  70.153
G1 X  76.137 Y  70.929
G1 X  77.421 Y  71.685
G1 X  78.645 Y  72.420
G1 X  79.809 Y  73.133
G1 X  80.911 Y  73.822
G1 X  81.953 Y  74.486
G1 X  82.933 Y  75.122
G1 X  83.853 Y  75.731
G1 X  84.711 Y  76.309
G1 X  85.507 Y  76.857
G1 X  86.242 Y  77.371
G1 X  86.917 Y  77.852
G1 X  87.530 Y  78.298
G1 X  88.082 Y  78.707
G1 X  88.575 Y  79.077
G1 X  89.007 Y  79.409
G1 X  89.380 Y  79.700
G1 X  89.693 Y  79.949
G1 X  89.948 Y  80.156
G1 X  90.146 Y  80.318
G1 X  90.285 Y  80.436
G1 X  90.369 Y  80.507
G1 X  90.396 Y  80.531
G1 X  90.369 Y  80.507
G1 X  90.288 Y  80.433
G1 X  90.153 Y  80.310
G1 X  89.966 Y  80.136
G1 X  89.728 Y  79.910
G1 X  89.440 Y  79.631
G1 X  89.103 Y  79.300
G1 X  88.718 Y  78.914
G1 X  88.286 Y  78.475
G1 X  87.808 Y  77.980
G1 X  87.286 Y  77.431
G1 X  86.722 Y  76.825
G1 X  86.115 Y  76.163
G1 X  85.469 Y  75.445
G1 X  84.783 Y  74.670
G1 X  84.060 Y  73.838
G1 X  83.301 Y  72.949
G1 X  82.507 Y  72.003
G1 X  81.680 Y  70.999
G1 X  80.821 Y  69.939
G1 X  79.932 Y  68.822
G1 X  79.015 Y  67.647
G1 X  78.071 Y  66.416
G1 X  77.101 Y  65.129
G1 X  76.107 Y  63.786
G1 X  75.091 Y  62.388
G1 X  74.054 Y  60.934
G1 X  72.998 Y  59.426
G1 X  71.924 Y  57.864
G1 X  70.835 Y  56.248
G1 X  69.731 Y  54.580
G1 X  68.614 Y  52.860
G1 X  67.486 Y  51.090
G1 X  66.348 Y  49.269
G1 X  65.203 Y  47.399
G1 X  64.050 Y  45.481
G1 X  62.893 Y  43.516
G1 X  61.732 Y  41.506
G1 X  60.569 Y  39.450
G1 X  59.406 Y  37.351
G1 X  58.243 Y  35.210
G1 X  57.083 Y  33.028
G1 X  55.927 Y  30.806
G1 X  54.775 Y  28.547
G1 X  53.631 Y  26.251
G1 X  52.494 Y  23.920
G1 X  51.366 Y  21.555
G1 X  50.248 Y  19.158
G1 X  49.142 Y  16.732
G1 X  48.049 Y  14.277
G1 X  46.970 Y  11.794
G1 X  45.906 Y   9.287
G1 X  44.858 Y   6.757
G1 X  43.827 Y   4.205
G1 X  42.814 Y   1.634
G1 X  41.820 Y  -0.955
G1 X  40.846 Y  -3.559
G1 X  39.893 Y  -6.178
G1 X  38.962 Y  -8.808
G1 X  38.053 Y -11.448
G1 X  37.167 Y -14.096
G1 X  36.305 Y -16.750
G1 X  35.467 Y -19.407
G1 X  34.654 Y -22.066
G1 X  33.866 Y -24.725
G1 X  33.104 Y -27.382
G1 X  32.369 Y -30.034
G1 X  31.660 Y -32.679
G1 X  30.978 Y -35.316
G1 X  30.323 Y -37.942
G1 X  29.696 Y -40.556
G1 X  29.096 Y -43.154
G1 X  28.524 Y -45.736
G1 X  27.979 Y -48.298
G1 X  27.462 Y -50.840
G1 X  26.972 Y -53.358
G1 X  26.510 Y -55.852
G1 X  26.075 Y -58.318
G1 X  25.667 Y -60.756
G1 X  25.286 Y -63.162
G1 X  24.931 Y -65.535
G1 X  24.603 Y -67.874
G1 X  24.300 Y -70.176
G1 X  24.022 Y -72.439
G1 X  23.768 Y -74.663
G1 X  23.539 Y -76.843
G1 X  23.333 Y -78.981
G1 X  23.150 Y -81.072
G1 X  22.989 Y -83.116
G1 X  22.850 Y -85.112
G1 X  22.731 Y -87.056
G1 X  22.632 Y -88.949
G1 X  22.551 Y -90.789
G1 X  22.489 Y -92.573
G1 X  22.444 Y -94.302
G1 X  22.414 Y -95.972
G1 X  22.400 Y -97.584
G1 X  22.400 Y -99.135
G1 X  22.413 Y-100.625
G1 X  22.438 Y-102.053
G1 X  22.474 Y-103.417
G1 X  22.519 Y-104.716
G1 X  22.573 Y-105.950
G1 X  22.634 Y-107.117
G1 X  22.701 Y-108.218
G1 X  22.773 Y-109.250
G1 X  22.849 Y-110.213
G1 X  22.927 Y-111.108
G1 X  23.007 Y-111.932
G1 X  23.086 Y-112.686
G1 X  23.164 Y-113.369
G1 X  23.239 Y-113.980
G1 X  23.310 Y-114.520
G1 X  23.375 Y-114.989
G1 X  23.435 Y-115.385
G1 X  23.486 Y-115.709
G1 X  23.528 Y-115.961
G1 X  23.560 Y-116.141
G1 X  23.580 Y-116.249
G1 X  23.587 Y-116.285
G1 X  23.579 Y-116.249
G1 X  23.556 Y-116.142
G1 X  23.517 Y-115.963
G1 X  23.459 Y-115.715
G1 X  23.383 Y-115.395
G1 X  23.286 Y-115.007
G1 X  23.167 Y-114.549
G1 X  23.026 Y-114.023
G1 X  22.861 Y-113.429
G1 X  22.672 Y-112.768
G1 X  22.456 Y-112.041
G1 X  22.214 Y-111.249
G1 X  21.944 Y-110.393
G1 X  21.646 Y-109.474
G1 X  21.317 Y-108.493
G1 X  20.958 Y-107.451
G1 X  20.568 Y-106.349
G1 X  20.146 Y-105.188
G1 X  19.690 Y-103.970
G1 X  19.201 Y-102.696
G1 X  18.678 Y-101.368
G1 X  18.120 Y -99.986
G1 X  17.526 Y -98.553
G1 X  16.896 Y -97.070
G1 X  16.230 Y -95.537
G1 X  15.527 Y -93.958
G1 X  14.786 Y -92.333
G1 X  14.008 Y -90.665
G1 X  13.192 Y -88.954
G1 X  12.338 Y -87.203
G1 X  11.445 Y -85.412
G1 X  10.514 Y -83.585
G1 X   9.545 Y -81.723
G1 X   8.537 Y -79.828
G1 X   7.490 Y -77.900
G1 X   6.406 Y -75.944
G1 X   5.283 Y -73.959
G1 X   4.122 Y -71.948
G1 X   2.923 Y -69.913
G1 X   1.687 Y -67.856
G1 X   0.414 Y -65.779
G1 X  -0.896 Y -63.683
G1 X  -2.241 Y -61.571
G1 X  -3.622 Y -59.444
G1 X  -5.039 Y -57.305
G1 X  -6.489 Y -55.154
G1 X  -7.973 Y -52.995
G1 X  -9.489 Y -50.829
G1 X -11.038 Y -48.658
G1 X -12.618 Y -46.484
G1 X -14.228 Y -44.308
G1 X -15.867 Y -42.133
G1 X -17.534 Y -39.960
G1 X -19.229 Y -37.792
G1 X -20.949 Y -35.629
G1 X -22.694 Y -33.474
G1 X -24.463 Y -31.328
G1 X -26.254 Y -29.193
G1 X -28.066 Y -27.072
G1 X -29.898 Y -24.964
F150
G1 Z   3.000
G0 Z  15.000 
M9 M5

(* SHAPE Nr: 3 *)
G0 X -24.175 Y -30.325
M3 M8
G0 Z   3.000 
G1 Z  -1.500
F400
G1 X -26.397 Y -28.635
G1 X -28.633 Y -26.965
G1 X -30.880 Y -25.317
G1 X -33.137 Y -23.693
G1 X -35.402 Y -22.092
G1 X -37.672 Y -20.517
G1 X -39.947 Y -18.968
G1 X -42.224 Y -17.447
G1 X -44.502 Y -15.953
G1 X -46.778 Y -14.489
G1 X -49.051 Y -13.055
G1 X -51.319 Y -11.652
G1 X -53.580 Y -10.280
G1 X -55.831 Y  -8.940
G1 X -58.072 Y  -7.634
G1 X -60.299 Y  -6.361
G1 X -62.512 Y  -5.121
G1 X -64.707 Y  -3.917
G1 X -66.884 Y  -2.747
G1 X -69.040 Y  -1.613
G1 X -71.174 Y  -0.514
G1 X -73.283 Y   0.549
G1 X -75.365 Y   1.576
G1 X -77.419 Y   2.567
G1 X -79.443 Y   3.521
G1 X -81.434 Y   4.440
G1 X -83.392 Y   5.321
G1 X -85.313 Y   6.167
G1 X -87.197 Y   6.976
G1 X -89.042 Y   7.750
G1 X -90.845 Y   8.488
G1 X -92.606 Y   9.190
G1 X -94.322 Y   9.858
G1 X -95.992 Y  10.490
G1 X -97.614 Y  11.089
G1 X -99.186 Y  11.653
G1 X-100.708 Y  12.185
G1 X-102.177 Y  12.683
G1 X-103.592 Y  13.150
G1 X-104.952 Y  13.585
G1 X-106.255 Y  13.990
G1 X-107.500 Y  14.365
G1 X-108.685 Y  14.710
G1 X-109.811 Y  15.028
G1 X-110.874 Y  15.318
G1 X-111.875 Y  15.581
G1 X-112.811 Y  15.819
G1 X-113.683 Y  16.033
G1 X-114.489 Y  16.222
G1 X-115.229 Y  16.390
G1 X-115.900 Y  16.536
G1 X-116.504 Y  16.661
G1 X-117.038 Y  16.768
G1 X-117.503 Y  16.856
G1 X-117.897 Y  16.927
G1 X-118.220 Y  16.983
G1 X-118.472 Y  17.024
G1 X-118.653 Y  17.052
G1 X-118.761 Y  17.068
G1 X-118.798 Y  17.073
G1 X-118.761 Y  17.068
G1 X-118.653 Y  17.055
G1 X-118.471 Y  17.035
G1 X-118.217 Y  17.010
G1 X-117.890 Y  16.980
G1 X-117.491 Y  16.947
G1 X-117.019 Y  16.912
G1 X-116.475 Y  16.876
G1 X-115.860 Y  16.841
G1 X-115.174 Y  16.808
G1 X-114.416 Y  16.779
G1 X-113.588 Y  16.753
G1 X-112.691 Y  16.734
G1 X-111.725 Y  16.721
G1 X-110.690 Y  16.717
G1 X-109.588 Y  16.722
G1 X-108.419 Y  16.737
G1 X-107.184 Y  16.764
G1 X-105.884 Y  16.804
G1 X-104.521 Y  16.857
G1 X-103.095 Y  16.926
G1 X-101.607 Y  17.010
G1 X-100.059 Y  17.112
G1 X -98.452 Y  17.231
G1 X -96.787 Y  17.370
G1 X -95.065 Y  17.528
G1 X -93.289 Y  17.707
G1 X -91.458 Y  17.907
G1 X -89.576 Y  18.130
G1 X -87.643 Y  18.376
G1 X -85.661 Y  18.646
G1 X -83.632 Y  18.940
G1 X -81.557 Y  19.260
G1 X -79.438 Y  19.605
G1 X -77.276 Y  19.976
G1 X -75.075 Y  20.374
G1 X -72.834 Y  20.800
G1 X -70.557 Y  21.253
G1 X -68.245 Y  21.734
G1 X -65.900 Y  22.243
G1 X -63.523 Y  22.781
G1 X -61.118 Y  23.347
G1 X -58.685 Y  23.942
G1 X -56.227 Y  24.567
G1 X -53.746 Y  25.220
G1 X -51.244 Y  25.902
G1 X -48.722 Y  26.613
G1 X -46.184 Y  27.353
G1 X -43.630 Y  28.122
G1 X -41.064 Y  28.919
G1 X -38.486 Y  29.744
G1 X -35.899 Y  30.597
G1 X -33.306 Y  31.477
G1 X -30.708 Y  32.385
G1 X -28.107 Y  33.318
G1 X -25.505 Y  34.278
G1 X -22.905 Y  35.263
G1 X -20.308 Y  36.273
G1 X -17.716 Y  37.307
G1 X -15.132 Y  38.365
G1 X -12.557 Y  39.444
G1 X  -9.993 Y  40.546
G1 X  -7.443 Y  41.668
G1 X  -4.907 Y  42.810
G1 X  -2.389 Y  43.971
G1 X   0.111 Y  45.150
G1 X   2.590 Y  46.346
G1 X   5.046 Y  47.557
G1 X   7.478 Y  48.783
G1 X   9.884 Y  50.022
G1 X  12.263 Y  51.273
G1 X  14.612 Y  52.536
G1 X  16.930 Y  53.807
G1 X  19.216 Y  55.088
G1 X  21.468 Y  56.375
G1 X  23.684 Y  57.667
G1 X  25.863 Y  58.964
G1 X  28.005 Y  60.263
G1 X  30.106 Y  61.563
G1 X  32.167 Y  62.863
G1 X  34.185 Y  64.162
G1 X  36.160 Y  65.456
G1 X  38.091 Y  66.746
G1 X  39.975 Y  68.030
G1 X  41.814 Y  69.305
G1 X  43.605 Y  70.571
G1 X  45.347 Y  71.825
G1 X  47.040 Y  73.066
G1 X  48.683 Y  74.293
G1 X  50.276 Y  75.504
G1 X  51.816 Y  76.697
G1 X  53.305 Y  77.870
G1 X  54.741 Y  79.023
G1 X  56.124 Y  80.152
G1 X  57.453 Y  81.258
G1 X  58.728 Y  82.337
G1 X  59.949 Y  83.389
G1 X  61.115 Y  84.412
G1 X  62.227 Y  85.404
G1 X  63.284 Y  86.364
G1 X  64.286 Y  87.291
G1 X  65.233 Y  88.181
G1 X  66.125 Y  89.035
G1 X  66.963 Y  89.851
G1 X  67.746 Y  90.627
G1 X  68.474 Y  91.362
G1 X  69.149 Y  92.054
G1 X  69.769 Y  92.703
G1 X  70.337 Y  93.306
G1 X  70.851 Y  93.862
G1 X  71.313 Y  94.371
G1 X  71.724 Y  94.831
G1 X  72.083 Y  95.240
G1 X  72.392 Y  95.599
G1 X  72.651 Y  95.904
G1 X  72.861 Y  96.157
G1 X  73.022 Y  96.355
G1 X  73.137 Y  96.497
G1 X  73.205 Y  96.583
G1 X  73.227 Y  96.612
G1 X  73.205 Y  96.583
G1 X  73.139 Y  96.495
G1 X  73.031 Y  96.348
G1 X  72.882 Y  96.140
G1 X  72.693 Y  95.872
G1 X  72.464 Y  95.543
G1 X  72.198 Y  95.152
G1 X  71.896 Y  94.699
G1 X  71.558 Y  94.183
G1 X  71.186 Y  93.605
G1 X  70.782 Y  92.964
G1 X  70.346 Y  92.260
G1 X  69.880 Y  91.493
G1 X  69.386 Y  90.662
G1 X  68.865 Y  89.768
G1 X  68.318 Y  88.811
G1 X  67.747 Y  87.791
G1 X  67.153 Y  86.708
G1 X  66.537 Y  85.563
G1 X  65.902 Y  84.355
G1 X  65.249 Y  83.086
G1 X  64.578 Y  81.755
G1 X  63.892 Y  80.364
G1 X  63.192 Y  78.912
G1 X  62.479 Y  77.401
G1 X  61.755 Y  75.831
G1 X  61.022 Y  74.203
G1 X  60.280 Y  72.518
G1 X  59.532 Y  70.776
G1 X  58.779 Y  68.979
G1 X  58.021 Y  67.128
G1 X  57.262 Y  65.223
G1 X  56.501 Y  63.267
G1 X  55.740 Y  61.259
G1 X  54.981 Y  59.202
G1 X  54.225 Y  57.096
G1 X  53.473 Y  54.943
G1 X  52.727 Y  52.744
G1 X  51.987 Y  50.501
G1 X  51.256 Y  48.216
G1 X  50.533 Y  45.889
G1 X  49.821 Y  43.522
G1 X  49.120 Y  41.118
G1 X  48.432 Y  38.677
G1 X  47.757 Y  36.202
G1 X  47.097 Y  33.694
G1 X  46.452 Y  31.155
G1 X  45.823 Y  28.586
G1 X  45.212 Y  25.990
G1 X  44.619 Y  23.369
G1 X  44.045 Y  20.724
G1 X  43.490 Y  18.058
G1 X  42.956 Y  15.371
G1 X  42.443 Y  12.668
G1 X  41.951 Y   9.948
G1 X  41.481 Y   7.215
G1 X  41.034 Y   4.471
G1 X  40.610 Y   1.716
G1 X  40.210 Y  -1.045
G1 X  39.833 Y  -3.812
G1 X  39.481 Y  -6.581
G1 X  39.153 Y  -9.352
G1 X  38.850 Y -12.122
G1 X  38.571 Y -14.889
G1 X  38.317 Y -17.651
G1 X  38.089 Y -20.405
G1 X  37.885 Y -23.149
G1 X  37.705 Y -25.882
G1 X  37.551 Y -28.601
G1 X  37.421 Y -31.305
G1 X  37.316 Y -33.990
G1 X  37.234 Y -36.656
G1 X  37.177 Y -39.299
G1 X  37.142 Y -41.919
G1 X  37.131 Y -44.513
G1 X  37.142 Y -47.078
G1 X  37.175 Y -49.614
G1 X  37.230 Y -52.118
G1 X  37.305 Y -54.588
G1 X  37.401 Y -57.022
G1 X  37.516 Y -59.420
G1 X  37.650 Y -61.777
G1 X  37.802 Y -64.094
G1 X  37.971 Y -66.368
G1 X  38.156 Y -68.598
G1 X  38.357 Y -70.782
G1 X  38.572 Y -72.918
G1 X  38.800 Y -75.005
G1 X  39.041 Y -77.041
G1 X  39.293 Y -79.026
G1 X  39.556 Y -80.956
G1 X  39.828 Y -82.832
G1 X  40.108 Y -84.652
G1 X  40.395 Y -86.414
G1 X  40.688 Y -88.118
G1 X  40.985 Y -89.762
G1 X  41.286 Y -91.346
G1 X  41.588 Y -92.867
G1 X  41.892 Y -94.326
G1 X  42.195 Y -95.721
G1 X  42.496 Y -97.052
G1 X  42.794 Y -98.318
G1 X  43.087 Y -99.518
G1 X  43.375 Y-100.651
G1 X  43.656 Y-101.717
G1 X  43.928 Y-102.715
G1 X  44.190 Y-103.645
G1 X  44.441 Y-104.507
G1 X  44.680 Y-105.300
G1 X  44.904 Y-106.024
G1 X  45.114 Y-106.678
G1 X  45.307 Y-107.264
G1 X  45.482 Y-107.780
G1 X  45.638 Y-108.226
G1 X  45.773 Y-108.603
G1 X  45.887 Y-108.911
G1 X  45.977 Y-109.150
G1 X  46.043 Y-109.320
G1 X  46.084 Y-109.422
G1 X  46.098 Y-109.456
G1 X  46.084 Y-109.422
G1 X  46.040 Y-109.322
G1 X  45.967 Y-109.155
G1 X  45.862 Y-108.922
G1 X  45.724 Y-108.624
G1 X  45.553 Y-108.261
G1 X  45.348 Y-107.835
G1 X  45.107 Y-107.347
G1 X  44.829 Y-106.796
G1 X  44.514 Y-106.185
G1 X  44.161 Y-105.515
G1 X  43.770 Y-104.785
G1 X  43.338 Y-103.998
G1 X  42.865 Y-103.155
G1 X  42.352 Y-102.257
G1 X  41.797 Y-101.304
G1 X  41.199 Y-100.300
G1 X  40.558 Y -99.244
G1 X  39.874 Y -98.138
G1 X  39.146 Y -96.984
G1 X  38.373 Y -95.784
G1 X  37.556 Y -94.537
G1 X  36.694 Y -93.248
G1 X  35.787 Y -91.915
G1 X  34.835 Y -90.543
G1 X  33.837 Y -89.131
G1 X  32.794 Y -87.682
G1 X  31.705 Y -86.197
G1 X  30.571 Y -84.678
G1 X  29.391 Y -83.127
G1 X  28.167 Y -81.546
G1 X  26.897 Y -79.935
G1 X  25.583 Y -78.298
G1 X  24.225 Y -76.635
G1 X  22.822 Y -74.949
G1 X  21.377 Y -73.242
G1 X  19.888 Y -71.514
G1 X  18.357 Y -69.769
G1 X  16.785 Y -68.007
G1 X  15.171 Y -66.230
G1 X  13.517 Y -64.441
G1 X  11.824 Y -62.641
G1 X  10.092 Y -60.832
G1 X   8.322 Y -59.016
G1 X   6.516 Y -57.194
G1 X   4.674 Y -55.368
G1 X   2.798 Y -53.540
G1 X   0.887 Y -51.711
G1 X  -1.055 Y -49.884
G1 X  -3.029 Y -48.059
G1 X  -5.032 Y -46.240
G1 X  -7.064 Y -44.426
G1 X  -9.123 Y -42.620
G1 X -11.208 Y -40.824
G1 X -13.317 Y -39.038
G1 X -15.449 Y -37.265
G1 X -17.603 Y -35.506
G1 X -19.776 Y -33.762
G1 X -21.967 Y -32.034
G1 X -24.175 Y -30.325
F150
G1 Z  -3.000
F400
G1 X -26.397 Y -28.635
G1 X -28.633 Y -26.965
G1 X -30.880 Y -25.317
G1 X -33.137 Y -23.693
G1 X -35.402 Y -22.092
G1 X -37.672 Y -20.517
G1 X -39.947 Y -18.968
G1 X -42.224 Y -17.447
G1 X -44.502 Y -15.953
G1 X -46.778 Y -14.489
G1 X -49.051 Y -13.055
G1 X -51.319 Y -11.652
G1 X -53.580 Y -10.280
G1 X -55.831 Y  -8.940
G1 X -58.072 Y  -7.634
G1 X -60.299 Y  -6.361
G1 X -62.512 Y  -5.121
G1 X -64.707 Y  -3.917
G1 X -66.884 Y  -2.747
G1 X -69.040 Y  -1.613
G1 X -71.174 Y  -0.514
G1 X -73.283 Y   0.549
G1 X -75.365 Y   1.576
G1 X -77.419 Y   2.567
G1 X -79.443 Y   3.521
G1 X -81.434 Y   4.440
G1 X -83.392 Y   5.321
G1 X -85.313 Y   6.167
G1 X -87.197 Y   6.976
G1 X -89.042 Y   7.750
G1 X -90.845 Y   8.488
G1 X -92.606 Y   9.190
G1 X -94.322 Y   9.858
G1 X -95.992 Y  10.490
G1 X -97.614 Y  11.089
G1 X -99.186 Y  11.653
G1 X-100.708 Y  12.185
G1 X-102.177 Y  12.683
G1 X-103.592 Y  13.150
G1 X-104.952 Y  13.585
G1 X-106.255 Y  13.990
G1 X-107.500 Y  14.365
G1 X-108.685 Y  14.710
G1 X-109.811 Y  15.028
G1 X-110.874 Y  15.318
G1 X-111.875 Y  15.581
G1 X-112.811 Y  15.819
G1 X-113.683 Y  16.033
G1 X-114.489 Y  16.222
G1 X-115.229 Y  16.390
G1 X-115.900 Y  16.536
G1 X-116.504 Y  16.661
G1 X-117.038 Y  16.768
G1 X-117.503 Y  16.856
G1 X-117.897 Y  16.927
G1 X-118.220 Y  16.983
G1 X-118.472 Y  17.024
G1 X-118.653 Y  17.052
G1 X-118.761 Y  17.068
G1 X-118.798 Y  17.073
G1 X-118.761 Y  17.068
G1 X-118.653 Y  17.055
G1 X-118.471 Y  17.035
G1 X-118.217 Y  17.010
G1 X-117.890 Y  16.980
G1 X-117.491 Y  16.947
G1 X-117.019 Y  16.912
G1 X-116.475 Y  16.876
G1 X-115.860 Y  16.841
G1 X-115.174 Y  16.808
G1 X-114.416 Y  16.779
G1 X-113.588 Y  16.753
G1 X-112.691 Y  16.734
G1 X-111.725 Y  16.721
G1 X-110.690 Y  16.717
G1 X-109.588 Y  16.722
G1 X-108.419 Y  16.737
G1 X-107.184 Y  16.764
G1 X-105.884 Y  16.804
G1 X-104.521 Y  16.857
G1 X-103.095 Y  16.926
G1 X-101.607 Y  17.010
G1 X-100.059 Y  17.112
G1 X -98.452 Y  17.231
G1 X -96.787 Y  17.370
G1 X -95.065 Y  17.528
G1 X -93.289 Y  17.707
G1 X -91.458 Y  17.907
G1 X -89.576 Y  18.130
G1 X -87.643 Y  18.376
G1 X -85.661 Y  18.646
G1 X -83.632 Y  18.940
G1 X -81.557 Y  19.260
G1 X -79.438 Y  19.605
G1 X -77.276 Y  19.976
G1 X -75.075 Y  20.374
G1 X -72.834 Y  20.800
G1 X -70.557 Y  21.253
G1 X -68.245 Y  21.734
G1 X -65.900 Y  22.243
G1 X -63.523 Y  22.781
G1 X -61.118 Y  23.347
G1 X -58.685 Y  23.942
G1 X -56.227 Y  24.567
G1 X -53.746 Y  25.220
G1 X -51.244 Y  25.902
G1 X -48.722 Y  26.613
G1 X -46.184 Y  27.353
G1 X -43.630 Y  28.122
G1 X -41.064 Y  28.919
G1 X -38.486 Y  29.744
G1 X -35.899 Y  30.597
G1 X -33.306 Y  31.477
G1 X -30.708 Y  32.385
G1 X -28.107 Y  33.318
G1 X -25.505 Y  34.278
G1 X -22.905 Y  35.263
G1 X -20.308 Y  36.273
G1 X -17.716 Y  37.307
G1 X -15.132 Y  38.365
G1 X -12.557 Y  39.444
G1 X  -9.993 Y  40.546
G1 X  -7.443 Y  41.668
G1 X  -4.907 Y  42.810
G1 X  -2.389 Y  43.971
G1 X   0.111 Y  45.150
G1 X   2.590 Y  46.346
G1 X   5.046 Y  47.557
G1 X   7.478 Y  48.783
G1 X   9.884 Y  50.022
G1 X  12.263 Y  51.273
G1 X  14.612 Y  52.536
G1 X  16.930 Y  53.807
G1 X  19.216 Y  55.088
G1 X  21.468 Y  56.375
G1 X  23.684 Y  57.667
G1 X  25.863 Y  58.964
G1 X  28.005 Y  60.263
G1 X  30.106 Y  61.563
G1 X  32.167 Y  62.863
G1 X  34.185 Y  64.162
G1 X  36.160 Y  65.456
G1 X  38.091 Y  66.746
G1 X  39.975 Y  68.030
G1 X  41.814 Y  69.305
G1 X  43.605 Y  70.571
G1 X  45.347 Y  71.825
G1 X  47.040 Y  73.066
G1 X  48.683 Y  74.293
G1 X  50.276 Y  75.504
G1 X  51.816 Y  76.697
G1 X  53.305 Y  77.870
G1 X  54.741 Y  79.023
G1 X  56.124 Y  80.152
G1 X  57.453 Y  81.258
G1 X  58.728 Y  82.337
G1 X  59.949 Y  83.389
G1 X  61.115 Y  84.412
G1 X  62.227 Y  85.404
G1 X  63.284 Y  86.364
G1 X  64.286 Y  87.291
G1 X  65.233 Y  88.181
G1 X  66.125 Y  89.035
G1 X  66.963 Y  89.851
G1 X  67.746 Y  90.627
G1 X  68.474 Y  91.362
G1 X  69.149 Y  92.054
G1 X  69.769 Y  92.703
G1 X  70.337 Y  93.306
G1 X  70.851 Y  93.862
G1 X  71.313 Y  94.371
G1 X  71.724 Y  94.831
G1 X  72.083 Y  95.240
G1 X  72.392 Y  95.599
G1 X  72.651 Y  95.904
G1 X  72.861 Y  96.157
G1 X  73.022 Y  96.355
G1 X  73.137 Y  96.497
G1 X  73.205 Y  96.583
G1 X  73.227 Y  96.612
G1 X  73.205 Y  96.583
G1 X  73.139 Y  96.495
G1 X  73.031 Y  96.348
G1 X  72.882 Y  96.140
G1 X  72.693 Y  95.872
G1 X  72.464 Y  95.543
G1 X  72.198 Y  95.152
G1 X  71.896 Y  94.699
G1 X  71.558 Y  94.183
G1 X  71.186 Y  93.605
G1 X  70.782 Y  92.964
G1 X  70.346 Y  92.260
G1 X  69.880 Y  91.493
G1 X  69.386 Y  90.662
G1 X  68.865 Y  89.768
G1 X  68.318 Y  88.811
G1 X  67.747 Y  87.791
G1 X  67.153 Y  86.708
G1 X  66.537 Y  85.563
G1 X  65.902 Y  84.355
G1 X  65.249 Y  83.086
G1 X  64.578 Y  81.755
G1 X  63.892 Y  80.364
G1 X  63.192 Y  78.912
G1 X  62.479 Y  77.401
G1 X  61.755 Y  75.831
G1 X  61.022 Y  74.203
G1 X  60.280 Y  72.518
G1 X  59.532 Y  70.776
G1 X  58.779 Y  68.979
G1 X  58.021 Y  67.128
G1 X  57.262 Y  65.223
G1 X  56.501 Y  63.267
G1 X  55.740 Y  61.259
G1 X  54.981 Y  59.202
G1 X  54.225 Y  57.096
G1 X  53.473 Y  54.943
G1 X  52.727 Y  52.744
G1 X  51.987 Y  50.501
G1 X  51.256 Y  48.216
G1 X  50.533 Y  45.889
G1 X  49.821 Y  43.522
G1 X  49.120 Y  41.118
G1 X  48.432 Y  38.677
G1 X  47.757 Y  36.202
G1 X  47.097 Y  33.694
G1 X  46.452 Y  31.155
G1 X  45.823 Y  28.586
G1 X  45.212 Y  25.990
G1 X  44.619 Y  23.369
G1 X  44.045 Y  20.724
G1 X  43.490 Y  18.058
G1 X  42.956 Y  15.371
G1 X  42.443 Y  12.668
G1 X  41.951 Y   9.948
G1 X  41.481 Y   7.215
G1 X  41.034 Y   4.471
G1 X  40.610 Y   1.716
G1 X  40.210 Y  -1.045
G1 X  39.833 Y  -3.812
G1 X  39.481 Y  -6.581
G1 X  39.153 Y  -9.352
G1 X  38.850 Y -12.122
G1 X  38.571 Y -14.889
G1 X  38.317 Y -17.651
G1 X  38.089 Y -20.405
G1 X  37.885 Y -23.149
G1 X  37.705 Y -25.882
G1 X  37.551 Y -28.601
G1 X  37.421 Y -31.305
G1 X  37.316 Y -33.990
G1 X  37.234 Y -36.656
G1 X  37.177 Y -39.299
G1 X  37.142 Y -41.919
G1 X  37.131 Y -44.513
G1 X  37.142 Y -47.078
G1 X  37.175 Y -49.614
G1 X  37.230 Y -52.118
G1 X  37.305 Y -54.588
G1 X  37.401 Y -57.022
G1 X  37.516 Y -59.420
G1 X  37.650 Y -61.777
G1 X  37.802 Y -64.094
G1 X  37.971 Y -66.368
G1 X  38.156 Y -68.598
G1 X  38.357 Y -70.782
G1 X  38.572 Y -72.918
G1 X  38.800 Y -75.005
G1 X  39.041 Y -77.041
G1 X  39.293 Y -79.026
G1 X  39.556 Y -80.956
G1 X  39.828 Y -82.832
G1 X  40.108 Y -84.652
G1 X  40.395 Y -86.414
G1 X  40.688 Y -88.118
G1 X  40.985 Y -89.762
G1 X  41.286 Y -91.346
G1 X  41.588 Y -92.867
G1 X  41.892 Y -94.326
G1 X  42.195 Y -95.721
G1 X  42.496 Y -97.052
G1 X  42.794 Y -98.318
G1 X  43.087 Y -99.518
G1 X  43.375 Y-100.651
G1 X  43.656 Y-101.717
G1 X  43.928 Y-102.715
G1 X  44.190 Y-103.645
G1 X  44.441 Y-104.507
G1 X  44.680 Y-105.300
G1 X  44.904 Y-106.024
G1 X  45.114 Y-106.678
G1 X  45.307 Y-107.264
G1 X  45.482 Y-107.780
G1 X  45.638 Y-108.226
G1 X  45.773 Y-108.603
G1 X  45.887 Y-108.911
G1 X  45.977 Y-109.150
G1 X  46.043 Y-109.320
G1 X  46.084 Y-109.422
G1 X  46.098 Y-109.456
G1 X  46.084 Y-109.422
G1 X  46.040 Y-109.322
G1 X  45.967 Y-109.155
G1 X  45.862 Y-108.922
G1 X  45.724 Y-108.624
G1 X  45.553 Y-108.261
G1 X  45.348 Y-107.835
G1 X  45.107 Y-107.347
G1 X  44.829 Y-106.796
G1 X  44.514 Y-106.185
G1 X  44.161 Y-105.515
G1 X  43.770 Y-104.785
G1 X  43.338 Y-103.998
G1 X  42.865 Y-103.155
G1 X  42.352 Y-102.257
G1 X  41.797 Y-101.304
G1 X  41.199 Y-100.300
G1 X  40.558 Y -99.244
G1 X  39.874 Y -98.138
G1 X  39.146 Y -96.984
G1 X  38.373 Y -95.784
G1 X  37.556 Y -94.537
G1 X  36.694 Y -93.248
G1 X  35.787 Y -91.915
G1 X  34.835 Y -90.543
G1 X  33.837 Y -89.131
G1 X  32.794 Y -87.682
G1 X  31.705 Y -86.197
G1 X  30.571 Y -84.678
G1 X  29.391 Y -83.127
G1 X  28.167 Y -81.546
G1 X  26.897 Y -79.935
G1 X  25.583 Y -78.298
G1 X  24.225 Y -76.635
G1 X  22.822 Y -74.949
G1 X  21.377 Y -73.242
G1 X  19.888 Y -71.514
G1 X  18.357 Y -69.769
G1 X  16.785 Y -68.007
G1 X  15.171 Y -66.230
G1 X  13.517 Y -64.441
G1 X  11.824 Y -62.641
G1 X  10.092 Y -60.832
G1 X   8.322 Y -59.016
G1 X   6.516 Y -57.194
G1 X   4.674 Y -55.368
G1 X   2.798 Y -53.540
G1 X   0.887 Y -51.711
G1 X  -1.055 Y -49.884
G1 X  -3.029 Y -48.059
G1 X  -5.032 Y -46.240
G1 X  -7.064 Y -44.426
G1 X  -9.123 Y -42.620
G1 X -11.208 Y -40.824
G1 X -13.317 Y -39.038
G1 X -15.449 Y -37.265
G1 X -17.603 Y -35.506
G1 X -19.776 Y -33.762
G1 X -21.967 Y -32.034
G1 X -24.175 Y -30.325
F150
G1 Z   3.000
G0 Z  15.000 
M9 M5

(* SHAPE Nr: 4 *)
G0 X -17.516 Y -34.465
M3 M8
G0 Z   3.000 
G1 Z  -1.500
F400
G1 X -20.025 Y -33.241
G1 X -22.544 Y -32.040
G1 X -25.069 Y -30.863
G1 X -27.600 Y -29.709
G1 X -30.133 Y -28.582
G1 X -32.667 Y -27.480
G1 X -35.201 Y -26.404
G1 X -37.731 Y -25.356
G1 X -40.256 Y -24.336
G1 X -42.774 Y -23.344
G1 X -45.283 Y -22.381
G1 X -47.781 Y -21.447
G1 X -50.266 Y -20.542
G1 X -52.736 Y -19.668
G1 X -55.188 Y -18.823
G1 X -57.621 Y -18.009
G1 X -60.033 Y -17.226
G1 X -62.422 Y -16.472
G1 X -64.785 Y -15.750
G1 X -67.121 Y -15.058
G1 X -69.428 Y -14.396
G1 X -71.703 Y -13.765
G1 X -73.946 Y -13.164
G1 X -76.154 Y -12.593
G1 X -78.325 Y -12.052
G1 X -80.457 Y -11.540
G1 X -82.549 Y -11.057
G1 X -84.599 Y -10.603
G1 X -86.605 Y -10.176
G1 X -88.565 Y  -9.777
G1 X -90.477 Y  -9.406
G1 X -92.341 Y  -9.060
G1 X -94.154 Y  -8.740
G1 X -95.915 Y  -8.446
G1 X -97.623 Y  -8.175
G1 X -99.275 Y  -7.928
G1 X-100.871 Y  -7.704
G1 X-102.409 Y  -7.501
G1 X-103.888 Y  -7.320
G1 X-105.307 Y  -7.158
G1 X-106.664 Y  -7.015
G1 X-107.958 Y  -6.891
G1 X-109.189 Y  -6.783
G1 X-110.354 Y  -6.691
G1 X-111.454 Y  -6.614
G1 X-112.486 Y  -6.551
G1 X-113.452 Y  -6.500
G1 X-114.348 Y  -6.461
G1 X-115.176 Y  -6.432
G1 X-115.934 Y  -6.412
G1 X-116.621 Y  -6.400
G1 X-117.237 Y  -6.395
G1 X-117.782 Y  -6.395
G1 X-118.255 Y  -6.399
G1 X-118.655 Y  -6.406
G1 X-118.984 Y  -6.414
G1 X-119.239 Y  -6.423
G1 X-119.421 Y  -6.431
G1 X-119.531 Y  -6.437
G1 X-119.567 Y  -6.439
G1 X-119.531 Y  -6.436
G1 X-119.422 Y  -6.428
G1 X-119.240 Y  -6.412
G1 X-118.985 Y  -6.387
G1 X-118.659 Y  -6.353
G1 X-118.261 Y  -6.307
G1 X-117.791 Y  -6.250
G1 X-117.251 Y  -6.179
G1 X-116.641 Y  -6.093
G1 X-115.961 Y  -5.991
G1 X-115.213 Y  -5.872
G1 X-114.396 Y  -5.736
G1 X-113.512 Y  -5.580
G1 X-112.562 Y  -5.404
G1 X-111.546 Y  -5.206
G1 X-110.466 Y  -4.986
G1 X-109.322 Y  -4.743
G1 X-108.116 Y  -4.476
G1 X-106.850 Y  -4.183
G1 X-105.523 Y  -3.865
G1 X-104.138 Y  -3.519
G1 X-102.695 Y  -3.146
G1 X-101.196 Y  -2.745
G1 X -99.643 Y  -2.314
G1 X -98.037 Y  -1.853
G1 X -96.380 Y  -1.362
G1 X -94.672 Y  -0.840
G1 X -92.916 Y  -0.286
G1 X -91.114 Y   0.299
G1 X -89.266 Y   0.918
G1 X -87.374 Y   1.569
G1 X -85.442 Y   2.253
G1 X -83.469 Y   2.971
G1 X -81.458 Y   3.723
G1 X -79.410 Y   4.509
G1 X -77.329 Y   5.329
G1 X -75.214 Y   6.184
G1 X -73.069 Y   7.072
G1 X -70.895 Y   7.995
G1 X -68.695 Y   8.952
G1 X -66.469 Y   9.943
G1 X -64.220 Y  10.968
G1 X -61.950 Y  12.026
G1 X -59.661 Y  13.118
G1 X -57.355 Y  14.243
G1 X -55.034 Y  15.400
G1 X -52.700 Y  16.589
G1 X -50.354 Y  17.810
G1 X -48.000 Y  19.062
G1 X -45.638 Y  20.345
G1 X -43.271 Y  21.657
G1 X -40.900 Y  22.998
G1 X -38.528 Y  24.368
G1 X -36.157 Y  25.764
G1 X -33.788 Y  27.188
G1 X -31.424 Y  28.637
G1 X -29.066 Y  30.110
G1 X -26.716 Y  31.607
G1 X -24.376 Y  33.127
G1 X -22.047 Y  34.668
G1 X -19.732 Y  36.230
G1 X -17.433 Y  37.810
G1 X -15.150 Y  39.408
G1 X -12.886 Y  41.023
G1 X -10.643 Y  42.653
G1 X  -8.421 Y  44.297
G1 X  -6.223 Y  45.953
G1 X  -4.051 Y  47.620
G1 X  -1.904 Y  49.297
G1 X   0.214 Y  50.982
G1 X   2.302 Y  52.673
G1 X   4.360 Y  54.370
G1 X   6.386 Y  56.069
G1 X   8.378 Y  57.771
G1 X  10.335 Y  59.472
G1 X  12.257 Y  61.172
G1 X  14.142 Y  62.869
G1 X  15.988 Y  64.561
G1 X  17.795 Y  66.247
G1 X  19.563 Y  67.924
G1 X  21.289 Y  69.591
G1 X  22.974 Y  71.246
G1 X  24.615 Y  72.888
G1 X  26.214 Y  74.514
G1 X  27.768 Y  76.124
G1 X  29.278 Y  77.714
G1 X  30.742 Y  79.285
G1 X  32.160 Y  80.832
G1 X  33.532 Y  82.356
G1 X  34.858 Y  83.854
G1 X  36.136 Y  85.325
G1 X  37.367 Y  86.766
G1 X  38.551 Y  88.177
G1 X  39.687 Y  89.554
G1 X  40.775 Y  90.898
G1 X  41.815 Y  92.205
G1 X  42.807 Y  93.475
G1 X  43.751 Y  94.706
G1 X  44.648 Y  95.896
G1 X  45.497 Y  97.044
G1 X  46.300 Y  98.148
G1 X  47.055 Y  99.206
G1 X  47.763 Y 100.218
G1 X  48.425 Y 101.181
G1 X  49.042 Y 102.095
G1 X  49.613 Y 102.958
G1 X  50.139 Y 103.768
G1 X  50.622 Y 104.525
G1 X  51.060 Y 105.228
G1 X  51.457 Y 105.874
G1 X  51.811 Y 106.463
G1 X  52.123 Y 106.994
G1 X  52.396 Y 107.466
G1 X  52.629 Y 107.877
G1 X  52.823 Y 108.228
G1 X  52.980 Y 108.516
G1 X  53.100 Y 108.742
G1 X  53.184 Y 108.904
G1 X  53.234 Y 109.001
G1 X  53.250 Y 109.034
G1 X  53.234 Y 109.001
G1 X  53.187 Y 108.902
G1 X  53.110 Y 108.737
G1 X  53.004 Y 108.504
G1 X  52.871 Y 108.204
G1 X  52.711 Y 107.837
G1 X  52.526 Y 107.402
G1 X  52.318 Y 106.898
G1 X  52.087 Y 106.327
G1 X  51.835 Y 105.687
G1 X  51.564 Y 104.980
G1 X  51.274 Y 104.204
G1 X  50.967 Y 103.360
G1 X  50.644 Y 102.449
G1 X  50.307 Y 101.471
G1 X  49.958 Y 100.426
G1 X  49.596 Y  99.314
G1 X  49.225 Y  98.136
G1 X  48.845 Y  96.892
G1 X  48.457 Y  95.584
G1 X  48.064 Y  94.212
G1 X  47.666 Y  92.776
G1 X  47.264 Y  91.277
G1 X  46.861 Y  89.717
G1 X  46.457 Y  88.096
G1 X  46.053 Y  86.415
G1 X  45.651 Y  84.675
G1 X  45.253 Y  82.877
G1 X  44.859 Y  81.023
G1 X  44.470 Y  79.114
G1 X  44.089 Y  77.150
G1 X  43.715 Y  75.134
G1 X  43.351 Y  73.067
G1 X  42.996 Y  70.949
G1 X  42.653 Y  68.783
G1 X  42.323 Y  66.570
G1 X  42.005 Y  64.312
G1 X  41.702 Y  62.010
G1 X  41.414 Y  59.666
G1 X  41.143 Y  57.282
G1 X  40.888 Y  54.859
G1 X  40.651 Y  52.399
G1 X  40.433 Y  49.904
G1 X  40.234 Y  47.376
G1 X  40.055 Y  44.816
G1 X  39.897 Y  42.227
G1 X  39.760 Y  39.611
G1 X  39.644 Y  36.969
G1 X  39.551 Y  34.304
G1 X  39.481 Y  31.617
G1 X  39.434 Y  28.911
G1 X  39.410 Y  26.188
G1 X  39.410 Y  23.449
G1 X  39.434 Y  20.697
G1 X  39.482 Y  17.934
G1 X  39.555 Y  15.162
G1 X  39.652 Y  12.383
G1 X  39.774 Y   9.599
G1 X  39.920 Y   6.813
G1 X  40.090 Y   4.026
G1 X  40.285 Y   1.240
G1 X  40.504 Y  -1.542
G1 X  40.747 Y  -4.317
G1 X  41.013 Y  -7.085
G1 X  41.303 Y  -9.843
G1 X  41.616 Y -12.589
G1 X  41.951 Y -15.321
G1 X  42.309 Y -18.036
G1 X  42.688 Y -20.733
G1 X  43.088 Y -23.410
G1 X  43.508 Y -26.064
G1 X  43.948 Y -28.695
G1 X  44.407 Y -31.299
G1 X  44.885 Y -33.875
G1 X  45.380 Y -36.421
G1 X  45.891 Y -38.935
G1 X  46.418 Y -41.415
G1 X  46.960 Y -43.860
G1 X  47.516 Y -46.268
G1 X  48.085 Y -48.637
G1 X  48.666 Y -50.966
G1 X  49.257 Y -53.252
G1 X  49.858 Y -55.495
G1 X  50.467 Y -57.693
G1 X  51.084 Y -59.843
G1 X  51.707 Y -61.946
G1 X  52.334 Y -63.999
G1 X  52.966 Y -66.001
G1 X  53.599 Y -67.952
G1 X  54.234 Y -69.849
G1 X  54.868 Y -71.691
G1 X  55.501 Y -73.478
G1 X  56.131 Y -75.208
G1 X  56.756 Y -76.880
G1 X  57.375 Y -78.494
G1 X  57.988 Y -80.049
G1 X  58.591 Y -81.543
G1 X  59.185 Y -82.977
G1 X  59.767 Y -84.348
G1 X  60.337 Y -85.658
G1 X  60.892 Y -86.904
G1 X  61.431 Y -88.087
G1 X  61.953 Y -89.207
G1 X  62.456 Y -90.262
G1 X  62.939 Y -91.253
G1 X  63.401 Y -92.179
G1 X  63.839 Y -93.040
G1 X  64.254 Y -93.836
G1 X  64.643 Y -94.567
G1 X  65.004 Y -95.233
G1 X  65.337 Y -95.835
G1 X  65.641 Y -96.371
G1 X  65.913 Y -96.843
G1 X  66.153 Y -97.250
G1 X  66.359 Y -97.594
G1 X  66.531 Y -97.874
G1 X  66.666 Y -98.090
G1 X  66.764 Y -98.244
G1 X  66.824 Y -98.336
G1 X  66.844 Y -98.367
G1 X  66.824 Y -98.337
G1 X  66.761 Y -98.246
G1 X  66.657 Y -98.097
G1 X  66.508 Y -97.889
G1 X  66.315 Y -97.623
G1 X  66.077 Y -97.301
G1 X  65.792 Y -96.924
G1 X  65.461 Y -96.491
G1 X  65.081 Y -96.006
G1 X  64.653 Y -95.468
G1 X  64.176 Y -94.879
G1 X  63.649 Y -94.240
G1 X  63.072 Y -93.552
G1 X  62.445 Y -92.817
G1 X  61.766 Y -92.037
G1 X  61.035 Y -91.211
G1 X  60.253 Y -90.342
G1 X  59.419 Y -89.432
G1 X  58.532 Y -88.481
G1 X  57.593 Y -87.491
G1 X  56.601 Y -86.464
G1 X  55.556 Y -85.401
G1 X  54.459 Y -84.304
G1 X  53.310 Y -83.175
G1 X  52.108 Y -82.014
G1 X  50.854 Y -80.824
G1 X  49.548 Y -79.606
G1 X  48.190 Y -78.363
G1 X  46.782 Y -77.094
G1 X  45.322 Y -75.803
G1 X  43.813 Y -74.491
G1 X  42.253 Y -73.159
G1 X  40.645 Y -71.810
G1 X  38.988 Y -70.444
G1 X  37.284 Y -69.064
G1 X  35.533 Y -67.671
G1 X  33.736 Y -66.267
G1 X  31.894 Y -64.854
G1 X  30.008 Y -63.433
G1 X  28.079 Y -62.005
G1 X  26.108 Y -60.573
G1 X  24.096 Y -59.138
G1 X  22.044 Y -57.702
G1 X  19.954 Y -56.265
G1 X  17.827 Y -54.831
G1 X  15.664 Y -53.399
G1 X  13.467 Y -51.972
G1 X  11.237 Y -50.551
G1 X   8.975 Y -49.138
G1 X   6.684 Y -47.734
G1 X   4.364 Y -46.340
G1 X   2.017 Y -44.958
G1 X  -0.355 Y -43.588
G1 X  -2.750 Y -42.233
G1 X  -5.167 Y -40.893
G1 X  -7.604 Y -39.570
G1 X -10.059 Y -38.265
G1 X -12.531 Y -36.978
G1 X -15.017 Y -35.711
G1 X -17.516 Y -34.465
F150
G1 Z  -3.000
F400
G1 X -20.025 Y -33.241
G1 X -22.544 Y -32.040
G1 X -25.069 Y -30.863
G1 X -27.600 Y -29.709
G1 X -30.133 Y -28.582
G1 X -32.667 Y -27.480
G1 X -35.201 Y -26.404
G1 X -37.731 Y -25.356
G1 X -40.256 Y -24.336
G1 X -42.774 Y -23.344
G1 X -45.283 Y -22.381
G1 X -47.781 Y -21.447
G1 X -50.266 Y -20.542
G1 X -52.736 Y -19.668
G1 X -55.188 Y -18.823
G1 X -57.621 Y -18.009
G1 X -60.033 Y -17.226
G1 X -62.422 Y -16.472
G1 X -64.785 Y -15.750
G1 X -67.121 Y -15.058
G1 X -69.428 Y -14.396
G1 X -71.703 Y -13.765
G1 X -73.946 Y -13.164
G1 X -76.154 Y -12.593
G1 X -78.325 Y -12.052
G1 X -80.457 Y -11.540
G1 X -82.549 Y -11.057
G1 X -84.599 Y -10.603
G1 X -86.605 Y -10.176
G1 X -88.565 Y  -9.777
G1 X -90.477 Y  -9.406
G1 X -92.341 Y  -9.060
G1 X -94.154 Y  -8.740
G1 X -95.915 Y  -8.446
G1 X -97.623 Y  -8.175
G1 X -99.275 Y  -7.928
G1 X-100.871 Y  -7.704
G1 X-102.409 Y  -7.501
G1 X-103.888 Y  -7.320
G1 X-105.307 Y  -7.158
G1 X-106.664 Y  -7.015
G1 X-107.958 Y  -6.891
G1 X-109.189 Y  -6.783
G1 X-110.354 Y  -6.691
G1 X-111.454 Y  -6.614
G1 X-112.486 Y  -6.551
G1 X-113.452 Y  -6.500
G1 X-114.348 Y  -6.461
G1 X-115.176 Y  -6.432
G1 X-115.934 Y  -6.412
G1 X-116.621 Y  -6.400
G1 X-117.237 Y  -6.395
G1 X-117.782 Y  -6.395
G1 X-118.255 Y  -6.399
G1 X-118.655 Y  -6.406
G1 X-118.984 Y  -6.414
G1 X-119.239 Y  -6.423
G1 X-119.421 Y  -6.431
G1 X-119.531 Y  -6.437
G1 X-119.567 Y  -6.439
G1 X-119.531 Y  -6.436
G1 X-119.422 Y  -6.428
G1 X-119.240 Y  -6.412
G1 X-118.985 Y  -6.387
G1 X-118.659 Y  -6.353
G1 X-118.261 Y  -6.307
G1 X-117.791 Y  -6.250
G1 X-117.251 Y  -6.179
G1 X-116.641 Y  -6.093
G1 X-115.961 Y  -5.991
G1 X-115.213 Y  -5.872
G1 X-114.396 Y  -5.736
G1 X-113.512 Y  -5.580
G1 X-112.562 Y  -5.404
G1 X-111.546 Y  -5.206
G1 X-110.466 Y  -4.986
G1 X-109.322 Y  -4.743
G1 X-108.116 Y  -4.476
G1 X-106.850 Y  -4.183
G1 X-105.523 Y  -3.865
G1 X-104.138 Y  -3.519
G1 X-102.695 Y  -3.146
G1 X-101.196 Y  -2.745
G1 X -99.643 Y  -2.314
G1 X -98.037 Y  -1.853
G1 X -96.380 Y  -1.362
G1 X -94.672 Y  -0.840
G1 X -92.916 Y  -0.286
G1 X -91.114 Y   0.299
G1 X -89.266 Y   0.918
G1 X -87.374 Y   1.569
G1 X -85.442 Y   2.253
G1 X -83.469 Y   2.971
G1 X -81.458 Y   3.723
G1 X -79.410 Y   4.509
G1 X -77.329 Y   5.329
G1 X -75.214 Y   6.184
G1 X -73.069 Y   7.072
G1 X -70.895 Y   7.995
G1 X -68.695 Y   8.952
G1 X -66.469 Y   9.943
G1 X -64.220 Y  10.968
G1 X -61.950 Y  12.026
G1 X -59.661 Y  13.118
G1 X -57.355 Y  14.243
G1 X -55.034 Y  15.400
G1 X -52.700 Y  16.589
G1 X -50.354 Y  17.810
G1 X -48.000 Y  19.062
G1 X -45.638 Y  20.345
G1 X -43.271 Y  21.657
G1 X -40.900 Y  22.998
G1 X -38.528 Y  24.368
G1 X -36.157 Y  25.764
G1 X -33.788 Y  27.188
G1 X -31.424 Y  28.637
G1 X -29.066 Y  30.110
G1 X -26.716 Y  31.607
G1 X -24.376 Y  33.127
G1 X -22.047 Y  34.668
G1 X -19.732 Y  36.230
G1 X -17.433 Y  37.810
G1 X -15.150 Y  39.408
G1 X -12.886 Y  41.023
G1 X -10.643 Y  42.653
G1 X  -8.421 Y  44.297
G1 X  -6.223 Y  45.953
G1 X  -4.051 Y  47.620
G1 X  -1.904 Y  49.297
G1 X   0.214 Y  50.982
G1 X   2.302 Y  52.673
G1 X   4.360 Y  54.370
G1 X   6.386 Y  56.069
G1 X   8.378 Y  57.771
G1 X  10.335 Y  59.472
G1 X  12.257 Y  61.172
G1 X  14.142 Y  62.869
G1 X  15.988 Y  64.561
G1 X  17.795 Y  66.247
G1 X  19.563 Y  67.924
G1 X  21.289 Y  69.591
G1 X  22.974 Y  71.246
G1 X  24.615 Y  72.888
G1 X  26.214 Y  74.514
G1 X  27.768 Y  76.124
G1 X  29.278 Y  77.714
G1 X  30.742 Y  79.285
G1 X  32.160 Y  80.832
G1 X  33.532 Y  82.356
G1 X  34.858 Y  83.854
G1 X  36.136 Y  85.325
G1 X  37.367 Y  86.766
G1 X  38.551 Y  88.177
G1 X  39.687 Y  89.554
G1 X  40.775 Y  90.898
G1 X  41.815 Y  92.205
G1 X  42.807 Y  93.475
G1 X  43.751 Y  94.706
G1 X  44.648 Y  95.896
G1 X  45.497 Y  97.044
G1 X  46.300 Y  98.148
G1 X  47.055 Y  99.206
G1 X  47.763 Y 100.218
G1 X  48.425 Y 101.181
G1 X  49.042 Y 102.095
G1 X  49.613 Y 102.958
G1 X  50.139 Y 103.768
G1 X  50.622 Y 104.525
G1 X  51.060 Y 105.228
G1 X  51.457 Y 105.874
G1 X  51.811 Y 106.463
G1 X  52.123 Y 106.994
G1 X  52.396 Y 107.466
G1 X  52.629 Y 107.877
G1 X  52.823 Y 108.228
G1 X  52.980 Y 108.516
G1 X  53.100 Y 108.742
G1 X  53.184 Y 108.904
G1 X  53.234 Y 109.001
G1 X  53.250 Y 109.034
G1 X  53.234 Y 109.001
G1 X  53.187 Y 108.902
G1 X  53.110 Y 108.737
G1 X  53.004 Y 108.504
G1 X  52.871 Y 108.204
G1 X  52.711 Y 107.837
G1 X  52.526 Y 107.402
G1 X  52.318 Y 106.898
G1 X  52.087 Y 106.327
G1 X  51.835 Y 105.687
G1 X  51.564 Y 104.980
G1 X  51.274 Y 104.204
G1 X  50.967 Y 103.360
G1 X  50.644 Y 102.449
G1 X  50.307 Y 101.471
G1 X  49.958 Y 100.426
G1 X  49.596 Y  99.314
G1 X  49.225 Y  98.136
G1 X  48.845 Y  96.892
G1 X  48.457 Y  95.584
G1 X  48.064 Y  94.212
G1 X  47.666 Y  92.776
G1 X  47.264 Y  91.277
G1 X  46.861 Y  89.717
G1 X  46.457 Y  88.096
G1 X  46.053 Y  86.415
G1 X  45.651 Y  84.675
G1 X  45.253 Y  82.877
G1 X  44.859 Y  81.023
G1 X  44.470 Y  79.114
G1 X  44.089 Y  77.150
G1 X  43.715 Y  75.134
G1 X  43.351 Y  73.067
G1 X  42.996 Y  70.949
G1 X  42.653 Y  68.783
G1 X  42.323 Y  66.570
G1 X  42.005 Y  64.312
G1 X  41.702 Y  62.010
G1 X  41.414 Y  59.666
G1 X  41.143 Y  57.282
G1 X  40.888 Y  54.859
G1 X  40.651 Y  52.399
G1 X  40.433 Y  49.904
G1 X  40.234 Y  47.376
G1 X  40.055 Y  44.816
G1 X  39.897 Y  42.227
G1 X  39.760 Y  39.611
G1 X  39.644 Y  36.969
G1 X  39.551 Y  34.304
G1 X  39.481 Y  31.617
G1 X  39.434 Y  28.911
G1 X  39.410 Y  26.188
G1 X  39.410 Y  23.449
G1 X  39.434 Y  20.697
G1 X  39.482 Y  17.934
G1 X  39.555 Y  15.162
G1 X  39.652 Y  12.383
G1 X  39.774 Y   9.599
G1 X  39.920 Y   6.813
G1 X  40.090 Y   4.026
G1 X  40.285 Y   1.240
G1 X  40.504 Y  -1.542
G1 X  40.747 Y  -4.317
G1 X  41.013 Y  -7.085
G1 X  41.303 Y  -9.843
G1 X  41.616 Y -12.589
G1 X  41.951 Y -15.321
G1 X  42.309 Y -18.036
G1 X  42.688 Y -20.733
G1 X  43.088 Y -23.410
G1 X  43.508 Y -26.064
G1 X  43.948 Y -28.695
G1 X  44.407 Y -31.299
G1 X  44.885 Y -33.875
G1 X  45.380 Y -36.421
G1 X  45.891 Y -38.935
G1 X  46.418 Y -41.415
G1 X  46.960 Y -43.860
G1 X  47.516 Y -46.268
G1 X  48.085 Y -48.637
G1 X  48.666 Y -50.966
G1 X  49.257 Y -53.252
G1 X  49.858 Y -55.495
G1 X  50.467 Y -57.693
G1 X  51.084 Y -59.843
G1 X  51.707 Y -61.946
G1 X  52.334 Y -63.999
G1 X  52.966 Y -66.001
G1 X  53.599 Y -67.952
G1 X  54.234 Y -69.849
G1 X  54.868 Y -71.691
G1 X  55.501 Y -73.478
G1 X  56.131 Y -75.208
G1 X  56.756 Y -76.880
G1 X  57.375 Y -78.494
G1 X  57.988 Y -80.049
G1 X  58.591 Y -81.543
G1 X  59.185 Y -82.977
G1 X  59.767 Y -84.348
G1 X  60.337 Y -85.658
G1 X  60.892 Y -86.904
G1 X  61.431 Y -88.087
G1 X  61.953 Y -89.207
G1 X  62.456 Y -90.262
G1 X  62.939 Y -91.253
G1 X  63.401 Y -92.179
G1 X  63.839 Y -93.040
G1 X  64.254 Y -93.836
G1 X  64.643 Y -94.567
G1 X  65.004 Y -95.233
G1 X  65.337 Y -95.835
G1 X  65.641 Y -96.371
G1 X  65.913 Y -96.843
G1 X  66.153 Y -97.250
G1 X  66.359 Y -97.594
G1 X  66.531 Y -97.874
G1 X  66.666 Y -98.090
G1 X  66.764 Y -98.244
G1 X  66.824 Y -98.336
G1 X  66.844 Y -98.367
G1 X  66.824 Y -98.337
G1 X  66.761 Y -98.246
G1 X  66.657 Y -98.097
G1 X  66.508 Y -97.889
G1 X  66.315 Y -97.623
G1 X  66.077 Y -97.301
G1 X  65.792 Y -96.924
G1 X  65.461 Y -96.491
G1 X  65.081 Y -96.006
G1 X  64.653 Y -95.468
G1 X  64.176 Y -94.879
G1 X  63.649 Y -94.240
G1 X  63.072 Y -93.552
G1 X  62.445 Y -92.817
G1 X  61.766 Y -92.037
G1 X  61.035 Y -91.211
G1 X  60.253 Y -90.342
G1 X  59.419 Y -89.432
G1 X  58.532 Y -88.481
G1 X  57.593 Y -87.491
G1 X  56.601 Y -86.464
G1 X  55.556 Y -85.401
G1 X  54.459 Y -84.304
G1 X  53.310 Y -83.175
G1 X  52.108 Y -82.014
G1 X  50.854 Y -80.824
G1 X  49.548 Y -79.606
G1 X  48.190 Y -78.363
G1 X  46.782 Y -77.094
G1 X  45.322 Y -75.803
G1 X  43.813 Y -74.491
G1 X  42.253 Y -73.159
G1 X  40.645 Y -71.810
G1 X  38.988 Y -70.444
G1 X  37.284 Y -69.064
G1 X  35.533 Y -67.671
G1 X  33.736 Y -66.267
G1 X  31.894 Y -64.854
G1 X  30.008 Y -63.433
G1 X  28.079 Y -62.005
G1 X  26.108 Y -60.573
G1 X  24.096 Y -59.138
G1 X  22.044 Y -57.702
G1 X  19.954 Y -56.265
G1 X  17.827 Y -54.831
G1 X  15.664 Y -53.399
G1 X  13.467 Y -51.972
G1 X  11.237 Y -50.551
G1 X   8.975 Y -49.138
G1 X   6.684 Y -47.734
G1 X   4.364 Y -46.340
G1 X   2.017 Y -44.958
G1 X  -0.355 Y -43.588
G1 X  -2.750 Y -42.233
G1 X  -5.167 Y -40.893
G1 X  -7.604 Y -39.570
G1 X -10.059 Y -38.265
G1 X -12.531 Y -36.978
G1 X -15.017 Y -35.711
G1 X -17.516 Y -34.465
F150
G1 Z   3.000
G0 Z  15.000 
M9 M5

(* SHAPE Nr: 5 *)
G0 X -10.177 Y -37.228
M3 M8
G0 Z   3.000 
G1 Z  -1.500
F400
G1 X -12.877 Y -36.517
G1 X -15.582 Y -35.830
G1 X -18.288 Y -35.168
G1 X -20.995 Y -34.530
G1 X -23.700 Y -33.918
G1 X -26.400 Y -33.332
G1 X -29.095 Y -32.771
G1 X -31.781 Y -32.237
G1 X -34.457 Y -31.729
G1 X -37.120 Y -31.247
G1 X -39.769 Y -30.792
G1 X -42.401 Y -30.364
G1 X -45.014 Y -29.961
G1 X -47.607 Y -29.585
G1 X -50.177 Y -29.236
G1 X -52.722 Y -28.912
G1 X -55.241 Y -28.614
G1 X -57.730 Y -28.341
G1 X -60.189 Y -28.093
G1 X -62.615 Y -27.870
G1 X -65.007 Y -27.672
G1 X -67.362 Y -27.497
G1 X -69.679 Y -27.345
G1 X -71.956 Y -27.215
G1 X -74.190 Y -27.108
G1 X -76.382 Y -27.022
G1 X -78.528 Y -26.956
G1 X -80.627 Y -26.910
G1 X -82.677 Y -26.884
G1 X -84.677 Y -26.875
G1 X -86.626 Y -26.883
G1 X -88.521 Y -26.908
G1 X -90.362 Y -26.948
G1 X -92.147 Y -27.003
G1 X -93.874 Y -27.071
G1 X -95.543 Y -27.151
G1 X -97.152 Y -27.242
G1 X -98.700 Y -27.343
G1 X-100.186 Y -27.454
G1 X-101.609 Y -27.572
G1 X-102.968 Y -27.697
G1 X-104.261 Y -27.827
G1 X-105.489 Y -27.961
G1 X-106.650 Y -28.099
G1 X-107.743 Y -28.238
G1 X-108.769 Y -28.377
G1 X-109.725 Y -28.516
G1 X-110.612 Y -28.652
G1 X-111.430 Y -28.785
G1 X-112.177 Y -28.914
G1 X-112.853 Y -29.036
G1 X-113.459 Y -29.151
G1 X-113.993 Y -29.257
G1 X-114.456 Y -29.353
G1 X-114.848 Y -29.438
G1 X-115.168 Y -29.511
G1 X-115.416 Y -29.569
G1 X-115.594 Y -29.613
G1 X-115.700 Y -29.640
G1 X-115.735 Y -29.649
G1 X-115.700 Y -29.639
G1 X-115.595 Y -29.609
G1 X-115.419 Y -29.558
G1 X-115.175 Y -29.485
G1 X-114.861 Y -29.387
G1 X-114.480 Y -29.265
G1 X-114.031 Y -29.117
G1 X-113.515 Y -28.942
G1 X-112.933 Y -28.738
G1 X-112.286 Y -28.506
G1 X-111.575 Y -28.244
G1 X-110.801 Y -27.950
G1 X-109.964 Y -27.625
G1 X-109.066 Y -27.267
G1 X-108.109 Y -26.875
G1 X-107.092 Y -26.449
G1 X-106.018 Y -25.987
G1 X-104.887 Y -25.490
G1 X-103.702 Y -24.955
G1 X-102.463 Y -24.384
G1 X-101.172 Y -23.775
G1 X -99.830 Y -23.128
G1 X -98.438 Y -22.442
G1 X -96.999 Y -21.716
G1 X -95.514 Y -20.951
G1 X -93.984 Y -20.146
G1 X -92.411 Y -19.301
G1 X -90.797 Y -18.415
G1 X -89.143 Y -17.489
G1 X -87.451 Y -16.522
G1 X -85.723 Y -15.514
G1 X -83.961 Y -14.466
G1 X -82.166 Y -13.377
G1 X -80.341 Y -12.247
G1 X -78.486 Y -11.077
G1 X -76.604 Y  -9.866
G1 X -74.697 Y  -8.616
G1 X -72.767 Y  -7.326
G1 X -70.815 Y  -5.997
G1 X -68.843 Y  -4.629
G1 X -66.853 Y  -3.223
G1 X -64.847 Y  -1.779
G1 X -62.828 Y  -0.298
G1 X -60.796 Y   1.219
G1 X -58.754 Y   2.772
G1 X -56.703 Y   4.360
G1 X -54.645 Y   5.982
G1 X -52.583 Y   7.637
G1 X -50.518 Y   9.325
G1 X -48.452 Y  11.043
G1 X -46.386 Y  12.792
G1 X -44.323 Y  14.570
G1 X -42.264 Y  16.376
G1 X -40.210 Y  18.208
G1 X -38.165 Y  20.066
G1 X -36.128 Y  21.949
G1 X -34.103 Y  23.854
G1 X -32.090 Y  25.781
G1 X -30.092 Y  27.728
G1 X -28.109 Y  29.694
G1 X -26.143 Y  31.677
G1 X -24.196 Y  33.675
G1 X -22.269 Y  35.688
G1 X -20.364 Y  37.714
G1 X -18.481 Y  39.750
G1 X -16.623 Y  41.796
G1 X -14.791 Y  43.849
G1 X -12.985 Y  45.908
G1 X -11.207 Y  47.971
G1 X  -9.458 Y  50.037
G1 X  -7.740 Y  52.103
G1 X  -6.052 Y  54.168
G1 X  -4.397 Y  56.231
G1 X  -2.775 Y  58.288
G1 X  -1.187 Y  60.339
G1 X   0.366 Y  62.381
G1 X   1.883 Y  64.413
G1 X   3.364 Y  66.433
G1 X   4.808 Y  68.438
G1 X   6.214 Y  70.428
G1 X   7.582 Y  72.400
G1 X   8.911 Y  74.352
G1 X  10.201 Y  76.282
G1 X  11.451 Y  78.189
G1 X  12.662 Y  80.071
G1 X  13.832 Y  81.926
G1 X  14.962 Y  83.751
G1 X  16.051 Y  85.546
G1 X  17.099 Y  87.308
G1 X  18.107 Y  89.036
G1 X  19.074 Y  90.728
G1 X  20.000 Y  92.382
G1 X  20.886 Y  93.996
G1 X  21.731 Y  95.569
G1 X  22.536 Y  97.099
G1 X  23.301 Y  98.584
G1 X  24.027 Y 100.023
G1 X  24.713 Y 101.415
G1 X  25.360 Y 102.757
G1 X  25.969 Y 104.048
G1 X  26.541 Y 105.287
G1 X  27.075 Y 106.473
G1 X  27.572 Y 107.603
G1 X  28.034 Y 108.677
G1 X  28.460 Y 109.694
G1 X  28.852 Y 110.651
G1 X  29.210 Y 111.549
G1 X  29.535 Y 112.386
G1 X  29.829 Y 113.160
G1 X  30.091 Y 113.871
G1 X  30.324 Y 114.518
G1 X  30.527 Y 115.100
G1 X  30.702 Y 115.616
G1 X  30.850 Y 116.065
G1 X  30.972 Y 116.446
G1 X  31.070 Y 116.760
G1 X  31.143 Y 117.004
G1 X  31.194 Y 117.180
G1 X  31.224 Y 117.285
G1 X  31.234 Y 117.321
G1 X  31.225 Y 117.285
G1 X  31.198 Y 117.179
G1 X  31.154 Y 117.001
G1 X  31.096 Y 116.753
G1 X  31.024 Y 116.433
G1 X  30.939 Y 116.041
G1 X  30.842 Y 115.578
G1 X  30.736 Y 115.044
G1 X  30.621 Y 114.438
G1 X  30.499 Y 113.762
G1 X  30.371 Y 113.015
G1 X  30.238 Y 112.197
G1 X  30.101 Y 111.310
G1 X  29.962 Y 110.354
G1 X  29.823 Y 109.328
G1 X  29.684 Y 108.235
G1 X  29.546 Y 107.074
G1 X  29.412 Y 105.846
G1 X  29.282 Y 104.553
G1 X  29.157 Y 103.194
G1 X  29.039 Y 101.771
G1 X  28.928 Y 100.285
G1 X  28.827 Y  98.737
G1 X  28.736 Y  97.128
G1 X  28.656 Y  95.459
G1 X  28.588 Y  93.732
G1 X  28.533 Y  91.947
G1 X  28.493 Y  90.106
G1 X  28.468 Y  88.211
G1 X  28.460 Y  86.262
G1 X  28.469 Y  84.262
G1 X  28.496 Y  82.212
G1 X  28.541 Y  80.113
G1 X  28.607 Y  77.967
G1 X  28.693 Y  75.775
G1 X  28.801 Y  73.541
G1 X  28.930 Y  71.264
G1 X  29.082 Y  68.947
G1 X  29.257 Y  66.592
G1 X  29.456 Y  64.200
G1 X  29.678 Y  61.774
G1 X  29.926 Y  59.315
G1 X  30.199 Y  56.826
G1 X  30.497 Y  54.307
G1 X  30.821 Y  51.762
G1 X  31.170 Y  49.192
G1 X  31.546 Y  46.600
G1 X  31.949 Y  43.986
G1 X  32.377 Y  41.354
G1 X  32.833 Y  38.705
G1 X  33.314 Y  36.042
G1 X  33.822 Y  33.366
G1 X  34.356 Y  30.680
G1 X  34.917 Y  27.985
G1 X  35.503 Y  25.285
G1 X  36.115 Y  22.580
G1 X  36.753 Y  19.873
G1 X  37.415 Y  17.167
G1 X  38.102 Y  14.462
G1 X  38.813 Y  11.762
G1 X  39.547 Y   9.068
G1 X  40.305 Y   6.383
G1 X  41.084 Y   3.708
G1 X  41.886 Y   1.045
G1 X  42.708 Y  -1.603
G1 X  43.550 Y  -4.235
G1 X  44.412 Y  -6.849
G1 X  45.293 Y  -9.443
G1 X  46.191 Y -12.014
G1 X  47.105 Y -14.561
G1 X  48.035 Y -17.083
G1 X  48.980 Y -19.577
G1 X  49.939 Y -22.041
G1 X  50.909 Y -24.474
G1 X  51.891 Y -26.875
G1 X  52.884 Y -29.241
G1 X  53.885 Y -31.571
G1 X  54.893 Y -33.863
G1 X  55.908 Y -36.117
G1 X  56.928 Y -38.329
G1 X  57.952 Y -40.500
G1 X  58.978 Y -42.627
G1 X  60.005 Y -44.709
G1 X  61.031 Y -46.746
G1 X  62.056 Y -48.735
G1 X  63.077 Y -50.675
G1 X  64.093 Y -52.567
G1 X  65.103 Y -54.407
G1 X  66.104 Y -56.197
G1 X  67.097 Y -57.933
G1 X  68.079 Y -59.616
G1 X  69.048 Y -61.245
G1 X  70.003 Y -62.819
G1 X  70.942 Y -64.338
G1 X  71.865 Y -65.800
G1 X  72.769 Y -67.205
G1 X  73.652 Y -68.553
G1 X  74.514 Y -69.843
G1 X  75.353 Y -71.075
G1 X  76.167 Y -72.248
G1 X  76.954 Y -73.362
G1 X  77.714 Y -74.417
G1 X  78.444 Y -75.413
G1 X  79.143 Y -76.350
G1 X  79.810 Y -77.228
G1 X  80.444 Y -78.046
G1 X  81.042 Y -78.805
G1 X  81.604 Y -79.505
G1 X  82.128 Y -80.146
G1 X  82.613 Y -80.729
G1 X  83.057 Y -81.254
G1 X  83.459 Y -81.721
G1 X  83.818 Y -82.130
G1 X  84.133 Y -82.483
G1 X  84.402 Y -82.780
G1 X  84.625 Y -83.021
G1 X  84.800 Y -83.207
G1 X  84.926 Y -83.339
G1 X  85.003 Y -83.417
G1 X  85.028 Y -83.443
G1 X  85.003 Y -83.418
G1 X  84.924 Y -83.341
G1 X  84.792 Y -83.215
G1 X  84.606 Y -83.040
G1 X  84.365 Y -82.817
G1 X  84.068 Y -82.548
G1 X  83.715 Y -82.233
G1 X  83.306 Y -81.874
G1 X  82.839 Y -81.472
G1 X  82.314 Y -81.027
G1 X  81.731 Y -80.543
G1 X  81.090 Y -80.019
G1 X  80.390 Y -79.457
G1 X  79.631 Y -78.859
G1 X  78.813 Y -78.225
G1 X  77.935 Y -77.558
G1 X  76.998 Y -76.859
G1 X  76.002 Y -76.128
G1 X  74.947 Y -75.369
G1 X  73.833 Y -74.581
G1 X  72.660 Y -73.768
G1 X  71.428 Y -72.929
G1 X  70.138 Y -72.067
G1 X  68.790 Y -71.184
G1 X  67.385 Y -70.280
G1 X  65.923 Y -69.357
G1 X  64.405 Y -68.418
G1 X  62.831 Y -67.463
G1 X  61.201 Y -66.493
G1 X  59.518 Y -65.512
G1 X  57.782 Y -64.519
G1 X  55.993 Y -63.517
G1 X  54.152 Y -62.508
G1 X  52.261 Y -61.491
G1 X  50.320 Y -60.470
G1 X  48.331 Y -59.446
G1 X  46.294 Y -58.420
G1 X  44.212 Y -57.393
G1 X  42.085 Y -56.367
G1 X  39.914 Y -55.343
G1 X  37.702 Y -54.323
G1 X  35.448 Y -53.308
G1 X  33.156 Y -52.299
G1 X  30.826 Y -51.298
G1 X  28.460 Y -50.306
G1 X  26.059 Y -49.324
G1 X  23.626 Y -48.353
G1 X  21.162 Y -47.395
G1 X  18.668 Y -46.450
G1 X  16.146 Y -45.520
G1 X  13.599 Y -44.605
G1 X  11.028 Y -43.708
G1 X   8.434 Y -42.827
G1 X   5.821 Y -41.965
G1 X   3.189 Y -41.123
G1 X   0.540 Y -40.301
G1 X  -2.123 Y -39.499
G1 X  -4.798 Y -38.719
G1 X  -7.483 Y -37.962
G1 X -10.177 Y -37.228
F150
G1 Z  -3.000
F400
G1 X -12.877 Y -36.517
G1 X -15.582 Y -35.830
G1 X -18.288 Y -35.168
G1 X -20.995 Y -34.530
G1 X -23.700 Y -33.918
G1 X -26.400 Y -33.332
G1 X -29.095 Y -32.771
G1 X -31.781 Y -32.237
G1 X -34.457 Y -31.729
G1 X -37.120 Y -31.247
G1 X -39.769 Y -30.792
G1 X -42.401 Y -30.364
G1 X -45.014 Y -29.961
G1 X -47.607 Y -29.585
G1 X -50.177 Y -29.236
G1 X -52.722 Y -28.912
G1 X -55.241 Y -28.614
G1 X -57.730 Y -28.341
G1 X -60.189 Y -28.093
G1 X -62.615 Y -27.870
G1 X -65.007 Y -27.672
G1 X -67.362 Y -27.497
G1 X -69.679 Y -27.345
G1 X -71.956 Y -27.215
G1 X -74.190 Y -27.108
G1 X -76.382 Y -27.022
G1 X -78.528 Y -26.956
G1 X -80.627 Y -26.910
G1 X -82.677 Y -26.884
G1 X -84.677 Y -26.875
G1 X -86.626 Y -26.883
G1 X -88.521 Y -26.908
G1 X -90.362 Y -26.948
G1 X -92.147 Y -27.003
G1 X -93.874 Y -27.071
G1 X -95.543 Y -27.151
G1 X -97.152 Y -27.242
G1 X -98.700 Y -27.343
G1 X-100.186 Y -27.454
G1 X-101.609 Y -27.572
G1 X-102.968 Y -27.697
G1 X-104.261 Y -27.827
G1 X-105.489 Y -27.961
G1 X-106.650 Y -28.099
G1 X-107.743 Y -28.238
G1 X-108.769 Y -28.377
G1 X-109.725 Y -28.516
G1 X-110.612 Y -28.652
G1 X-111.430 Y -28.785
G1 X-112.177 Y -28.914
G1 X-112.853 Y -29.036
G1 X-113.459 Y -29.151
G1 X-113.993 Y -29.257
G1 X-114.456 Y -29.353
G1 X-114.848 Y -29.438
G1 X-115.168 Y -29.511
G1 X-115.416 Y -29.569
G1 X-115.594 Y -29.613
G1 X-115.700 Y -29.640
G1 X-115.735 Y -29.649
G1 X-115.700 Y -29.639
G1 X-115.595 Y -29.609
G1 X-115.419 Y -29.558
G1 X-115.175 Y -29.485
G1 X-114.861 Y -29.387
G1 X-114.480 Y -29.265
G1 X-114.031 Y -29.117
G1 X-113.515 Y -28.942
G1 X-112.933 Y -28.738
G1 X-112.286 Y -28.506
G1 X-111.575 Y -28.244
G1 X-110.801 Y -27.950
G1 X-109.964 Y -27.625
G1 X-109.066 Y -27.267
G1 X-108.109 Y -26.875
G1 X-107.092 Y -26.449
G1 X-106.018 Y -25.987
G1 X-104.887 Y -25.490
G1 X-103.702 Y -24.955
G1 X-102.463 Y -24.384
G1 X-101.172 Y -23.775
G1 X -99.830 Y -23.128
G1 X -98.438 Y -22.442
G1 X -96.999 Y -21.716
G1 X -95.514 Y -20.951
G1 X -93.984 Y -20.146
G1 X -92.411 Y -19.301
G1 X -90.797 Y -18.415
G1 X -89.143 Y -17.489
G1 X -87.451 Y -16.522
G1 X -85.723 Y -15.514
G1 X -83.961 Y -14.466
G1 X -82.166 Y -13.377
G1 X -80.341 Y -12.247
G1 X -78.486 Y -11.077
G1 X -76.604 Y  -9.866
G1 X -74.697 Y  -8.616
G1 X -72.767 Y  -7.326
G1 X -70.815 Y  -5.997
G1 X -68.843 Y  -4.629
G1 X -66.853 Y  -3.223
G1 X -64.847 Y  -1.779
G1 X -62.828 Y  -0.298
G1 X -60.796 Y   1.219
G1 X -58.754 Y   2.772
G1 X -56.703 Y   4.360
G1 X -54.645 Y   5.982
G1 X -52.583 Y   7.637
G1 X -50.518 Y   9.325
G1 X -48.452 Y  11.043
G1 X -46.386 Y  12.792
G1 X -44.323 Y  14.570
G1 X -42.264 Y  16.376
G1 X -40.210 Y  18.208
G1 X -38.165 Y  20.066
G1 X -36.128 Y  21.949
G1 X -34.103 Y  23.854
G1 X -32.090 Y  25.781
G1 X -30.092 Y  27.728
G1 X -28.109 Y  29.694
G1 X -26.143 Y  31.677
G1 X -24.196 Y  33.675
G1 X -22.269 Y  35.688
G1 X -20.364 Y  37.714
G1 X -18.481 Y  39.750
G1 X -16.623 Y  41.796
G1 X -14.791 Y  43.849
G1 X -12.985 Y  45.908
G1 X -11.207 Y  47.971
G1 X  -9.458 Y  50.037
G1 X  -7.740 Y  52.103
G1 X  -6.052 Y  54.168
G1 X  -4.397 Y  56.231
G1 X  -2.775 Y  58.288
G1 X  -1.187 Y  60.339
G1 X   0.366 Y  62.381
G1 X   1.883 Y  64.413
G1 X   3.364 Y  66.433
G1 X   4.808 Y  68.438
G1 X   6.214 Y  70.428
G1 X   7.582 Y  72.400
G1 X   8.911 Y  74.352
G1 X  10.201 Y  76.282
G1 X  11.451 Y  78.189
G1 X  12.662 Y  80.071
G1 X  13.832 Y  81.926
G1 X  14.962 Y  83.751
G1 X  16.051 Y  85.546
G1 X  17.099 Y  87.308
G1 X  18.107 Y  89.036
G1 X  19.074 Y  90.728
G1 X  20.000 Y  92.382
G1 X  20.886 Y  93.996
G1 X  21.731 Y  95.569
G1 X  22.536 Y  97.099
G1 X  23.301 Y  98.584
G1 X  24.027 Y 100.023
G1 X  24.713 Y 101.415
G1 X  25.360 Y 102.757
G1 X  25.969 Y 104.048
G1 X  26.541 Y 105.287
G1 X  27.075 Y 106.473
G1 X  27.572 Y 107.603
G1 X  28.034 Y 108.677
G1 X  28.460 Y 109.694
G1 X  28.852 Y 110.651
G1 X  29.210 Y 111.549
G1 X  29.535 Y 112.386
G1 X  29.829 Y 113.160
G1 X  30.091 Y 113.871
G1 X  30.324 Y 114.518
G1 X  30.527 Y 115.100
G1 X  30.702 Y 115.616
G1 X  30.850 Y 116.065
G1 X  30.972 Y 116.446
G1 X  31.070 Y 116.760
G1 X  31.143 Y 117.004
G1 X  31.194 Y 117.180
G1 X  31.224 Y 117.285
G1 X  31.234 Y 117.321
G1 X  31.225 Y 117.285
G1 X  31.198 Y 117.179
G1 X  31.154 Y 117.001
G1 X  31.096 Y 116.753
G1 X  31.024 Y 116.433
G1 X  30.939 Y 116.041
G1 X  30.842 Y 115.578
G1 X  30.736 Y 115.044
G1 X  30.621 Y 114.438
G1 X  30.499 Y 113.762
G1 X  30.371 Y 113.015
G1 X  30.238 Y 112.197
G1 X  30.101 Y 111.310
G1 X  29.962 Y 110.354
G1 X  29.823 Y 109.328
G1 X  29.684 Y 108.235
G1 X  29.546 Y 107.074
G1 X  29.412 Y 105.846
G1 X  29.282 Y 104.553
G1 X  29.157 Y 103.194
G1 X  29.039 Y 101.771
G1 X  28.928 Y 100.285
G1 X  28.827 Y  98.737
G1 X  28.736 Y  97.128
G1 X  28.656 Y  95.459
G1 X  28.588 Y  93.732
G1 X  28.533 Y  91.947
G1 X  28.493 Y  90.106
G1 X  28.468 Y  88.211
G1 X  28.460 Y  86.262
G1 X  28.469 Y  84.262
G1 X  28.496 Y  82.212
G1 X  28.541 Y  80.113
G1 X  28.607 Y  77.967
G1 X  28.693 Y  75.775
G1 X  28.801 Y  73.541
G1 X  28.930 Y  71.264
G1 X  29.082 Y  68.947
G1 X  29.257 Y  66.592
G1 X  29.456 Y  64.200
G1 X  29.678 Y  61.774
G1 X  29.926 Y  59.315
G1 X  30.199 Y  56.826
G1 X  30.497 Y  54.307
G1 X  30.821 Y  51.762
G1 X  31.170 Y  49.192
G1 X  31.546 Y  46.600
G1 X  31.949 Y  43.986
G1 X  32.377 Y  41.354
G1 X  32.833 Y  38.705
G1 X  33.314 Y  36.042
G1 X  33.822 Y  33.366
G1 X  34.356 Y  30.680
G1 X  34.917 Y  27.985
G1 X  35.503 Y  25.285
G1 X  36.115 Y  22.580
G1 X  36.753 Y  19.873
G1 X  37.415 Y  17.167
G1 X  38.102 Y  14.462
G1 X  38.813 Y  11.762
G1 X  39.547 Y   9.068
G1 X  40.305 Y   6.383
G1 X  41.084 Y   3.708
G1 X  41.886 Y   1.045
G1 X  42.708 Y  -1.603
G1 X  43.550 Y  -4.235
G1 X  44.412 Y  -6.849
G1 X  45.293 Y  -9.443
G1 X  46.191 Y -12.014
G1 X  47.105 Y -14.561
G1 X  48.035 Y -17.083
G1 X  48.980 Y -19.577
G1 X  49.939 Y -22.041
G1 X  50.909 Y -24.474
G1 X  51.891 Y -26.875
G1 X  52.884 Y -29.241
G1 X  53.885 Y -31.571
G1 X  54.893 Y -33.863
G1 X  55.908 Y -36.117
G1 X  56.928 Y -38.329
G1 X  57.952 Y -40.500
G1 X  58.978 Y -42.627
G1 X  60.005 Y -44.709
G1 X  61.031 Y -46.746
G1 X  62.056 Y -48.735
G1 X  63.077 Y -50.675
G1 X  64.093 Y -52.567
G1 X  65.103 Y -54.407
G1 X  66.104 Y -56.197
G1 X  67.097 Y -57.933
G1 X  68.079 Y -59.616
G1 X  69.048 Y -61.245
G1 X  70.003 Y -62.819
G1 X  70.942 Y -64.338
G1 X  71.865 Y -65.800
G1 X  72.769 Y -67.205
G1 X  73.652 Y -68.553
G1 X  74.514 Y -69.843
G1 X  75.353 Y -71.075
G1 X  76.167 Y -72.248
G1 X  76.954 Y -73.362
G1 X  77.714 Y -74.417
G1 X  78.444 Y -75.413
G1 X  79.143 Y -76.350
G1 X  79.810 Y -77.228
G1 X  80.444 Y -78.046
G1 X  81.042 Y -78.805
G1 X  81.604 Y -79.505
G1 X  82.128 Y -80.146
G1 X  82.613 Y -80.729
G1 X  83.057 Y -81.254
G1 X  83.459 Y -81.721
G1 X  83.818 Y -82.130
G1 X  84.133 Y -82.483
G1 X  84.402 Y -82.780
G1 X  84.625 Y -83.021
G1 X  84.800 Y -83.207
G1 X  84.926 Y -83.339
G1 X  85.003 Y -83.417
G1 X  85.028 Y -83.443
G1 X  85.003 Y -83.418
G1 X  84.924 Y -83.341
G1 X  84.792 Y -83.215
G1 X  84.606 Y -83.040
G1 X  84.365 Y -82.817
G1 X  84.068 Y -82.548
G1 X  83.715 Y -82.233
G1 X  83.306 Y -81.874
G1 X  82.839 Y -81.472
G1 X  82.314 Y -81.027
G1 X  81.731 Y -80.543
G1 X  81.090 Y -80.019
G1 X  80.390 Y -79.457
G1 X  79.631 Y -78.859
G1 X  78.813 Y -78.225
G1 X  77.935 Y -77.558
G1 X  76.998 Y -76.859
G1 X  76.002 Y -76.128
G1 X  74.947 Y -75.369
G1 X  73.833 Y -74.581
G1 X  72.660 Y -73.768
G1 X  71.428 Y -72.929
G1 X  70.138 Y -72.067
G1 X  68.790 Y -71.184
G1 X  67.385 Y -70.280
G1 X  65.923 Y -69.357
G1 X  64.405 Y -68.418
G1 X  62.831 Y -67.463
G1 X  61.201 Y -66.493
G1 X  59.518 Y -65.512
G1 X  57.782 Y -64.519
G1 X  55.993 Y -63.517
G1 X  54.152 Y -62.508
G1 X  52.261 Y -61.491
G1 X  50.320 Y -60.470
G1 X  48.331 Y -59.446
G1 X  46.294 Y -58.420
G1 X  44.212 Y -57.393
G1 X  42.085 Y -56.367
G1 X  39.914 Y -55.343
G1 X  37.702 Y -54.323
G1 X  35.448 Y -53.308
G1 X  33.156 Y -52.299
G1 X  30.826 Y -51.298
G1 X  28.460 Y -50.306
G1 X  26.059 Y -49.324
G1 X  23.626 Y -48.353
G1 X  21.162 Y -47.395
G1 X  18.668 Y -46.450
G1 X  16.146 Y -45.520
G1 X  13.599 Y -44.605
G1 X  11.028 Y -43.708
G1 X   8.434 Y -42.827
G1 X   5.821 Y -41.965
G1 X   3.189 Y -41.123
G1 X   0.540 Y -40.301
G1 X  -2.123 Y -39.499
G1 X  -4.798 Y -38.719
G1 X  -7.483 Y -37.962
G1 X -10.177 Y -37.228
F150
G1 Z   3.000
G0 Z  15.000 
M9 M5

(* SHAPE Nr: 6 *)
G0 X  -2.440 Y -38.505
M3 M8
G0 Z   3.000 
G1 Z  -1.500
F400
G1 X  -5.227 Y -38.334
G1 X  -8.014 Y -38.188
G1 X -10.798 Y -38.067
G1 X -13.577 Y -37.970
G1 X -16.349 Y -37.897
G1 X -19.112 Y -37.849
G1 X -21.864 Y -37.825
G1 X -24.603 Y -37.825
G1 X -27.326 Y -37.849
G1 X -30.032 Y -37.896
G1 X -32.719 Y -37.966
G1 X -35.384 Y -38.059
G1 X -38.026 Y -38.175
G1 X -40.642 Y -38.312
G1 X -43.231 Y -38.470
G1 X -45.790 Y -38.649
G1 X -48.319 Y -38.848
G1 X -50.813 Y -39.066
G1 X -53.273 Y -39.303
G1 X -55.696 Y -39.558
G1 X -58.081 Y -39.829
G1 X -60.425 Y -40.117
G1 X -62.727 Y -40.420
G1 X -64.985 Y -40.738
G1 X -67.198 Y -41.068
G1 X -69.364 Y -41.411
G1 X -71.481 Y -41.766
G1 X -73.549 Y -42.130
G1 X -75.565 Y -42.504
G1 X -77.529 Y -42.885
G1 X -79.438 Y -43.274
G1 X -81.292 Y -43.668
G1 X -83.090 Y -44.066
G1 X -84.830 Y -44.468
G1 X -86.511 Y -44.871
G1 X -88.132 Y -45.276
G1 X -89.692 Y -45.679
G1 X -91.191 Y -46.081
G1 X -92.627 Y -46.479
G1 X -93.999 Y -46.872
G1 X -95.307 Y -47.260
G1 X -96.551 Y -47.640
G1 X -97.729 Y -48.011
G1 X -98.841 Y -48.372
G1 X -99.886 Y -48.722
G1 X-100.864 Y -49.059
G1 X-101.775 Y -49.382
G1 X-102.619 Y -49.688
G1 X-103.394 Y -49.978
G1 X-104.102 Y -50.250
G1 X-104.742 Y -50.502
G1 X-105.313 Y -50.733
G1 X-105.816 Y -50.941
G1 X-106.252 Y -51.126
G1 X-106.619 Y -51.286
G1 X-106.919 Y -51.419
G1 X-107.152 Y -51.525
G1 X-107.317 Y -51.602
G1 X-107.416 Y -51.649
G1 X-107.449 Y -51.665
G1 X-107.416 Y -51.649
G1 X-107.319 Y -51.599
G1 X-107.157 Y -51.515
G1 X-106.931 Y -51.395
G1 X-106.643 Y -51.238
G1 X-106.292 Y -51.044
G1 X-105.881 Y -50.811
G1 X-105.409 Y -50.538
G1 X-104.878 Y -50.226
G1 X-104.289 Y -49.871
G1 X-103.643 Y -49.475
G1 X-102.940 Y -49.037
G1 X-102.183 Y -48.554
G1 X-101.373 Y -48.028
G1 X-100.510 Y -47.457
G1 X -99.596 Y -46.840
G1 X -98.633 Y -46.178
G1 X -97.621 Y -45.469
G1 X -96.563 Y -44.714
G1 X -95.459 Y -43.912
G1 X -94.311 Y -43.063
G1 X -93.121 Y -42.166
G1 X -91.890 Y -41.222
G1 X -90.620 Y -40.230
G1 X -89.313 Y -39.189
G1 X -87.969 Y -38.101
G1 X -86.591 Y -36.966
G1 X -85.181 Y -35.782
G1 X -83.740 Y -34.551
G1 X -82.269 Y -33.273
G1 X -80.771 Y -31.947
G1 X -79.247 Y -30.575
G1 X -77.699 Y -29.157
G1 X -76.129 Y -27.693
G1 X -74.539 Y -26.183
G1 X -72.929 Y -24.629
G1 X -71.303 Y -23.030
G1 X -69.661 Y -21.388
G1 X -68.006 Y -19.704
G1 X -66.339 Y -17.978
G1 X -64.661 Y -16.210
G1 X -62.976 Y -14.403
G1 X -61.284 Y -12.556
G1 X -59.587 Y -10.672
G1 X -57.887 Y  -8.750
G1 X -56.186 Y  -6.793
G1 X -54.484 Y  -4.801
G1 X -52.785 Y  -2.775
G1 X -51.088 Y  -0.717
G1 X -49.397 Y   1.371
G1 X -47.712 Y   3.490
G1 X -46.035 Y   5.636
G1 X -44.368 Y   7.809
G1 X -42.712 Y  10.007
G1 X -41.068 Y  12.228
G1 X -39.438 Y  14.471
G1 X -37.823 Y  16.735
G1 X -36.225 Y  19.018
G1 X -34.644 Y  21.317
G1 X -33.083 Y  23.632
G1 X -31.542 Y  25.961
G1 X -30.022 Y  28.301
G1 X -28.525 Y  30.651
G1 X -27.052 Y  33.009
G1 X -25.603 Y  35.373
G1 X -24.179 Y  37.742
G1 X -22.782 Y  40.114
G1 X -21.413 Y  42.485
G1 X -20.072 Y  44.856
G1 X -18.760 Y  47.223
G1 X -17.477 Y  49.585
G1 X -16.225 Y  51.940
G1 X -15.004 Y  54.285
G1 X -13.815 Y  56.619
G1 X -12.658 Y  58.940
G1 X -11.533 Y  61.246
G1 X -10.441 Y  63.535
G1 X  -9.383 Y  65.805
G1 X  -8.358 Y  68.054
G1 X  -7.367 Y  70.280
G1 X  -6.410 Y  72.480
G1 X  -5.487 Y  74.654
G1 X  -4.599 Y  76.799
G1 X  -3.744 Y  78.914
G1 X  -2.924 Y  80.996
G1 X  -2.138 Y  83.043
G1 X  -1.386 Y  85.054
G1 X  -0.668 Y  87.027
G1 X   0.016 Y  88.960
G1 X   0.667 Y  90.851
G1 X   1.286 Y  92.699
G1 X   1.872 Y  94.501
G1 X   2.425 Y  96.257
G1 X   2.947 Y  97.965
G1 X   3.438 Y  99.622
G1 X   3.899 Y 101.228
G1 X   4.330 Y 102.782
G1 X   4.731 Y 104.280
G1 X   5.104 Y 105.723
G1 X   5.450 Y 107.108
G1 X   5.768 Y 108.435
G1 X   6.061 Y 109.702
G1 X   6.328 Y 110.907
G1 X   6.571 Y 112.051
G1 X   6.791 Y 113.131
G1 X   6.989 Y 114.147
G1 X   7.165 Y 115.097
G1 X   7.321 Y 115.981
G1 X   7.458 Y 116.798
G1 X   7.576 Y 117.546
G1 X   7.678 Y 118.226
G1 X   7.764 Y 118.836
G1 X   7.835 Y 119.377
G1 X   7.893 Y 119.846
G1 X   7.938 Y 120.244
G1 X   7.972 Y 120.570
G1 X   7.997 Y 120.825
G1 X   8.013 Y 121.007
G1 X   8.021 Y 121.116
G1 X   8.024 Y 121.153
G1 X   8.022 Y 121.116
G1 X   8.016 Y 121.007
G1 X   8.008 Y 120.824
G1 X   7.999 Y 120.569
G1 X   7.991 Y 120.241
G1 X   7.984 Y 119.840
G1 X   7.980 Y 119.367
G1 X   7.980 Y 118.822
G1 X   7.985 Y 118.206
G1 X   7.997 Y 117.519
G1 X   8.017 Y 116.761
G1 X   8.046 Y 115.934
G1 X   8.085 Y 115.037
G1 X   8.136 Y 114.072
G1 X   8.199 Y 113.039
G1 X   8.276 Y 111.939
G1 X   8.368 Y 110.774
G1 X   8.476 Y 109.543
G1 X   8.600 Y 108.249
G1 X   8.743 Y 106.892
G1 X   8.905 Y 105.474
G1 X   9.086 Y 103.995
G1 X   9.289 Y 102.456
G1 X   9.513 Y 100.861
G1 X   9.760 Y  99.208
G1 X  10.031 Y  97.501
G1 X  10.325 Y  95.740
G1 X  10.645 Y  93.926
G1 X  10.991 Y  92.063
G1 X  11.363 Y  90.150
G1 X  11.761 Y  88.190
G1 X  12.188 Y  86.184
G1 X  12.642 Y  84.134
G1 X  13.125 Y  82.042
G1 X  13.637 Y  79.910
G1 X  14.178 Y  77.739
G1 X  14.749 Y  75.531
G1 X  15.350 Y  73.289
G1 X  15.982 Y  71.013
G1 X  16.643 Y  68.706
G1 X  17.335 Y  66.370
G1 X  18.058 Y  64.007
G1 X  18.811 Y  61.618
G1 X  19.594 Y  59.206
G1 X  20.409 Y  56.773
G1 X  21.253 Y  54.321
G1 X  22.127 Y  51.851
G1 X  23.032 Y  49.367
G1 X  23.966 Y  46.869
G1 X  24.929 Y  44.360
G1 X  25.921 Y  41.841
G1 X  26.941 Y  39.316
G1 X  27.989 Y  36.786
G1 X  29.065 Y  34.252
G1 X  30.167 Y  31.718
G1 X  31.295 Y  29.185
G1 X  32.448 Y  26.654
G1 X  33.625 Y  24.129
G1 X  34.827 Y  21.611
G1 X  36.051 Y  19.101
G1 X  37.296 Y  16.602
G1 X  38.563 Y  14.116
G1 X  39.850 Y  11.644
G1 X  41.155 Y   9.189
G1 X  42.479 Y   6.752
G1 X  43.818 Y   4.335
G1 X  45.174 Y   1.940
G1 X  46.543 Y  -0.432
G1 X  47.925 Y  -2.779
G1 X  49.319 Y  -5.099
G1 X  50.723 Y  -7.390
G1 X  52.137 Y  -9.652
G1 X  53.557 Y -11.882
G1 X  54.984 Y -14.079
G1 X  56.416 Y -16.242
G1 X  57.850 Y -18.369
G1 X  59.287 Y -20.459
G1 X  60.723 Y -22.511
G1 X  62.158 Y -24.523
G1 X  63.590 Y -26.494
G1 X  65.018 Y -28.423
G1 X  66.439 Y -30.309
G1 X  67.852 Y -32.151
G1 X  69.256 Y -33.948
G1 X  70.649 Y -35.699
G1 X  72.029 Y -37.403
G1 X  73.395 Y -39.060
G1 X  74.744 Y -40.668
G1 X  76.076 Y -42.228
G1 X  77.388 Y -43.737
G1 X  78.679 Y -45.197
G1 X  79.948 Y -46.605
G1 X  81.192 Y -47.963
G1 X  82.409 Y -49.269
G1 X  83.599 Y -50.523
G1 X  84.760 Y -51.725
G1 X  85.889 Y -52.874
G1 X  86.986 Y -53.971
G1 X  88.049 Y -55.016
G1 X  89.076 Y -56.007
G1 X  90.066 Y -56.947
G1 X  91.017 Y -57.833
G1 X  91.927 Y -58.668
G1 X  92.796 Y -59.450
G1 X  93.622 Y -60.181
G1 X  94.403 Y -60.860
G1 X  95.137 Y -61.487
G1 X  95.825 Y -62.064
G1 X  96.464 Y -62.591
G1 X  97.053 Y -63.068
G1 X  97.591 Y -63.496
G1 X  98.077 Y -63.875
G1 X  98.509 Y -64.207
G1 X  98.886 Y -64.492
G1 X  99.208 Y -64.730
G1 X  99.474 Y -64.923
G1 X  99.682 Y -65.072
G1 X  99.831 Y -65.176
G1 X  99.922 Y -65.239
G1 X  99.952 Y -65.259
G1 X  99.922 Y -65.239
G1 X  99.830 Y -65.179
G1 X  99.675 Y -65.081
G1 X  99.459 Y -64.946
G1 X  99.179 Y -64.774
G1 X  98.835 Y -64.568
G1 X  98.428 Y -64.328
G1 X  97.956 Y -64.056
G1 X  97.420 Y -63.752
G1 X  96.818 Y -63.419
G1 X  96.152 Y -63.057
G1 X  95.421 Y -62.669
G1 X  94.625 Y -62.254
G1 X  93.764 Y -61.816
G1 X  92.838 Y -61.354
G1 X  91.847 Y -60.871
G1 X  90.792 Y -60.367
G1 X  89.672 Y -59.846
G1 X  88.489 Y -59.306
G1 X  87.243 Y -58.751
G1 X  85.933 Y -58.182
G1 X  84.562 Y -57.600
G1 X  83.128 Y -57.006
G1 X  81.634 Y -56.403
G1 X  80.080 Y -55.790
G1 X  78.466 Y -55.171
G1 X  76.793 Y -54.546
G1 X  75.063 Y -53.916
G1 X  73.276 Y -53.283
G1 X  71.434 Y -52.649
G1 X  69.537 Y -52.014
G1 X  67.587 Y -51.381
G1 X  65.584 Y -50.749
G1 X  63.531 Y -50.122
G1 X  61.429 Y -49.499
G1 X  59.278 Y -48.882
G1 X  57.080 Y -48.273
G1 X  54.838 Y -47.672
G1 X  52.551 Y -47.081
G1 X  50.223 Y -46.500
G1 X  47.853 Y -45.931
G1 X  45.446 Y -45.375
G1 X  43.000 Y -44.833
G1 X  40.520 Y -44.306
G1 X  38.006 Y -43.795
G1 X  35.460 Y -43.300
G1 X  32.884 Y -42.822
G1 X  30.280 Y -42.363
G1 X  27.649 Y -41.923
G1 X  24.995 Y -41.503
G1 X  22.318 Y -41.103
G1 X  19.621 Y -40.724
G1 X  16.906 Y -40.366
G1 X  14.174 Y -40.031
G1 X  11.428 Y -39.718
G1 X   8.670 Y -39.428
G1 X   5.902 Y -39.161
G1 X   3.127 Y -38.919
G1 X   0.345 Y -38.700
G1 X  -2.440 Y -38.505
F150
G1 Z  -3.000
F400
G1 X  -5.227 Y -38.334
G1 X  -8.014 Y -38.188
G1 X -10.798 Y -38.067
G1 X -13.577 Y -37.970
G1 X -16.349 Y -37.897
G1 X -19.112 Y -37.849
G1 X -21.864 Y -37.825
G1 X -24.603 Y -37.825
G1 X -27.326 Y -37.849
G1 X -30.032 Y -37.896
G1 X -32.719 Y -37.966
G1 X -35.384 Y -38.059
G1 X -38.026 Y -38.175
G1 X -40.642 Y -38.312
G1 X -43.231 Y -38.470
G1 X -45.790 Y -38.649
G1 X -48.319 Y -38.848
G1 X -50.813 Y -39.066
G1 X -53.273 Y -39.303
G1 X -55.696 Y -39.558
G1 X -58.081 Y -39.829
G1 X -60.425 Y -40.117
G1 X -62.727 Y -40.420
G1 X -64.985 Y -40.738
G1 X -67.198 Y -41.068
G1 X -69.364 Y -41.411
G1 X -71.481 Y -41.766
G1 X -73.549 Y -42.130
G1 X -75.565 Y -42.504
G1 X -77.529 Y -42.885
G1 X -79.438 Y -43.274
G1 X -81.292 Y -43.668
G1 X -83.090 Y -44.066
G1 X -84.830 Y -44.468
G1 X -86.511 Y -44.871
G1 X -88.132 Y -45.276
G1 X -89.692 Y -45.679
G1 X -91.191 Y -46.081
G1 X -92.627 Y -46.479
G1 X -93.999 Y -46.872
G1 X -95.307 Y -47.260
G1 X -96.551 Y -47.640
G1 X -97.729 Y -48.011
G1 X -98.841 Y -48.372
G1 X -99.886 Y -48.722
G1 X-100.864 Y -49.059
G1 X-101.775 Y -49.382
G1 X-102.619 Y -49.688
G1 X-103.394 Y -49.978
G1 X-104.102 Y -50.250
G1 X-104.742 Y -50.502
G1 X-105.313 Y -50.733
G1 X-105.816 Y -50.941
G1 X-106.252 Y -51.126
G1 X-106.619 Y -51.286
G1 X-106.919 Y -51.419
G1 X-107.152 Y -51.525
G1 X-107.317 Y -51.602
G1 X-107.416 Y -51.649
G1 X-107.449 Y -51.665
G1 X-107.416 Y -51.649
G1 X-107.319 Y -51.599
G1 X-107.157 Y -51.515
G1 X-106.931 Y -51.395
G1 X-106.643 Y -51.238
G1 X-106.292 Y -51.044
G1 X-105.881 Y -50.811
G1 X-105.409 Y -50.538
G1 X-104.878 Y -50.226
G1 X-104.289 Y -49.871
G1 X-103.643 Y -49.475
G1 X-102.940 Y -49.037
G1 X-102.183 Y -48.554
G1 X-101.373 Y -48.028
G1 X-100.510 Y -47.457
G1 X -99.596 Y -46.840
G1 X -98.633 Y -46.178
G1 X -97.621 Y -45.469
G1 X -96.563 Y -44.714
G1 X -95.459 Y -43.912
G1 X -94.311 Y -43.063
G1 X -93.121 Y -42.166
G1 X -91.890 Y -41.222
G1 X -90.620 Y -40.230
G1 X -89.313 Y -39.189
G1 X -87.969 Y -38.101
G1 X -86.591 Y -36.966
G1 X -85.181 Y -35.782
G1 X -83.740 Y -34.551
G1 X -82.269 Y -33.273
G1 X -80.771 Y -31.947
G1 X -79.247 Y -30.575
G1 X -77.699 Y -29.157
G1 X -76.129 Y -27.693
G1 X -74.539 Y -26.183
G1 X -72.929 Y -24.629
G1 X -71.303 Y -23.030
G1 X -69.661 Y -21.388
G1 X -68.006 Y -19.704
G1 X -66.339 Y -17.978
G1 X -64.661 Y -16.210
G1 X -62.976 Y -14.403
G1 X -61.284 Y -12.556
G1 X -59.587 Y -10.672
G1 X -57.887 Y  -8.750
G1 X -56.186 Y  -6.793
G1 X -54.484 Y  -4.801
G1 X -52.785 Y  -2.775
G1 X -51.088 Y  -0.717
G1 X -49.397 Y   1.371
G1 X -47.712 Y   3.490
G1 X -46.035 Y   5.636
G1 X -44.368 Y   7.809
G1 X -42.712 Y  10.007
G1 X -41.068 Y  12.228
G1 X -39.438 Y  14.471
G1 X -37.823 Y  16.735
G1 X -36.225 Y  19.018
G1 X -34.644 Y  21.317
G1 X -33.083 Y  23.632
G1 X -31.542 Y  25.961
G1 X -30.022 Y  28.301
G1 X -28.525 Y  30.651
G1 X -27.052 Y  33.009
G1 X -25.603 Y  35.373
G1 X -24.179 Y  37.742
G1 X -22.782 Y  40.114
G1 X -21.413 Y  42.485
G1 X -20.072 Y  44.856
G1 X -18.760 Y  47.223
G1 X -17.477 Y  49.585
G1 X -16.225 Y  51.940
G1 X -15.004 Y  54.285
G1 X -13.815 Y  56.619
G1 X -12.658 Y  58.940
G1 X -11.533 Y  61.246
G1 X -10.441 Y  63.535
G1 X  -9.383 Y  65.805
G1 X  -8.358 Y  68.054
G1 X  -7.367 Y  70.280
G1 X  -6.410 Y  72.480
G1 X  -5.487 Y  74.654
G1 X  -4.599 Y  76.799
G1 X  -3.744 Y  78.914
G1 X  -2.924 Y  80.996
G1 X  -2.138 Y  83.043
G1 X  -1.386 Y  85.054
G1 X  -0.668 Y  87.027
G1 X   0.016 Y  88.960
G1 X   0.667 Y  90.851
G1 X   1.286 Y  92.699
G1 X   1.872 Y  94.501
G1 X   2.425 Y  96.257
G1 X   2.947 Y  97.965
G1 X   3.438 Y  99.622
G1 X   3.899 Y 101.228
G1 X   4.330 Y 102.782
G1 X   4.731 Y 104.280
G1 X   5.104 Y 105.723
G1 X   5.450 Y 107.108
G1 X   5.768 Y 108.435
G1 X   6.061 Y 109.702
G1 X   6.328 Y 110.907
G1 X   6.571 Y 112.051
G1 X   6.791 Y 113.131
G1 X   6.989 Y 114.147
G1 X   7.165 Y 115.097
G1 X   7.321 Y 115.981
G1 X   7.458 Y 116.798
G1 X   7.576 Y 117.546
G1 X   7.678 Y 118.226
G1 X   7.764 Y 118.836
G1 X   7.835 Y 119.377
G1 X   7.893 Y 119.846
G1 X   7.938 Y 120.244
G1 X   7.972 Y 120.570
G1 X   7.997 Y 120.825
G1 X   8.013 Y 121.007
G1 X   8.021 Y 121.116
G1 X   8.024 Y 121.153
G1 X   8.022 Y 121.116
G1 X   8.016 Y 121.007
G1 X   8.008 Y 120.824
G1 X   7.999 Y 120.569
G1 X   7.991 Y 120.241
G1 X   7.984 Y 119.840
G1 X   7.980 Y 119.367
G1 X   7.980 Y 118.822
G1 X   7.985 Y 118.206
G1 X   7.997 Y 117.519
G1 X   8.017 Y 116.761
G1 X   8.046 Y 115.934
G1 X   8.085 Y 115.037
G1 X   8.136 Y 114.072
G1 X   8.199 Y 113.039
G1 X   8.276 Y 111.939
G1 X   8.368 Y 110.774
G1 X   8.476 Y 109.543
G1 X   8.600 Y 108.249
G1 X   8.743 Y 106.892
G1 X   8.905 Y 105.474
G1 X   9.086 Y 103.995
G1 X   9.289 Y 102.456
G1 X   9.513 Y 100.861
G1 X   9.760 Y  99.208
G1 X  10.031 Y  97.501
G1 X  10.325 Y  95.740
G1 X  10.645 Y  93.926
G1 X  10.991 Y  92.063
G1 X  11.363 Y  90.150
G1 X  11.761 Y  88.190
G1 X  12.188 Y  86.184
G1 X  12.642 Y  84.134
G1 X  13.125 Y  82.042
G1 X  13.637 Y  79.910
G1 X  14.178 Y  77.739
G1 X  14.749 Y  75.531
G1 X  15.350 Y  73.289
G1 X  15.982 Y  71.013
G1 X  16.643 Y  68.706
G1 X  17.335 Y  66.370
G1 X  18.058 Y  64.007
G1 X  18.811 Y  61.618
G1 X  19.594 Y  59.206
G1 X  20.409 Y  56.773
G1 X  21.253 Y  54.321
G1 X  22.127 Y  51.851
G1 X  23.032 Y  49.367
G1 X  23.966 Y  46.869
G1 X  24.929 Y  44.360
G1 X  25.921 Y  41.841
G1 X  26.941 Y  39.316
G1 X  27.989 Y  36.786
G1 X  29.065 Y  34.252
G1 X  30.167 Y  31.718
G1 X  31.295 Y  29.185
G1 X  32.448 Y  26.654
G1 X  33.625 Y  24.129
G1 X  34.827 Y  21.611
G1 X  36.051 Y  19.101
G1 X  37.296 Y  16.602
G1 X  38.563 Y  14.116
G1 X  39.850 Y  11.644
G1 X  41.155 Y   9.189
G1 X  42.479 Y   6.752
G1 X  43.818 Y   4.335
G1 X  45.174 Y   1.940
G1 X  46.543 Y  -0.432
G1 X  47.925 Y  -2.779
G1 X  49.319 Y  -5.099
G1 X  50.723 Y  -7.390
G1 X  52.137 Y  -9.652
G1 X  53.557 Y -11.882
G1 X  54.984 Y -14.079
G1 X  56.416 Y -16.242
G1 X  57.850 Y -18.369
G1 X  59.287 Y -20.459
G1 X  60.723 Y -22.511
G1 X  62.158 Y -24.523
G1 X  63.590 Y -26.494
G1 X  65.018 Y -28.423
G1 X  66.439 Y -30.309
G1 X  67.852 Y -32.151
G1 X  69.256 Y -33.948
G1 X  70.649 Y -35.699
G1 X  72.029 Y -37.403
G1 X  73.395 Y -39.060
G1 X  74.744 Y -40.668
G1 X  76.076 Y -42.228
G1 X  77.388 Y -43.737
G1 X  78.679 Y -45.197
G1 X  79.948 Y -46.605
G1 X  81.192 Y -47.963
G1 X  82.409 Y -49.269
G1 X  83.599 Y -50.523
G1 X  84.760 Y -51.725
G1 X  85.889 Y -52.874
G1 X  86.986 Y -53.971
G1 X  88.049 Y -55.016
G1 X  89.076 Y -56.007
G1 X  90.066 Y -56.947
G1 X  91.017 Y -57.833
G1 X  91.927 Y -58.668
G1 X  92.796 Y -59.450
G1 X  93.622 Y -60.181
G1 X  94.403 Y -60.860
G1 X  95.137 Y -61.487
G1 X  95.825 Y -62.064
G1 X  96.464 Y -62.591
G1 X  97.053 Y -63.068
G1 X  97.591 Y -63.496
G1 X  98.077 Y -63.875
G1 X  98.509 Y -64.207
G1 X  98.886 Y -64.492
G1 X  99.208 Y -64.730
G1 X  99.474 Y -64.923
G1 X  99.682 Y -65.072
G1 X  99.831 Y -65.176
G1 X  99.922 Y -65.239
G1 X  99.952 Y -65.259
G1 X  99.922 Y -65.239
G1 X  99.830 Y -65.179
G1 X  99.675 Y -65.081
G1 X  99.459 Y -64.946
G1 X  99.179 Y -64.774
G1 X  98.835 Y -64.568
G1 X  98.428 Y -64.328
G1 X  97.956 Y -64.056
G1 X  97.420 Y -63.752
G1 X  96.818 Y -63.419
G1 X  96.152 Y -63.057
G1 X  95.421 Y -62.669
G1 X  94.625 Y -62.254
G1 X  93.764 Y -61.816
G1 X  92.838 Y -61.354
G1 X  91.847 Y -60.871
G1 X  90.792 Y -60.367
G1 X  89.672 Y -59.846
G1 X  88.489 Y -59.306
G1 X  87.243 Y -58.751
G1 X  85.933 Y -58.182
G1 X  84.562 Y -57.600
G1 X  83.128 Y -57.006
