(Generated by ./pygerber2gcode_cui_shapely.py )
(Initialize)
G90G54G92X0.0Y0.0Z5.0
(Set to Inch unit)
G20

(Start form here)
G00Z1.0
G00X24.476600027Y40.528
G01Z-0.07F40
G01X18.533000027F100
G01X18.5182974533Y40.5287222911F100
G01X18.5037364734Y40.5308822085F100
G01X18.4894573176Y40.5344589508F100
G01X18.4755975018Y40.5394180722F100
G01X18.4622905037Y40.5457118135F100
G01X18.449664477Y40.5532795627F100
G01X18.4378410172Y40.5620484381F100
G01X18.4269339907Y40.5719339907F100
G01X18.4170484381Y40.5828410172F100
G01X18.4082795627Y40.594664477F100
G01X18.4007118135Y40.6072905037F100
G01X18.3944180722Y40.6205975018F100
G01X18.3894589508Y40.6344573176F100
G01X18.3858822085Y40.6487364734F100
G01X18.3837222911Y40.6632974533F100
G01X18.383Y40.678000027F100
G01Y45.496380027F100
G01X18.3837222911Y45.5110826007F100
G01X18.3858822085Y45.5256435806F100
G01X18.3894589508Y45.5399227364F100
G01X18.3944180722Y45.5537825522F100
G01X18.4007118135Y45.5670895503F100
G01X18.4082795627Y45.579715577F100
G01X18.4170484381Y45.5915390368F100
G01X18.4269339907Y45.6024460633F100
G01X19.9585539907Y47.1340660633F100
G01X19.9694610172Y47.1439516159F100
G01X19.981284477Y47.1527204913F100
G01X19.9939105037Y47.1602882405F100
G01X20.0072175018Y47.1665819818F100
G01X20.0210773176Y47.1715411032F100
G01X20.0353564734Y47.1751178455F100
G01X20.0499174533Y47.1772777629F100
G01X20.064620027Y47.178000054F100
G01X21.197460027F100
G01X21.2121626007Y47.1772777629F100
G01X21.2267235806Y47.1751178455F100
G01X21.2410027364Y47.1715411032F100
G01X21.2548625522Y47.1665819818F100
G01X21.2681695503Y47.1602882405F100
G01X21.280795577Y47.1527204913F100
G01X21.2926190368Y47.1439516159F100
G01X21.3035260633Y47.1340660633F100
G01X21.3134116159Y47.1231590368F100
G01X21.3221804913Y47.111335577F100
G01X21.3297482405Y47.0987095503F100
G01X21.3360419818Y47.0854025522F100
G01X21.3410011032Y47.0715427364F100
G01X21.3445778455Y47.0572635806F100
G01X21.3467377629Y47.0427026007F100
G01X21.347460054Y47.028000027F100
G01Y45.6509406905F100
G01X21.3832107256Y45.5654499542F100
G01X21.4473717904Y45.4997612449F100
G01X21.5344310917Y45.4655593766F100
G01X21.6559311224Y45.463500054F100
G01X22.5135593635F100
G01X22.5990500998Y45.4992507256F100
G01X22.6647388091Y45.5634117904F100
G01X22.6989406774Y45.6504710917F100
G01X22.701Y45.7719711224F100
G01Y47.028000027F100
G01X22.7017222911Y47.0427026007F100
G01X22.7038822085Y47.0572635806F100
G01X22.7074589508Y47.0715427364F100
G01X22.7124180722Y47.0854025522F100
G01X22.7187118135Y47.0987095503F100
G01X22.7262795627Y47.111335577F100
G01X22.7350484381Y47.1231590368F100
G01X22.7449339907Y47.1340660633F100
G01X22.7558410172Y47.1439516159F100
G01X22.767664477Y47.1527204913F100
G01X22.7802905037Y47.1602882405F100
G01X22.7935975018Y47.1665819818F100
G01X22.8074573176Y47.1715411032F100
G01X22.8217364734Y47.1751178455F100
G01X22.8362974533Y47.1772777629F100
G01X22.851000027Y47.178000054F100
G01X23.102460027F100
G01X23.1171626007Y47.1772777629F100
G01X23.1317235806Y47.1751178455F100
G01X23.1460027364Y47.1715411032F100
G01X23.1598625522Y47.1665819818F100
G01X23.1731695503Y47.1602882405F100
G01X23.185795577Y47.1527204913F100
G01X23.1976190368Y47.1439516159F100
G01X23.2085260633Y47.1340660633F100
G01X23.2184116159Y47.1231590368F100
G01X23.2271804913Y47.111335577F100
G01X23.2347482405Y47.0987095503F100
G01X23.2410419818Y47.0854025522F100
G01X23.2460011032Y47.0715427364F100
G01X23.2495778455Y47.0572635806F100
G01X23.2517377629Y47.0427026007F100
G01X23.252460054Y47.028000027F100
G01Y47.0183147059F100
G01X23.254614707Y46.6778795394F100
G01X23.2622868374Y46.670000054F100
G01X23.386000027F100
G01Y47.191500027F100
G01X24.475000027F100
G01Y46.670000054F100
G01X24.5973479815F100
G01X24.606Y46.6786520725F100
G01Y47.028000027F100
G01X24.6067222911Y47.0427026007F100
G01X24.6088822085Y47.0572635806F100
G01X24.6124589508Y47.0715427364F100
G01X24.6174180722Y47.0854025522F100
G01X24.6237118135Y47.0987095503F100
G01X24.6312795627Y47.111335577F100
G01X24.6400484381Y47.1231590368F100
G01X24.6499339907Y47.1340660633F100
G01X24.6608410172Y47.1439516159F100
G01X24.672664477Y47.1527204913F100
G01X24.6852905037Y47.1602882405F100
G01X24.6985975018Y47.1665819818F100
G01X24.7124573176Y47.1715411032F100
G01X24.7267364734Y47.1751178455F100
G01X24.7412974533Y47.1772777629F100
G01X24.756000027Y47.178000054F100
G01X34.357200027F100
G01X34.3719878019Y47.1772693467F100
G01X34.386631503Y47.175084344F100
G01X34.4009884603Y47.1714663339F100
G01X34.4149187973Y47.1664505657F100
G01X34.428286794Y47.1600859068F100
G01X34.4409622093Y47.1524343668F100
G01X34.4528215497Y47.1435704925F100
G01X34.4637492723Y47.1335806428F100
G01X34.7190372193Y46.8759506045F100
G01X34.8963945703Y46.803693906F100
G01X34.9097782796Y46.7974565217F100
G01X34.9224838887Y46.7899334813F100
G01X34.934388278Y46.7811976841F100
G01X34.9453760922Y46.7713337813F100
G01X34.9553408576Y46.7604373558F100
G01X34.9641860141Y46.7486139957F100
G01X34.9718258507Y46.7359782711F100
G01X34.9781863362Y46.7226526243F100
G01X34.9832058365Y46.7087661829F100
G01X34.9868357117Y46.6944535087F100
G01X34.989040788Y46.6798532937F100
G01X34.9897996976Y46.6651070164F100
G01X34.9891050867Y46.6503575705F100
G01X34.9869636861Y46.6357478805F100
G01X34.9833962464Y46.6214195166F100
G01X34.9784373367Y46.6075113229F100
G01X34.9721350094Y46.594158072F100
G01X34.9645503353Y46.581489159F100
G01X34.9557568109Y46.5696273477F100
G01X34.9458396469Y46.5586875809F100
G01X34.9348949422Y46.5487758668F100
G01X34.9230287528Y46.5399882512F100
G01X34.9103560639Y46.5324098878F100
G01X34.8969996757Y46.5261142119F100
G01X34.7211859858Y46.4535910648F100
G01X34.4618148429Y46.196381348F100
G01X34.4580086025Y46.1855970004F100
G01X34.4526522084Y46.1724412963F100
G01X34.4460754398Y46.1598512359F100
G01X34.4383372723Y46.1479397175F100
G01X34.4295070962Y46.1368135548F100
G01X34.4196640939Y46.1265725191F100
G01X34.4088965303Y46.1173084444F100
G01X34.3973009608Y46.1091044041F100
G01X34.3849813662Y46.1020339661F100
G01X34.3720482193Y46.0961605328F100
G01X34.3586174952Y46.0915367729F100
G01X34.3448096306Y46.0882041487F100
G01X34.3307484445Y46.0861925449F100
G01X34.316560027Y46.08552F100
G01X27.3411635453F100
G01X27.1659245531Y46.0508797341F100
G01X27.0178433334Y45.9535112609F100
G01X25.5587087931Y44.4943767206F100
G01X25.4612446286Y44.3461499704F100
G01X25.4593471548Y44.3366626014F100
G01X25.4591071164Y44.3354868834F100
G01X25.426700054Y44.1799329839F100
G01Y43.982540027F100
G01X25.4259777629Y43.9678374533F100
G01X25.4238178455Y43.9532764734F100
G01X25.4202411032Y43.9389973176F100
G01X25.4152819818Y43.9251375018F100
G01X25.4089882405Y43.9118305037F100
G01X25.4014204913Y43.899204477F100
G01X25.3926516159Y43.8873810172F100
G01X25.3827660633Y43.8764739907F100
G01X25.3718590368Y43.8665884381F100
G01X25.360035577Y43.8578195627F100
G01X25.3474095503Y43.8502518135F100
G01X25.3341025522Y43.8439580722F100
G01X25.3202427364Y43.8389989508F100
G01X25.3059635806Y43.8354222085F100
G01X25.2914026007Y43.8332622911F100
G01X25.276700027Y43.83254F100
G01X24.9405952361F100
G01X24.9191547397Y43.8228917766F100
G01X24.9046975451Y43.8172657304F100
G01X24.8897365896Y43.8131629651F100
G01X24.8744318975Y43.8106273644F100
G01X24.8589471696Y43.8096860494F100
G01X24.8434480325Y43.8103490886F100
G01X24.8281002669Y43.81260939F100
G01X24.8130680344Y43.8164427772F100
G01X24.7985121216Y43.8218082477F100
G01X24.7833978606Y43.8282857881F100
G01X24.779000054Y43.8238879815F100
G01Y43.736160027F100
G01X24.7782700529Y43.7213793816F100
G01X24.7760871548Y43.7067426014F100
G01X24.7741369786Y43.699000027F100
G01X24.830600027F100
G01Y42.229000027F100
G01X24.7748249413F100
G01X24.7755503153Y42.2263647282F100
G01X24.7781351256Y42.2104651273F100
G01X24.779000054Y42.194380027F100
G01Y42.1054837775F100
G01X24.7819538708Y42.1024501278F100
G01X24.7935053143Y42.1076482774F100
G01X24.8072348065Y42.1130316008F100
G01X24.8214265646Y42.1170407313F100
G01X24.8359434148Y42.1196369178F100
G01X24.8506450412Y42.1207950663F100
G01X24.8653893416Y42.1205039823F100
G01X24.8800338017Y42.1187664795F100
G01X24.8944368718Y42.115599352F100
G01X24.9084593358Y42.1110332125F100
G01X24.9372300139Y42.1000729541F100
G01X25.0595311224Y42.098000054F100
G01X25.4324648179F100
G01X25.4539053143Y42.1076482774F100
G01X25.4676348065Y42.1130316008F100
G01X25.4818265646Y42.1170407313F100
G01X25.4963434148Y42.1196369178F100
G01X25.5110450412Y42.1207950663F100
G01X25.5257893416Y42.1205039823F100
G01X25.5404338017Y42.1187664795F100
G01X25.5548368718Y42.115599352F100
G01X25.5688593358Y42.1110332125F100
G01X25.5976300139Y42.1000729541F100
G01X25.7212020352Y42.0979785131F100
G01X25.7358763854Y42.0970087687F100
G01X25.7503852467Y42.0946067067F100
G01X25.7645891554Y42.0907954165F100
G01X25.7783515793Y42.0856115333F100
G01X25.7915402298Y42.0791048863F100
G01X25.8040283335Y42.0713380193F100
G01X25.8156958509Y42.0623855898F100
G01X25.8264306303Y42.0523336513F100
G01X25.8361294858Y42.0412788261F100
G01X25.8446991888Y42.0293273765F100
G01X25.852057365Y42.0165941836F100
G01X25.8581332851Y42.0032016428F100
G01X25.8628685456Y41.9892784871F100
G01X25.8662176297Y41.9749585502F100
G01X25.8681483451Y41.9603794797F100
G01X25.868642133Y41.9456814142F100
G01X25.8676942471Y41.9310056359F100
G01X25.8653137987Y41.9164932128F100
G01X25.8615236694Y41.9022836429F100
G01X25.8563602911Y41.8885135129F100
G01X25.3077202911Y40.6185135129F100
G01X25.3013178153Y40.6054679727F100
G01X25.2936830207Y40.593103195F100
G01X25.2848875652Y40.5815352315F100
G01X25.275014Y40.5708726555F100
G01X25.2641549953Y40.5612155424F100
G01X25.2524124702Y40.5526545308F100
G01X25.2398966361Y40.5452699716F100
G01X25.2267249628Y40.5391311739F100
G01X25.2130210752Y40.5342957544F100
G01X25.1989135936Y40.5308090969F100
G01X25.1845349264Y40.5287039259F100
G01X25.170020027Y40.528F100
G01X24.476600027F100
G00Z1.0
G00X24.3029646918Y42.229000027
G01Z-0.07F40
G01X24.2859458055Y42.1851092149F100
G01X24.2815356079Y42.1719626935F100
G01X24.2783582671Y42.1584650872F100
G01X24.2764409361Y42.1447317442F100
G01X24.2758Y42.130880027F100
G01Y42.1066520725F100
G01X24.2715763567Y42.1024284292F100
G01X24.260246755Y42.1070783464F100
G01X24.24671292Y42.111192609F100
G01X24.232851709Y42.1140137222F100
G01X24.2187863896Y42.1155165979F100
G01X24.2046420439Y42.1156878711F100
G01X24.1905444574Y42.1145260186F100
G01X24.1766189993Y42.1120413729F100
G01X24.1629895083Y42.1082560297F100
G01X24.1497771911Y42.103203652F100
G01X24.1378832529Y42.098000054F100
G01X23.7641311224F100
G01X23.6418300139Y42.1000729541F100
G01X23.6130593358Y42.1110332125F100
G01X23.5990368718Y42.115599352F100
G01X23.5846338017Y42.1187664795F100
G01X23.5699893416Y42.1205039823F100
G01X23.5552450412Y42.1207950663F100
G01X23.5405434148Y42.1196369178F100
G01X23.5260265646Y42.1170407313F100
G01X23.5118348065Y42.1130316008F100
G01X23.4981053143Y42.1076482774F100
G01X23.4766648179Y42.098000054F100
G01X23.1037311224F100
G01X22.981027632Y42.1000797742F100
G01X22.9646285527Y42.1062294289F100
G01X22.9504272971Y42.1107637407F100
G01X22.9358460951Y42.1138660285F100
G01X22.9210289671Y42.1155056508F100
G01X22.9061222639Y42.1156664127F100
G01X22.8912732212Y42.1143467264F100
G01X22.8766285048Y42.1115596265F100
G01X22.8623327627Y42.1073326417F100
G01X22.8485271958Y42.1017075225F100
G01X22.8405826205Y42.098000054F100
G01X22.4687311224F100
G01X22.3464300139Y42.1000729541F100
G01X22.3176593358Y42.1110332125F100
G01X22.3036368718Y42.115599352F100
G01X22.2892338017Y42.1187664795F100
G01X22.2745893416Y42.1205039823F100
G01X22.2598450412Y42.1207950663F100
G01X22.2451434148Y42.1196369178F100
G01X22.2306265646Y42.1170407313F100
G01X22.2164348065Y42.1130316008F100
G01X22.2027053143Y42.1076482774F100
G01X22.1812648179Y42.098000054F100
G01X21.8083311224F100
G01X21.6860300139Y42.1000729541F100
G01X21.6572593358Y42.1110332125F100
G01X21.6432368718Y42.115599352F100
G01X21.6288338017Y42.1187664795F100
G01X21.6141893416Y42.1205039823F100
G01X21.5994450412Y42.1207950663F100
G01X21.5847434148Y42.1196369178F100
G01X21.5702265646Y42.1170407313F100
G01X21.5560348065Y42.1130316008F100
G01X21.5423053143Y42.1076482774F100
G01X21.5208648179Y42.098000054F100
G01X21.1479311224F100
G01X21.025227632Y42.1000797742F100
G01X21.0088285527Y42.1062294289F100
G01X20.9946272971Y42.1107637407F100
G01X20.9800460951Y42.1138660285F100
G01X20.9652289671Y42.1155056508F100
G01X20.9503222639Y42.1156664127F100
G01X20.9354732212Y42.1143467264F100
G01X20.9208285048Y42.1115596265F100
G01X20.9065327627Y42.1073326417F100
G01X20.8927271958Y42.1017075225F100
G01X20.8847826205Y42.098000054F100
G01X20.5129311224F100
G01X20.3906300139Y42.1000729541F100
G01X20.3618593358Y42.1110332125F100
G01X20.3478368718Y42.115599352F100
G01X20.3334338017Y42.1187664795F100
G01X20.3187893416Y42.1205039823F100
G01X20.3040450412Y42.1207950663F100
G01X20.2893434148Y42.1196369178F100
G01X20.2748265646Y42.1170407313F100
G01X20.2606348065Y42.1130316008F100
G01X20.2469053143Y42.1076482774F100
G01X20.2254648179Y42.098000054F100
G01X19.8525311224F100
G01X19.7310310917Y42.1000593766F100
G01X19.6439717904Y42.1342612449F100
G01X19.5798107256Y42.1999499542F100
G01X19.544060054Y42.2854406905F100
G01Y43.5240689316F100
G01X19.5461193766Y43.6455689623F100
G01X19.5803212449Y43.7326282636F100
G01X19.6460099542Y43.7967893284F100
G01X19.7315006905Y43.83254F100
G01X19.777600027F100
G01X19.7923026007Y43.8332622911F100
G01X19.8068635806Y43.8354222085F100
G01X19.8211427364Y43.8389989508F100
G01X19.8350025522Y43.8439580722F100
G01X19.8483095503Y43.8502518135F100
G01X19.860935577Y43.8578195627F100
G01X19.8727590368Y43.8665884381F100
G01X19.8836660633Y43.8764739907F100
G01X19.8935516159Y43.8873810172F100
G01X19.9023204913Y43.899204477F100
G01X19.9098882405Y43.9118305037F100
G01X19.9161819818Y43.9251375018F100
G01X19.9211411032Y43.9389973176F100
G01X19.9247178455Y43.9532764734F100
G01X19.9268777629Y43.9678374533F100
G01X19.927600054Y43.982540027F100
G01X19.9268777629Y43.9972426007F100
G01X19.9247178455Y44.0118035806F100
G01X19.9211411032Y44.0260827364F100
G01X19.9161819818Y44.0399425522F100
G01X19.9098882405Y44.0532495503F100
G01X19.9023204913Y44.065875577F100
G01X19.8935516159Y44.0776990368F100
G01X19.8836660633Y44.0886060633F100
G01X19.8638444368Y44.1084276898F100
G01X19.7601945941Y44.3551143153F100
G01X19.7622719758Y44.6230965501F100
G01X19.8642400211Y44.8728142121F100
G01X20.0554955079Y45.0619908349F100
G01X20.3025743153Y45.1658054599F100
G01X20.5705565501Y45.1637280782F100
G01X20.8199531724Y45.0618911241F100
G01X20.9252490818Y44.9544892965F100
G01X20.9362001023Y44.9443771492F100
G01X20.9481006712Y44.9354018035F100
G01X20.9608332743Y44.927651888F100
G01X20.9742721811Y44.9212039307F100
G01X20.9882846868Y44.9161216029F100
G01X21.0027324223Y44.9124550912F100
G01X21.017472721Y44.9102406011F100
G01X21.032360027Y44.9095F100
G01X21.7043505886F100
G01X21.8573342821Y44.8771795014F100
G01X21.8589226014Y44.8768528992F100
G01X21.8684099704Y44.8749554254F100
G01X22.0166367206Y44.7774912609F100
G01X22.2235512609Y44.5705767206F100
G01X22.3210154254Y44.4223499704F100
G01X22.3229128992Y44.4128626014F100
G01X22.3231529376Y44.4116868834F100
G01X22.3581Y44.2439409839F100
G01Y43.982540027F100
G01X22.3588222911Y43.9678374533F100
G01X22.3609822085Y43.9532764734F100
G01X22.3645589508Y43.9389973176F100
G01X22.3695180722Y43.9251375018F100
G01X22.3758118135Y43.9118305037F100
G01X22.3833795627Y43.899204477F100
G01X22.3921484381Y43.8873810172F100
G01X22.4020339907Y43.8764739907F100
G01X22.4129410172Y43.8665884381F100
G01X22.424764477Y43.8578195627F100
G01X22.4373905037Y43.8502518135F100
G01X22.4506975018Y43.8439580722F100
G01X22.4645573176Y43.8389989508F100
G01X22.4788364734Y43.8354222085F100
G01X22.4933974533Y43.8332622911F100
G01X22.508100027Y43.83254F100
G01X22.7227289316F100
G01X22.845432422Y43.8304602798F100
G01X22.8618315013Y43.8243106251F100
G01X22.8760327569Y43.8197763133F100
G01X22.8906139589Y43.8166740255F100
G01X22.9054310869Y43.8150344032F100
G01X22.9203377901Y43.8148736413F100
G01X22.9351868328Y43.8161933276F100
G01X22.9498315492Y43.8189804275F100
G01X22.9641272913Y43.8232074123F100
G01X22.9779328582Y43.8288325315F100
G01X22.9858774335Y43.83254F100
G01X23.3577289316F100
G01X23.4800300401Y43.8304670999F100
G01X23.5088007182Y43.8195068415F100
G01X23.5228231822Y43.814940702F100
G01X23.5372262523Y43.8117735745F100
G01X23.5518707124Y43.8100360717F100
G01X23.5666150128Y43.8097449877F100
G01X23.5813166392Y43.8109031362F100
G01X23.5958334894Y43.8134993227F100
G01X23.6100252475Y43.8175084532F100
G01X23.6237547397Y43.8228917766F100
G01X23.6451952361Y43.83254F100
G01X23.803500027F100
G01X24.0181289316F100
G01X24.140832422Y43.8304602798F100
G01X24.1572315013Y43.8243106251F100
G01X24.1714327569Y43.8197763133F100
G01X24.1860139589Y43.8166740255F100
G01X24.2008310869Y43.8150344032F100
G01X24.2157377901Y43.8148736413F100
G01X24.2305868328Y43.8161933276F100
G01X24.2452315492Y43.8189804275F100
G01X24.2595272913Y43.8232074123F100
G01X24.2706415267Y43.8277359405F100
G01X24.2758Y43.8227132166F100
G01Y43.799660027F100
G01X24.2765033936Y43.7851506039F100
G01X24.2786069776Y43.7707772586F100
G01X24.2820910233Y43.7566747927F100
G01X24.2869228554Y43.7429754672F100
G01X24.3048720147Y43.699000027F100
G01X24.224200027F100
G01Y42.229000027F100
G01X24.3029646918F100
G00Z1.0
G00X23.6535Y45.594500027
G01Z-0.07F40
G01Y45.4721520725F100
G01X23.6448479815Y45.463500054F100
G01X23.4399006905F100
G01X23.3544099542Y45.4992507256F100
G01X23.2887212449Y45.5634117904F100
G01X23.2545193766Y45.6504710917F100
G01X23.252468099Y45.7714964649F100
G01X23.2546073319Y46.1094952594F100
G01X23.2611120725Y46.116F100
G01X23.386000027F100
G01Y45.594500027F100
G01X23.6535F100
G00Z1.0
G00X24.475000027Y46.116
G01Z-0.07F40
G01X24.5985162765F100
G01X24.606Y46.1087132166F100
G01Y45.7719711224F100
G01X24.6039406774Y45.6504710917F100
G01X24.5697388091Y45.5634117904F100
G01X24.5040500998Y45.4992507256F100
G01X24.4185593635Y45.463500054F100
G01X24.2147868374F100
G01X24.207500054Y45.4709837775F100
G01Y45.594500027F100
G01X24.475000027F100
G01Y46.116F100
G00Z1.0
G00X41.2232458918Y14.8393803234
G01Z-0.07F40
G01X40.7696855521Y15.2905152069F100
G01X39.9379489272Y15.6360791341F100
G01X39.0376700911Y15.6384608241F100
G01X38.2065074398Y15.2931353673F100
G01X37.5704046867Y14.6570326142F100
G01X37.2249209199Y13.8254889272F100
G01X37.2225392299Y12.9252100911F100
G01X37.5678646867Y12.0940474398F100
G01X38.2039674398Y11.4579446867F100
G01X39.035701492Y11.1123818284F100
G01X39.4862536668Y11.1099979544F100
G01X39.5009275442Y11.1092004426F100
G01X39.5154529618Y11.1069708811F100
G01X39.5296905025Y11.1033306697F100
G01X39.5435035119Y11.0983147477F100
G01X39.5567594106Y11.0919712587F100
G01X39.5693309663Y11.0843610886F100
G01X39.5810975152Y11.075557281F100
G01X39.5919461201Y11.0656443362F100
G01X39.6017726543Y11.0547174004F100
G01X39.6104828012Y11.0428813519F100
G01X39.6179929594Y11.0302497951F100
G01X39.6242310452Y11.0169439698F100
G01X39.6291371843Y11.0030915873F100
G01X39.632664287Y10.9888256051F100
G01X39.6347784994Y10.9742829503F100
G01X39.6354595291Y10.9596032057F100
G01X39.6347008394Y10.9449272699F100
G01X39.6325097124Y10.9303960048F100
G01X39.6289071788Y10.9161488839F100
G01X39.6239278163Y10.9023226534F100
G01X39.6176194177Y10.8890500195F100
G01X39.6100425319Y10.8764583753F100
G01X39.6012698832Y10.8646685773F100
G01X39.5913856728Y10.8537937859F100
G01X39.5804847711Y10.8439383791F100
G01X39.5686718065Y10.8351969507F100
G01X39.5560601619Y10.8276534023F100
G01X39.5427708858Y10.8213801382F100
G01X39.5289315308Y10.8164373701F100
G01X39.5146749294Y10.8128725395F100
G01X39.5001379186Y10.8107198622F100
G01X39.485460027Y10.81F100
G01X36.340940027F100
G01X35.863420027F100
G01X35.500200027F100
G01X35.022680027F100
G01X32.622380027F100
G01X31.969600027F100
G01X24.273400027F100
G01X20.882500027F100
G01X20.623420027F100
G01X19.970640027F100
G01X15.307200027F100
G01X11.509900027F100
G01X10.994280027F100
G01X8.850520027F100
G01X8.83582318094Y10.8107217271F100
G01X8.82126776302Y10.8128799633F100
G01X8.80699384042Y10.8164539397F100
G01X8.79313877146Y10.8214092639F100
G01X8.77983588384Y10.8276982507F100
G01X8.7672131916Y10.835260381F100
G01X8.75539216325Y10.8440228843F100
G01X8.74448655285Y10.8539014386F100
G01X8.73460130539Y10.8648009825F100
G01X8.72583154685Y10.8766166293F100
G01X8.71826166886Y10.8892346767F100
G01X8.71196451655Y10.902533701F100
G01X8.7070006876Y10.9163857253F100
G01X8.70341794904Y10.9306574511F100
G01X8.70125077768Y10.9452115413F100
G01X8.70052002827Y10.9599079415F100
G01X8.70123273281Y10.9746052279F100
G01X8.70338203294Y10.989161968F100
G01X8.70694724589Y11.003438082F100
G01X8.71189406351Y11.0172961905F100
G01X8.71817488245Y11.0306029364F100
G01X8.72572926223Y11.0432302687F100
G01X8.73448450683Y11.0550566741F100
G01X8.74435636433Y11.0659683469F100
G01X8.75524983756Y11.0758602838F100
G01X8.76706009835Y11.0846372943F100
G01X8.77967349625Y11.0922149172F100
G01X8.79296865218Y11.0985202326F100
G01X9.65195261417Y11.4554046867F100
G01X10.2880553673Y12.0915074398F100
G01X10.6335391341Y12.9230511268F100
G01X10.6359208241Y13.8233299629F100
G01X10.2905953673Y14.6544926142F100
G01X9.65449261417Y15.2905953673F100
G01X8.82294892717Y15.6360791341F100
G01X7.92267009114Y15.6384608241F100
G01X7.09150743983Y15.2931353673F100
G01X6.45540468671Y14.6570326142F100
G01X6.110000054Y13.8256793947F100
G01Y13.375540027F100
G01X6.10927776287Y13.3608374533F100
G01X6.10711784554Y13.3462764734F100
G01X6.1035411032Y13.3319973176F100
G01X6.09858198182Y13.3181375018F100
G01X6.09228824046Y13.3048305037F100
G01X6.0847204913Y13.292204477F100
G01X6.07595161588Y13.2803810172F100
G01X6.06606606327Y13.2694739907F100
G01X6.05515903675Y13.2595884381F100
G01X6.04333557695Y13.2508195627F100
G01X6.03070955025Y13.2432518135F100
G01X6.01740255219Y13.2369580722F100
G01X6.00354273643Y13.2319989508F100
G01X5.98926358057Y13.2284222085F100
G01X5.9747026007Y13.2262622911F100
G01X5.960000027Y13.22554F100
G01X5.9452974533Y13.2262622911F100
G01X5.93073647343Y13.2284222085F100
G01X5.91645731757Y13.2319989508F100
G01X5.90259750181Y13.2369580722F100
G01X5.88929050375Y13.2432518135F100
G01X5.87666447705Y13.2508195627F100
G01X5.86484101725Y13.2595884381F100
G01X5.85393399073Y13.2694739907F100
G01X5.84404843812Y13.2803810172F100
G01X5.8352795627Y13.292204477F100
G01X5.82771181354Y13.3048305037F100
G01X5.82141807218Y13.3181375018F100
G01X5.8164589508Y13.3319973176F100
G01X5.81288220846Y13.3462764734F100
G01X5.81072229113Y13.3608374533F100
G01X5.81Y13.375540027F100
G01Y49.441000027F100
G01X5.81072229113Y49.4557026007F100
G01X5.81288220846Y49.4702635806F100
G01X5.8164589508Y49.4845427364F100
G01X5.82141807218Y49.4984025522F100
G01X5.82771181354Y49.5117095503F100
G01X5.8352795627Y49.524335577F100
G01X5.84404843812Y49.5361590368F100
G01X5.85393399073Y49.5470660633F100
G01X5.86484101725Y49.5569516159F100
G01X5.87666447705Y49.5657204913F100
G01X5.88929050375Y49.5732882405F100
G01X5.90259750181Y49.5795819818F100
G01X5.91645731757Y49.5845411032F100
G01X5.93073647343Y49.5881178455F100
G01X5.9452974533Y49.5902777629F100
G01X5.960000027Y49.591000054F100
G01X39.007940027F100
G01X39.0226499136Y49.5902770424F100
G01X39.0372179946Y49.5881149777F100
G01X39.0515038316Y49.5845347024F100
G01X39.0653697068Y49.5795707309F100
G01X39.0786819512Y49.5732709167F100
G01X39.0913122326Y49.565695991F100
G01X39.1031387933Y49.5569189771F100
G01X39.1140476233Y49.5470244869F100
G01X39.12393356Y49.5361079048F100
G01X39.1327013012Y49.5242744681F100
G01X39.1402663248Y49.5116382532F100
G01X39.1465557027Y49.498321075F100
G01X39.1515088043Y49.4844513132F100
G01X39.1550778811Y49.4701626743F100
G01X39.1572285264Y49.4555929031F100
G01X39.1579400079Y49.4408824543F100
G01X39.1572054667Y49.426173139F100
G01X39.1550319839Y49.4116067571F100
G01X39.1514405122Y49.3973237308F100
G01X39.1464656739Y49.3834617507F100
G01X39.1401554273Y49.3701544483F100
G01X39.1325706041Y49.3575301081F100
G01X39.123784323Y49.3457104306F100
G01X39.1138812853Y49.3348093594F100
G01X39.1029569578Y49.3249319824F100
G01X39.0911166525Y49.3161735191F100
G01X39.0784745119Y49.3086184023F100
G01X39.065152408Y49.3023394646F100
G01X38.206372584Y48.9480005114F100
G01X37.5704046867Y48.3120326142F100
G01X37.2249209199Y47.4804889272F100
G01X37.2225392299Y46.5802100911F100
G01X37.5678646867Y45.7490474398F100
G01X38.2039674398Y45.1129446867F100
G01X39.0355111268Y44.7674609199F100
G01X39.9357899629Y44.7650792299F100
G01X40.7669526142Y45.1104046867F100
G01X41.4030553673Y45.7465074398F100
G01X41.7486182256Y46.578241492F100
G01X41.7510020996Y47.0287936668F100
G01X41.7517996114Y47.0434675442F100
G01X41.7540291729Y47.0579929618F100
G01X41.7576693843Y47.0722305025F100
G01X41.7626853063Y47.0860435119F100
G01X41.7690287953Y47.0992994106F100
G01X41.7766389654Y47.1118709663F100
G01X41.785442773Y47.1236375152F100
G01X41.7953557178Y47.1344861201F100
G01X41.8062826536Y47.1443126543F100
G01X41.8181187021Y47.1530228012F100
G01X41.8307502589Y47.1605329594F100
G01X41.8440560842Y47.1667710452F100
G01X41.8579084667Y47.1716771843F100
G01X41.8721744489Y47.175204287F100
G01X41.8867171037Y47.1773184994F100
G01X41.9013968483Y47.1779995291F100
G01X41.9160727841Y47.1772408394F100
G01X41.9306040492Y47.1750497124F100
G01X41.9448511701Y47.1714471788F100
G01X41.9586774006Y47.1664678163F100
G01X41.9719500345Y47.1601594177F100
G01X41.9845416787Y47.1525825319F100
G01X41.9963314767Y47.1438098832F100
G01X42.0072062681Y47.1339256728F100
G01X42.0170616749Y47.1230247711F100
G01X42.0258031033Y47.1112118065F100
G01X42.0333466517Y47.0986001619F100
G01X42.0396199158Y47.0853108858F100
G01X42.0445626839Y47.0714715308F100
G01X42.0481275145Y47.0572149294F100
G01X42.0502801918Y47.0426779186F100
G01X42.051000054Y47.028000027F100
G01Y13.853060027F100
G01X42.0502783269Y13.8383631809F100
G01X42.0481200907Y13.823807763F100
G01X42.0445461143Y13.8095338404F100
G01X42.0395907901Y13.7956787715F100
G01X42.0333018033Y13.7823758838F100
G01X42.025739673Y13.7697531916F100
G01X42.0169771697Y13.7579321633F100
G01X42.0070986154Y13.7470265529F100
G01X41.9961990715Y13.7371413054F100
G01X41.9843834247Y13.7283715468F100
G01X41.9717653773Y13.7208016689F100
G01X41.958466353Y13.7145045166F100
G01X41.9446143287Y13.7095406876F100
G01X41.9303426029Y13.705957949F100
G01X41.9157885127Y13.7037907777F100
G01X41.9010921125Y13.7030600283F100
G01X41.8863948261Y13.7037727328F100
G01X41.871838086Y13.7059220329F100
G01X41.857561972Y13.7094872459F100
G01X41.8437038635Y13.7144340635F100
G01X41.8303971176Y13.7207148825F100
G01X41.8177697853Y13.7282692622F100
G01X41.8059433799Y13.7370245068F100
G01X41.7950317071Y13.7468963643F100
G01X41.7851397702Y13.7577898376F100
G01X41.7763627597Y13.7696000984F100
G01X41.7687851368Y13.7822134962F100
G01X41.7624798214Y13.7955086522F100
G01X41.4054097204Y14.654939447F100
G01X41.2232458918Y14.8393803234F100
G00Z1.0
G00X23.2324502171Y18.1160419094
G01Z-0.07F40
G01X23.1320620478Y18.2164300788F100
G01X23.1633886739Y18.2800938674F100
G01X23.1691039184Y18.2932650918F100
G01X23.1735336981Y18.3069224057F100
G01X23.1766374272Y18.3209406808F100
G01X23.1783866694Y18.3351914816F100
G01X23.1787653981Y18.3495442421F100
G01X23.1777701435Y18.3638674624F100
G01X23.175410024Y18.378029913F100
G01X23.1717066631Y18.3919018375F100
G01X23.166693991Y18.4053561413F100
G01X23.1604179338Y18.4182695559F100
G01X23.1529359928Y18.4305237686F100
G01X23.1443167175Y18.4420065063F100
G01X23.1346390778Y18.4526125641F100
G01X23.1239917402Y18.4622447691F100
G01X23.1124722558Y18.4708148712F100
G01X23.100186166Y18.478244351F100
G01X23.0872460361Y18.4844651395F100
G01X23.0484271874Y18.5008884986F100
G01X22.7644346872Y18.7871349076F100
G01X22.7643847287Y18.7872233945F100
G01X22.7556824367Y18.7995527018F100
G01X22.7457853372Y18.8109452048F100
G01X22.734793607Y18.8212855903F100
G01X22.722818503Y18.8304691945F100
G01X22.7099812352Y18.8384030624F100
G01X22.6964117405Y18.8450068884F100
G01X22.6822473674Y18.8502138297F100
G01X22.6676314855Y18.8539711824F100
G01X22.6527120345Y18.8562409151F100
G01X22.637640027Y18.857000054F100
G01X22.1044590701F100
G01X21.8980748591Y18.8999967646F100
G01X21.8951464798Y18.901623642F100
G01X21.8814964216Y18.9083252604F100
G01X21.8672379936Y18.9136104293F100
G01X21.8525177318Y18.9174248323F100
G01X21.8374869183Y18.9197292682F100
G01X21.822300027Y18.920500054F100
G01X20.834240027F100
G01X20.819385786Y18.9197627471F100
G01X20.8046775734Y18.9175580748F100
G01X20.7902599821Y18.9139077107F100
G01X20.7762747478Y18.9088475406F100
G01X20.7628593562Y18.9024273097F100
G01X20.7501456905Y18.8947101339F100
G01X20.7382587357Y18.8857718788F100
G01X20.7273153496Y18.8757004142F100
G01X20.717423114Y18.8645947502F100
G01X20.708679277Y18.852564064F100
G01X20.7011697972Y18.8397266261F100
G01X20.6970151635Y18.83067009F100
G01X20.6305500998Y18.7657507256F100
G01X20.5450593635Y18.730000054F100
G01X19.1794311224F100
G01X19.0579310917Y18.7320593766F100
G01X18.9708717904Y18.7662612449F100
G01X18.9067107256Y18.8319499542F100
G01X18.870960054Y18.9174406905F100
G01Y19.7750689316F100
G01X18.8730193766Y19.8965689623F100
G01X18.9072212449Y19.9836282636F100
G01X18.9729099542Y20.0477893284F100
G01X19.0584006905Y20.08354F100
G01X20.300840027F100
G01X20.3155463726Y20.0842626627F100
G01X20.3301110152Y20.0864236875F100
G01X20.3443936172Y20.0900022519F100
G01X20.3582565586Y20.0949638746F100
G01X20.3715662629Y20.101260748F100
G01X20.3841944845Y20.1088321984F100
G01X20.3960195442Y20.1176052712F100
G01X20.4069275016Y20.1274954334F100
G01X20.416813253Y20.1384073883F100
G01X20.4255815444Y20.1502359939F100
G01X20.4331478888Y20.1628672755F100
G01X20.4394393807Y20.1761795244F100
G01X20.4443953984Y20.1900444706F100
G01X20.4479681883Y20.2043285181F100
G01X20.4501233247Y20.2188940332F100
G01X20.4508400417Y20.2336006698F100
G01X20.4501114336Y20.2483067221F100
G01X20.4479445206Y20.2628704898F100
G01X20.4443601823Y20.2771516439F100
G01X20.4393929554Y20.2910125782F100
G01X20.4330907016Y20.3043197357F100
G01X20.4255141464Y20.3169448952F100
G01X20.4167362937Y20.3287664071F100
G01X20.4068417223Y20.3396703652F100
G01X18.3113417223Y22.4326303652F100
G01X18.3004374966Y22.4425020933F100
G01X18.2886188428Y22.4512583812F100
G01X18.2759994056Y22.4588150311F100
G01X18.2627005296Y22.4650993807F100
G01X18.2488500925Y22.4700510016F100
G01X18.2345812761Y22.4736222804F100
G01X18.2200312849Y22.4757788769F100
G01X18.205340027Y22.476500054F100
G01X17.136000027F100
G01X17.1212974533Y22.4757777629F100
G01X17.1067364734Y22.4736178455F100
G01X17.0924573176Y22.4700411032F100
G01X17.0785975018Y22.4650819818F100
G01X17.0652905037Y22.4587882405F100
G01X17.052664477Y22.4512204913F100
G01X17.0408410172Y22.4424516159F100
G01X17.0299339907Y22.4325660633F100
G01X17.0200484381Y22.4216590368F100
G01X17.0112795627Y22.409835577F100
G01X17.0037118135Y22.3972095503F100
G01X16.9974180722Y22.3839025522F100
G01X16.9924589508Y22.3700427364F100
G01X16.9888822085Y22.3557635806F100
G01X16.9867222911Y22.3412026007F100
G01X16.986Y22.326500027F100
G01Y22.2769711224F100
G01X16.9839406774Y22.1554710917F100
G01X16.9497388091Y22.0684117904F100
G01X16.8840500998Y22.0042507256F100
G01X16.7985593635Y21.968500054F100
G01X15.9409311224F100
G01X15.8194310917Y21.9705593766F100
G01X15.7323717904Y22.0047612449F100
G01X15.6682107256Y22.0704499542F100
G01X15.632460054Y22.1559406905F100
G01Y23.5215689316F100
G01X15.6345193766Y23.6430689623F100
G01X15.6687212449Y23.7301282636F100
G01X15.7344099542Y23.7942893284F100
G01X15.8199006905Y23.83004F100
G01X16.554340027F100
G01X16.5690426007Y23.8307622911F100
G01X16.5836035806Y23.8329222085F100
G01X16.5978827364Y23.8364989508F100
G01X16.6117425522Y23.8414580722F100
G01X16.6250495503Y23.8477518135F100
G01X16.637675577Y23.8553195627F100
G01X16.6494990368Y23.8640884381F100
G01X16.6604060633Y23.8739739907F100
G01X16.6702916159Y23.8848810172F100
G01X16.6790604913Y23.896704477F100
G01X16.6866282405Y23.9093305037F100
G01X16.6929219818Y23.9226375018F100
G01X16.6978811032Y23.9364973176F100
G01X16.7014578455Y23.9507764734F100
G01X16.7036177629Y23.9653374533F100
G01X16.704340054Y23.980040027F100
G01X16.7036177629Y23.9947426007F100
G01X16.7014578455Y24.0093035806F100
G01X16.6978811032Y24.0235827364F100
G01X16.6929219818Y24.0374425522F100
G01X16.6866282405Y24.0507495503F100
G01X16.6790604913Y24.063375577F100
G01X16.6702916159Y24.0751990368F100
G01X16.6604060633Y24.0861060633F100
G01X16.2949886706Y24.4515234559F100
G01X16.1825276471Y24.6202149912F100
G01X16.143000054Y24.8178529567F100
G01Y30.645000027F100
G01X16.1422777629Y30.6597026007F100
G01X16.1401178455Y30.6742635806F100
G01X16.1365411032Y30.6885427364F100
G01X16.1315819818Y30.7024025522F100
G01X16.1252882405Y30.7157095503F100
G01X16.1177204913Y30.728335577F100
G01X16.1089516159Y30.7401590368F100
G01X16.0990660633Y30.7510660633F100
G01X16.0881590368Y30.7609516159F100
G01X16.076335577Y30.7697204913F100
G01X16.0637095503Y30.7772882405F100
G01X16.0504025522Y30.7835819818F100
G01X16.0365427364Y30.7885411032F100
G01X16.0222635806Y30.7921178455F100
G01X16.0077026007Y30.7942777629F100
G01X15.993000027Y30.795000054F100
G01X15.929500027F100
G01X15.9147974533Y30.7942777629F100
G01X15.9002364734Y30.7921178455F100
G01X15.8859573176Y30.7885411032F100
G01X15.8720975018Y30.7835819818F100
G01X15.8587905037Y30.7772882405F100
G01X15.846164477Y30.7697204913F100
G01X15.8343410172Y30.7609516159F100
G01X15.8234339907Y30.7510660633F100
G01X15.8135484381Y30.7401590368F100
G01X15.8047795627Y30.728335577F100
G01X15.7972118135Y30.7157095503F100
G01X15.7909180722Y30.7024025522F100
G01X15.7859589508Y30.6885427364F100
G01X15.7823822085Y30.6742635806F100
G01X15.7802222911Y30.6597026007F100
G01X15.7795Y30.645000027F100
G01Y27.358529451F100
G01X15.7427969146Y27.1831702651F100
G01X15.6449512609Y27.0343633334F100
G01X9.94091761066Y21.3303296832F100
G01X9.39494151839Y20.7868930146F100
G01X9.38514362785Y20.776146006F100
G01X9.37643251489Y20.7645006909F100
G01X9.36889006274Y20.7520665336F100
G01X9.36258716936Y20.7389604134F100
G01X9.35758308104Y20.7253055258F100
G01X9.35392483551Y20.7112302251F100
G01X9.35164681974Y20.6968668168F100
G01X9.35077044676Y20.682350315F100
G01X9.35130395435Y20.6678171728F100
G01X9.3532423276Y20.6534039996F100
G01X9.35497532518Y20.6460250035F100
G01X9.34772499279Y20.6477339148F100
G01X9.33333529156Y20.6496830062F100
G01X9.31882455285Y20.6502315686F100
G01X9.30432876637Y20.6493744611F100
G01X9.28998378175Y20.6471197161F100
G01X9.27592403531Y20.6434884644F100
G01X9.26228129024Y20.6385147369F100
G01X9.24918340173Y20.6322451455F100
G01X9.23675311876Y20.6247384469F100
G01X9.22510693372Y20.6160649913F100
G01X9.21435399073Y20.6063060633F100
G01X8.80033399073Y20.1922860633F100
G01X8.79037217361Y20.1812860322F100
G01X8.78154608047Y20.1693554595F100
G01X8.7739421044Y20.1566111261F100
G01X8.76763467595Y20.1431777784F100
G01X8.7626855346Y20.129186907F100
G01X8.75914312439Y20.1147754596F100
G01X8.75704211975Y20.100084501F100
G01X8.7564030861Y20.0852578318F100
G01X8.75723227854Y20.0704405809F100
G01X8.75952158063Y20.0557777851F100
G01X8.76324858382Y20.0414129694F100
G01X8.76837680681Y20.0274867418F100
G01X8.80703977007Y19.9366287782F100
G01X8.80481551026Y19.5117951533F100
G01X8.64199211939Y19.1170041919F100
G01X8.34134553063Y18.8163576032F100
G01X7.94980324916Y18.6539565432F100
G01X7.52425515335Y18.6561845437F100
G01X7.12946419193Y18.8190079346F100
G01X6.82881760317Y19.1196545234F100
G01X6.66641654324Y19.5111968048F100
G01X6.66864454374Y19.9367449007F100
G01X6.83146793461Y20.3315358621F100
G01X7.13211452337Y20.6321824508F100
G01X7.52365680484Y20.7945835108F100
G01X7.94975002411Y20.7923526562F100
G01X8.04246164056Y20.7548734921F100
G01X8.05627433822Y20.7500589453F100
G01X8.07049030532Y20.7466126782F100
G01X8.08497435091Y20.7445674641F100
G01X8.09958873467Y20.7439427525F100
G01X8.11419447681Y20.7447444843F100
G01X8.12865267971Y20.7469650353F100
G01X8.1428258488Y20.7505832883F100
G01X8.15657920016Y20.7555648347F100
G01X8.16978194221Y20.7618623008F100
G01X8.18230851959Y20.7694157991F100
G01X8.1940398071Y20.7781534974F100
G01X8.20486424259Y20.7879923019F100
G01X9.34271306096Y21.9283809614F100
G01X14.8925417835Y27.4756697165F100
G01X14.9024325556Y27.486577797F100
G01X14.9112061837Y27.4984030683F100
G01X14.9187781239Y27.5110315802F100
G01X14.9250754116Y27.5243416425F100
G01X14.9300373653Y27.5382049973F100
G01X14.9336161708Y27.5524880552F100
G01X14.9357773422Y27.5670531824F100
G01X14.936500054Y27.581760027F100
G01Y30.645000027F100
G01X14.9357777629Y30.6597026007F100
G01X14.9336178455Y30.6742635806F100
G01X14.9300411032Y30.6885427364F100
G01X14.9250819818Y30.7024025522F100
G01X14.9187882405Y30.7157095503F100
G01X14.9112204913Y30.728335577F100
G01X14.9024516159Y30.7401590368F100
G01X14.8925660633Y30.7510660633F100
G01X14.8816590368Y30.7609516159F100
G01X14.869835577Y30.7697204913F100
G01X14.8572095503Y30.7772882405F100
G01X14.8439025522Y30.7835819818F100
G01X14.8300427364Y30.7885411032F100
G01X14.8157635806Y30.7921178455F100
G01X14.8012026007Y30.7942777629F100
G01X14.786500027Y30.795000054F100
G01X14.7344311224F100
G01X14.6129310917Y30.7970593766F100
G01X14.5258717904Y30.8312612449F100
G01X14.4617107256Y30.8969499542F100
G01X14.425960054Y30.9824406905F100
G01Y31.333340027F100
G01X14.4252337974Y31.3480828069F100
G01X14.4230620604Y31.3626828263F100
G01X14.4194658727Y31.3769987071F100
G01X14.4144800578Y31.3908918226F100
G01X14.4081528953Y31.4042276399F100
G01X14.4005456539Y31.4168770228F100
G01X14.3917319977Y31.4287174819F100
G01X14.3817972729Y31.4396343612F100
G01X14.3708376818Y31.4495219478F100
G01X14.3589593505Y31.4582844962F100
G01X14.346277302Y31.465837155F100
G01X14.3329143419Y31.4721067886F100
G01X14.3189998693Y31.4770326854F100
G01X14.3046686238Y31.480567146F100
G01X14.2900593809Y31.4826759447F100
G01X14.2753136081Y31.4833386611F100
G01X14.2605740949Y31.4825488779F100
G01X14.2459835701Y31.4803142429F100
G01X14.2316833198Y31.4766563949F100
G01X14.2178118195Y31.4716107544F100
G01X14.2045033927Y31.4652261806F100
G01X14.1918869104Y31.4575644979F100
G01X14.1800845433Y31.4486998975F100
G01X14.1692105787Y31.4387182192F100
G01X14.1593703137Y31.4277161196F100
G01X14.1506590358Y31.4158001368F100
G01X14.1431611Y31.4030856582F100
G01X14.1369491117Y31.3896958035F100
G01X14.0342028545Y31.1362550357F100
G01X13.7725154109Y30.8767483208F100
G01X13.5945254837Y30.804233906F100
G01X13.5811518493Y30.7980018352F100
G01X13.5684551733Y30.790486037F100
G01X13.556558299Y30.7817592287F100
G01X13.5455763313Y30.7719058441F100
G01X13.5356155234Y30.7610212169F100
G01X13.5267722484Y30.7492106585F100
G01X13.519132067Y30.7365884388F100
G01X13.5127688998Y30.7232766806F100
G01X13.5077443118Y30.7094041783F100
G01X13.5041069172Y30.6951051517F100
G01X13.5018919086Y30.680517947F100
G01X13.5011207166Y30.665783699F100
G01X13.5018008029Y30.6510449648F100
G01X13.5039255872Y30.6364443451F100
G01X13.507474512Y30.6221231044F100
G01X13.5124132405Y30.6082198039F100
G01X13.5186939893Y30.5948689614F100
G01X13.5262559908Y30.5821997492F100
G01X13.5350260809Y30.5703347451F100
G01X13.5449194068Y30.5593887456F100
G01X13.5558402484Y30.5494676559F100
G01X13.567682944Y30.5406674647F100
G01X13.5803329128Y30.5330733161F100
G01X13.5936677633Y30.526758685F100
G01X13.7741106Y30.4519409234F100
G01X14.0344860911Y30.189377403F100
G01X14.1765823816Y29.8483463057F100
G01X14.1743938553Y29.4784853604F100
G01X14.0343094084Y29.1348407016F100
G01X13.772570411Y28.8752828625F100
G01X13.7191234598Y28.8535700386F100
G01X13.7058157699Y28.8473891701F100
G01X13.6931756391Y28.8399376708F100
G01X13.6813240183Y28.8312868425F100
G01X13.670374313Y28.8215194632F100
G01X13.6604312985Y28.8107289947F100
G01X13.6515901175Y28.7990186888F100
G01X13.5782385985Y28.6912836452F100
G01X9.98139666325Y25.0919087227F100
G01X9.97159539236Y25.0810962219F100
G01X9.96289122325Y25.0693824469F100
G01X9.95536654575Y25.0568782751F100
G01X9.9490925851Y25.0437020654F100
G01X9.94412872782Y25.029978538F100
G01X9.94052195958Y25.0158375936F100
G01X9.93830642046Y25.0014130843F100
G01X9.93750308176Y24.9868415459F100
G01X9.93514833389Y24.6195008781F100
G01X9.79504940845Y24.2758207016F100
G01X9.53281740304Y24.0157739629F100
G01X9.19178630569Y23.8736776724F100
G01X8.82192536038Y23.8758661987F100
G01X8.47828070163Y24.0159506456F100
G01X8.21823396293Y24.278182651F100
G01X8.07613767237Y24.6192137483F100
G01X8.07832619867Y24.9890746936F100
G01X8.21841064555Y25.3327193524F100
G01X8.48064265096Y25.5927660911F100
G01X8.82163820255Y25.7348475709F100
G01X9.18737850812Y25.7325030818F100
G01X9.20221260324Y25.7331428721F100
G01X9.21691077201Y25.7352460945F100
G01X9.23132899874Y25.7387921413F100
G01X9.24532601068Y25.7437462675F100
G01X9.25876466222Y25.7500599317F100
G01X9.27151327869Y25.7576712711F100
G01X9.28344694652Y25.7665057084F100
G01X9.29444873719Y25.7764766818F100
G01X12.4491287372Y28.9336966818F100
G01X12.4590075077Y28.9446047683F100
G01X12.4677698271Y28.9564283979F100
G01X12.4753313527Y28.9690537607F100
G01X12.4816193002Y28.98235933F100
G01X12.4865731442Y28.9962170313F100
G01X12.4901452009Y29.0104934758F100
G01X12.4923010871Y29.0250512439F100
G01X12.493020051Y29.0397502081F100
G01X12.4922951721Y29.0544488818F100
G01X12.4901334278Y29.0690057811F100
G01X12.4865556264Y29.083280787F100
G01X12.4815962062Y29.0971364937F100
G01X12.4753029049Y29.1104395316F100
G01X12.4677362992Y29.1230618505F100
G01X12.4589692225Y29.134881953F100
G01X12.458028429Y29.1359199325F100
G01X12.315220054Y29.4786600324F100
G01Y29.606140027F100
G01X12.3144973886Y29.6208464003F100
G01X12.3123363557Y29.6354110697F100
G01X12.3087577779Y29.649693697F100
G01X12.3037961368Y29.6635566612F100
G01X12.2974992405Y29.6768663854F100
G01X12.289927763Y29.6894946231F100
G01X12.2811546594Y29.7013196945F100
G01X12.2712644634Y29.7122276587F100
G01X12.2603524724Y29.7221134116F100
G01X12.2485238291Y29.7308816987F100
G01X12.2358925089Y29.7384480328F100
G01X12.2225802215Y29.7447395082F100
G01X12.2087152378Y29.7496955032F100
G01X12.1944311543Y29.7532682641F100
G01X12.179865606Y29.7554233654F100
G01X12.1651589396Y29.7561400416F100
G01X12.1504528619Y29.7554113871F100
G01X12.1358890737Y29.7532444229F100
G01X12.121607905Y29.7496600288F100
G01X12.1077469626Y29.7446927425F100
G01X12.0944398039Y29.7383904263F100
G01X12.0818146507Y29.7308138066F100
G01X12.0699931531Y29.722035888F100
G01X12.0590892176Y29.7121412506F100
G01X9.9813692176Y27.6318812506F100
G01X9.97157382656Y27.6210699642F100
G01X9.96287501248Y27.6093582508F100
G01X9.95535505975Y27.5968568946F100
G01X9.94908510163Y27.5836841491F100
G01X9.94412444733Y27.569964619F100
G01X9.940520021Y27.555828081F100
G01X9.93830591788Y27.5414082563F100
G01X9.93750308176Y27.5268415459F100
G01X9.93514833389Y27.1595008781F100
G01X9.79504940845Y26.8158207016F100
G01X9.53281740304Y26.5557739629F100
G01X9.19178630569Y26.4136776724F100
G01X8.82192536038Y26.4158661987F100
G01X8.47828070163Y26.5559506456F100
G01X8.21823396293Y26.818182651F100
G01X8.07613767237Y27.1592137483F100
G01X8.07832619867Y27.5290746936F100
G01X8.21841064555Y27.8727193524F100
G01X8.48064265096Y28.1327660911F100
G01X8.82163820255Y28.2748475709F100
G01X9.18737850812Y28.2725030818F100
G01X9.20221301124Y28.27314291F100
G01X9.21691157652Y28.2752462506F100
G01X9.23133017644Y28.2787924936F100
G01X9.24532752681Y28.2837468902F100
G01X9.25876647115Y28.2900608936F100
G01X9.27151532465Y28.2976726343F100
G01X9.28344916454Y28.306507527F100
G01X9.29445105416Y28.3164790007F100
G01X12.2865710542Y31.3111390007F100
G01X12.2967627174Y31.3224304524F100
G01X12.3057584438Y31.3346960054F100
G01X12.3134657304Y31.3478095334F100
G01X12.3198053235Y31.3616361903F100
G01X12.3247120333Y31.3760337972F100
G01X12.3281354042Y31.3908543037F100
G01X12.3300402337Y31.4059453112F100
G01X12.3304069347Y31.4211516393F100
G01X12.3292317363Y31.4363169217F100
G01X12.326526723Y31.4512852144F100
G01X12.3223197105Y31.4659025988F100
G01X12.3166539592Y31.4800187649F100
G01X12.315415123Y31.4827029099F100
G01X12.3175861987Y31.8496146936F100
G01X12.4576706456Y32.1932593524F100
G01X12.7197059858Y32.4531110648F100
G01X12.8955196757Y32.5256342119F100
G01X12.9088233001Y32.5319017771F100
G01X12.9214492511Y32.5394419467F100
G01X12.9332761686Y32.5481822451F100
G01X12.9441903732Y32.558038661F100
G01X12.954086958Y32.5689164551F100
G01X12.9628707977Y32.5807110707F100
G01X12.9704574624Y32.5933091385F100
G01X12.9767740297Y32.6065895667F100
G01X12.981759785Y32.6204247045F100
G01X12.9853668055Y32.6346815695F100
G01X12.9875604208Y32.6492231254F100
G01X12.9883195459Y32.6639095996F100
G01X12.9876368842Y32.6785998265F100
G01X12.9855189973Y32.6931526046F100
G01X12.9819862424Y32.7074280534F100
G01X12.9770725759Y32.7212889581F100
G01X12.9708252279Y32.7346020883F100
G01X12.9633042475Y32.7472394792F100
G01X12.9545819258Y32.7590796608F100
G01X12.9447421014Y32.770008826F100
G01X12.9338793541Y32.7799219242F100
G01X12.922098096Y32.7887236713F100
G01X12.9095115678Y32.7963294654F100
G01X12.8962407506Y32.8026662002F100
G01X12.7870207506Y32.8483862002F100
G01X12.7731291335Y32.8534126554F100
G01X12.7588104493Y32.8570482519F100
G01X12.7442035843Y32.8592577255F100
G01X12.72945022Y32.8600196452F100
G01X12.714693459Y32.8593266206F100
G01X12.7000764366Y32.8571853738F100
G01X12.6857409331Y32.8536166742F100
G01X12.6718259977Y32.8486551368F100
G01X12.6584666006Y32.8423488869F100
G01X12.6457923232Y32.834759093F100
G01X12.6339261017Y32.8259593734F100
G01X12.6229830342Y32.8160350822F100
G01X9.9813830342Y30.1718950822F100
G01X9.9715846831Y30.1610831842F100
G01X9.96288317319Y30.1493704327F100
G01X9.95536084194Y30.1368676588F100
G01X9.94908886889Y30.1236931692F100
G01X9.94412660217Y30.1099716266F100
G01X9.9405209969Y30.0958328701F100
G01X9.93830617089Y30.0814106869F100
G01X9.93750308176Y30.0668415459F100
G01X9.93514833389Y29.6995008781F100
G01X9.79504940845Y29.3558207016F100
G01X9.53281740304Y29.0957739629F100
G01X9.19178630569Y28.9536776724F100
G01X8.82192536038Y28.9558661987F100
G01X8.47828070163Y29.0959506456F100
G01X8.21823396293Y29.358182651F100
G01X8.07613767237Y29.6992137483F100
G01X8.07832619867Y30.0690746936F100
G01X8.21841064555Y30.4127193524F100
G01X8.48064265096Y30.6727660911F100
G01X8.82163820255Y30.8148475709F100
G01X9.18737850812Y30.8125030818F100
G01X9.2022129314Y30.8131429026F100
G01X9.21691141909Y30.8152462201F100
G01X9.23132994598Y30.8187924247F100
G01X9.24532723012Y30.8237467684F100
G01X9.25876611716Y30.8300607053F100
G01X9.27151492428Y30.8376723676F100
G01X9.2834487305Y30.8465071711F100
G01X9.29445060076Y30.8564785469F100
G01X12.3170506008Y33.8816185469F100
G01X12.3269608348Y33.8925654233F100
G01X12.335746715Y33.9044336646F100
G01X12.3433230976Y33.917108256F100
G01X12.3496165603Y33.9304663685F100
G01X12.4574505073Y34.1920210486F100
G01X12.7194646431Y34.4518517332F100
G01X12.8974545703Y34.524366148F100
G01X12.9108282047Y34.5305982188F100
G01X12.9235248807Y34.538114017F100
G01X12.935421755Y34.5468408253F100
G01X12.9464037227Y34.5566942099F100
G01X12.9563645306Y34.5675788371F100
G01X12.9652078056Y34.5793893955F100
G01X12.972847987Y34.5920116152F100
G01X12.9792111542Y34.6053233734F100
G01X12.9842357422Y34.6191958757F100
G01X12.9878731368Y34.6334949023F100
G01X12.9900881454Y34.648082107F100
G01X12.9908593374Y34.662816355F100
G01X12.9901792511Y34.6775550892F100
G01X12.9880544668Y34.6921557089F100
G01X12.984505542Y34.7064769496F100
G01X12.9795668135Y34.7203802501F100
G01X12.9732860647Y34.7337310926F100
G01X12.9657240632Y34.7464003048F100
G01X12.9569539731Y34.7582653089F100
G01X12.9470606472Y34.7692113084F100
G01X12.9361398056Y34.7791323981F100
G01X12.92429711Y34.7879325893F100
G01X12.9116471412Y34.7955267379F100
G01X12.8983122907Y34.801841369F100
G01X12.7180212189Y34.8765962037F100
G01X12.5386510344Y35.0582368968F100
G01X12.5277571419Y35.068231775F100
G01X12.5159322476Y35.0771056896F100
G01X12.5032912234Y35.0847724355F100
G01X12.4899568696Y35.0911575349F100
G01X12.4760587217Y35.0961989602F100
G01X12.4617317921Y35.0998477369F100
G01X12.4471152584Y35.1020684192F100
G01X12.432351112Y35.1028394346F100
G01X12.4175827778Y35.1021532929F100
G01X12.4029537217Y35.1000166598F100
G01X12.3886060563Y35.0964502914F100
G01X12.374679161Y35.0914888328F100
G01X12.3613083273Y35.0851804818F100
G01X12.3486234453Y35.0775865202F100
G01X12.336747741Y35.0687807191F100
G01X12.3257965802Y35.0588486216F100
G01X9.98137658017Y32.7118886216F100
G01X9.97157961177Y32.7010770093F100
G01X9.96287936113Y32.6893647426F100
G01X9.95535814094Y32.6768626308F100
G01X9.94908710911Y32.6636889559F100
G01X9.94412559559Y32.6499683533F100
G01X9.94052054104Y32.6358306331F100
G01X9.9383060527Y32.6214095516F100
G01X9.93750308176Y32.6068415459F100
G01X9.93514833389Y32.2395008781F100
G01X9.79504940845Y31.8958207016F100
G01X9.53281740304Y31.6357739629F100
G01X9.19178630569Y31.4936776724F100
G01X8.82192536038Y31.4958661987F100
G01X8.47828070163Y31.6359506456F100
G01X8.21823396293Y31.898182651F100
G01X8.07613767237Y32.2392137483F100
G01X8.07832619867Y32.6090746936F100
G01X8.21841064555Y32.9527193524F100
G01X8.48064265096Y33.2127660911F100
G01X8.82163820255Y33.3548475709F100
G01X9.18737850812Y33.3525030818F100
G01X9.20220509029Y33.3531421744F100
G01X9.21689595759Y33.3552432209F100
G01X9.23130731195Y33.3587856557F100
G01X9.24529809126Y33.3637348044F100
G01X9.25873135011Y33.3700422234F100
G01X9.27147560023Y33.3776461742F100
G01X9.28340609756Y33.3864722272F100
G01X9.29440606327Y33.3964339907F100
G01X11.8950234559Y35.9970513834F100
G01X12.0643693302Y36.1099486329F100
G01X12.2254055985Y36.1438510052F100
G01X12.2582692322Y36.14904F100
G01X12.353180027F100
G01X12.3678826007Y36.1497622911F100
G01X12.3824435806Y36.1519222085F100
G01X12.3967227364Y36.1554989508F100
G01X12.4105825522Y36.1604580722F100
G01X12.4238895503Y36.1667518135F100
G01X12.436515577Y36.1743195627F100
G01X12.4483390368Y36.1830884381F100
G01X12.4592460633Y36.1929739907F100
G01X12.7200075203Y36.4537354478F100
G01X12.8955196757Y36.5261342119F100
G01X12.9088760639Y36.5324298878F100
G01X12.9215487528Y36.5400082512F100
G01X12.9334149422Y36.5487958668F100
G01X12.9443596469Y36.5587075809F100
G01X12.9542768109Y36.5696473477F100
G01X12.9630703353Y36.581509159F100
G01X12.9706550094Y36.594178072F100
G01X12.9769573367Y36.6075313229F100
G01X12.9819162464Y36.6214395166F100
G01X12.9854836861Y36.6357678805F100
G01X12.9876250867Y36.6503775705F100
G01X12.9883196976Y36.6651270164F100
G01X12.987560788Y36.6798732937F100
G01X12.9853557117Y36.6944735087F100
G01X12.9817258365Y36.7087861829F100
G01X12.9767063362Y36.7226726243F100
G01X12.9703458507Y36.7359982711F100
G01X12.9627060141Y36.7486339957F100
G01X12.9538608576Y36.7604573558F100
G01X12.9438960922Y36.7713537813F100
G01X12.932908278Y36.7812176841F100
G01X12.9210038887Y36.7899534813F100
G01X12.9082982796Y36.7974765217F100
G01X12.8949145703Y36.803713906F100
G01X12.7175572193Y36.8759706045F100
G01X12.4622692723Y37.1336006428F100
G01X12.4513415497Y37.1435904925F100
G01X12.4394822093Y37.1524543668F100
G01X12.426806794Y37.1601059068F100
G01X12.4134387973Y37.1664705657F100
G01X12.3995084603Y37.1714863339F100
G01X12.385151503Y37.175104344F100
G01X12.3705078019Y37.1772893467F100
G01X12.355720027Y37.178020054F100
G01X11.969640027F100
G01X11.9549374533Y37.1772977629F100
G01X11.9403764734Y37.1751378455F100
G01X11.9260973176Y37.1715611032F100
G01X11.9122375018Y37.1666019818F100
G01X11.8989305037Y37.1603082405F100
G01X11.886304477Y37.1527404913F100
G01X11.8744810172Y37.1439716159F100
G01X11.8635739907Y37.1340860633F100
G01X9.98143399073Y35.2519460633F100
G01X9.9716247235Y35.2411319148F100
G01X9.96291327153Y35.2294153397F100
G01X9.95538216806Y35.2169073418F100
G01X9.94910276359Y35.2037264234F100
G01X9.94413454988Y35.189997462F100
G01X9.94052459633Y35.1758505272F100
G01X9.93830710404Y35.1614196486F100
G01X9.93750308176Y35.1468415459F100
G01X9.93514833389Y34.7795008781F100
G01X9.79504940845Y34.4358207016F100
G01X9.53281740304Y34.1757739629F100
G01X9.19178630569Y34.0336776724F100
G01X8.82192536038Y34.0358661987F100
G01X8.47828070163Y34.1759506456F100
G01X8.21823396293Y34.438182651F100
G01X8.07613767237Y34.7792137483F100
G01X8.07832619867Y35.1490746936F100
G01X8.21841064555Y35.4927193524F100
G01X8.48064265096Y35.7527660911F100
G01X8.82163820255Y35.8948475709F100
G01X9.18737850812Y35.8925030818F100
G01X9.20220509029Y35.8931421744F100
G01X9.21689595759Y35.8952432209F100
G01X9.23130731195Y35.8987856557F100
G01X9.24529809126Y35.9037348044F100
G01X9.25873135011Y35.9100422234F100
G01X9.27147560023Y35.9176461742F100
G01X9.28340609756Y35.9264722272F100
G01X9.29440606327Y35.9364339907F100
G01X11.3540034559Y37.9960313834F100
G01X11.5233493302Y38.1089286329F100
G01X11.6843855985Y38.1428310052F100
G01X11.7172492322Y38.14802F100
G01X12.353180027F100
G01X12.3678826007Y38.1487422911F100
G01X12.3824435806Y38.1509022085F100
G01X12.3967227364Y38.1544789508F100
G01X12.4105825522Y38.1594380722F100
G01X12.4238895503Y38.1657318135F100
G01X12.436515577Y38.1732995627F100
G01X12.4483390368Y38.1820684381F100
G01X12.4592460633Y38.1919539907F100
G01X12.7200075203Y38.4527154478F100
G01X12.8955196757Y38.5251142119F100
G01X12.9088760639Y38.5314098878F100
G01X12.9215487528Y38.5389882512F100
G01X12.9334149422Y38.5477758668F100
G01X12.9443596469Y38.5576875809F100
G01X12.9542768109Y38.5686273477F100
G01X12.9630703353Y38.580489159F100
G01X12.9706550094Y38.593158072F100
G01X12.9769573367Y38.6065113229F100
G01X12.9819162464Y38.6204195166F100
G01X12.9854836861Y38.6347478805F100
G01X12.9876250867Y38.6493575705F100
G01X12.9883196976Y38.6641070164F100
G01X12.987560788Y38.6788532937F100
G01X12.9853557117Y38.6934535087F100
G01X12.9817258365Y38.7077661829F100
G01X12.9767063362Y38.7216526243F100
G01X12.9703458507Y38.7349782711F100
G01X12.9627060141Y38.7476139957F100
G01X12.9538608576Y38.7594373558F100
G01X12.9438960922Y38.7703337813F100
G01X12.932908278Y38.7801976841F100
G01X12.9210038887Y38.7889334813F100
G01X12.9082982796Y38.7964565217F100
G01X12.8949145703Y38.802693906F100
G01X12.7175572193Y38.8749506045F100
G01X12.4622692723Y39.1325806428F100
G01X12.4513415497Y39.1425704925F100
G01X12.4394822093Y39.1514343668F100
G01X12.426806794Y39.1590859068F100
G01X12.4134387973Y39.1654505657F100
G01X12.3995084603Y39.1704663339F100
G01X12.385151503Y39.174084344F100
G01X12.3705078019Y39.1762693467F100
G01X12.355720027Y39.177000054F100
G01X11.428620027F100
G01X11.4139174533Y39.1762777629F100
G01X11.3993564734Y39.1741178455F100
G01X11.3850773176Y39.1705411032F100
G01X11.3712175018Y39.1655819818F100
G01X11.3579105037Y39.1592882405F100
G01X11.345284477Y39.1517204913F100
G01X11.3334610172Y39.1429516159F100
G01X11.3225539907Y39.1330660633F100
G01X9.98143399073Y37.7919460633F100
G01X9.9716247235Y37.7811319148F100
G01X9.96291327153Y37.7694153397F100
G01X9.95538216806Y37.7569073418F100
G01X9.94910276359Y37.7437264234F100
G01X9.94413454988Y37.729997462F100
G01X9.94052459633Y37.7158505272F100
G01X9.93830710404Y37.7014196486F100
G01X9.93750308176Y37.6868415459F100
G01X9.93514833389Y37.3195008781F100
G01X9.79504940845Y36.9758207016F100
G01X9.53281740304Y36.7157739629F100
G01X9.19178630569Y36.5736776724F100
G01X8.82192536038Y36.5758661987F100
G01X8.47828070163Y36.7159506456F100
G01X8.21823396293Y36.978182651F100
G01X8.07613767237Y37.3192137483F100
G01X8.07832619867Y37.6890746936F100
G01X8.21841064555Y38.0327193524F100
G01X8.48064265096Y38.2927660911F100
G01X8.82163820255Y38.4348475709F100
G01X9.18737850812Y38.4325030818F100
G01X9.20220509029Y38.4331421744F100
G01X9.21689595759Y38.4352432209F100
G01X9.23130731195Y38.4387856557F100
G01X9.24529809126Y38.4437348044F100
G01X9.25873135011Y38.4500422234F100
G01X9.27147560023Y38.4576461742F100
G01X9.28340609756Y38.4664722272F100
G01X9.29440606327Y38.4764339907F100
G01X10.8129834559Y39.9950113834F100
G01X10.9815450137Y40.1073857553F100
G01X11.1817011976Y40.147F100
G01X12.353180027F100
G01X12.3678826007Y40.1477222911F100
G01X12.3824435806Y40.1498822085F100
G01X12.3967227364Y40.1534589508F100
G01X12.4105825522Y40.1584180722F100
G01X12.4238895503Y40.1647118135F100
G01X12.436515577Y40.1722795627F100
G01X12.4483390368Y40.1810484381F100
G01X12.4592460633Y40.1909339907F100
G01X12.7197669801Y40.4514549076F100
G01X12.8974545703Y40.523846148F100
G01X12.9108282047Y40.5300782188F100
G01X12.9235248807Y40.537594017F100
G01X12.935421755Y40.5463208253F100
G01X12.9464037227Y40.5561742099F100
G01X12.9563645306Y40.5670588371F100
G01X12.9652078056Y40.5788693955F100
G01X12.972847987Y40.5914916152F100
G01X12.9792111542Y40.6048033734F100
G01X12.9842357422Y40.6186758757F100
G01X12.9878731368Y40.6329749023F100
G01X12.9900881454Y40.647562107F100
G01X12.9908593374Y40.662296355F100
G01X12.9901792511Y40.6770350892F100
G01X12.9880544668Y40.6916357089F100
G01X12.984505542Y40.7059569496F100
G01X12.9795668135Y40.7198602501F100
G01X12.9732860647Y40.7332110926F100
G01X12.9657240632Y40.7458803048F100
G01X12.9569539731Y40.7577453089F100
G01X12.9470606472Y40.7686913084F100
G01X12.9361398056Y40.7786123981F100
G01X12.92429711Y40.7874125893F100
G01X12.9116471412Y40.7950067379F100
G01X12.8983122907Y40.801321369F100
G01X12.7178969958Y40.8761277108F100
G01X12.4622692723Y41.1341006428F100
G01X12.4513415497Y41.1440904925F100
G01X12.4394822093Y41.1529543668F100
G01X12.426806794Y41.1606059068F100
G01X12.4134387973Y41.1669705657F100
G01X12.3995084603Y41.1719863339F100
G01X12.385151503Y41.175604344F100
G01X12.3705078019Y41.1777893467F100
G01X12.355720027Y41.178520054F100
G01X10.890140027F100
G01X10.8754374533Y41.1777977629F100
G01X10.8608764734Y41.1756378455F100
G01X10.8465973176Y41.1720611032F100
G01X10.8327375018Y41.1671019818F100
G01X10.8194305037Y41.1608082405F100
G01X10.806804477Y41.1532404913F100
G01X10.7949810172Y41.1444716159F100
G01X10.7840739907Y41.1345860633F100
G01X9.98143399073Y40.3319460633F100
G01X9.9716247235Y40.3211319148F100
G01X9.96291327153Y40.3094153397F100
G01X9.95538216806Y40.2969073418F100
G01X9.94910276359Y40.2837264234F100
G01X9.94413454988Y40.269997462F100
G01X9.94052459633Y40.2558505272F100
G01X9.93830710404Y40.2414196486F100
G01X9.93750308176Y40.2268415459F100
G01X9.93514833389Y39.8595008781F100
G01X9.79504940845Y39.5158207016F100
G01X9.53281740304Y39.2557739629F100
G01X9.19178630569Y39.1136776724F100
G01X8.82192536038Y39.1158661987F100
G01X8.47828070163Y39.2559506456F100
G01X8.21823396293Y39.518182651F100
G01X8.07613767237Y39.8592137483F100
G01X8.07832619867Y40.2290746936F100
G01X8.21841064555Y40.5727193524F100
G01X8.48064265096Y40.8327660911F100
G01X8.82163820255Y40.9748475709F100
G01X9.18737850812Y40.9725030818F100
G01X9.20220509029Y40.9731421744F100
G01X9.21689595759Y40.9752432209F100
G01X9.23130731195Y40.9787856557F100
G01X9.24529809126Y40.9837348044F100
G01X9.25873135011Y40.9900422234F100
G01X9.27147560023Y40.9976461742F100
G01X9.28340609756Y41.0064722272F100
G01X9.29440606327Y41.0164339907F100
G01X10.2745034559Y41.9965313834F100
G01X10.4430650137Y42.1089057553F100
G01X10.6432211976Y42.14852F100
G01X12.353180027F100
G01X12.3678826007Y42.1492422911F100
G01X12.3824435806Y42.1514022085F100
G01X12.3967227364Y42.1549789508F100
G01X12.4105825522Y42.1599380722F100
G01X12.4238895503Y42.1662318135F100
G01X12.436515577Y42.1737995627F100
G01X12.4483390368Y42.1825684381F100
G01X12.4592460633Y42.1924539907F100
G01X12.7200075203Y42.4532154478F100
G01X12.8955196757Y42.5256142119F100
G01X12.9088760639Y42.5319098878F100
G01X12.9215487528Y42.5394882512F100
G01X12.9334149422Y42.5482758668F100
G01X12.9443596469Y42.5581875809F100
G01X12.9542768109Y42.5691273477F100
G01X12.9630703353Y42.580989159F100
G01X12.9706550094Y42.593658072F100
G01X12.9769573367Y42.6070113229F100
G01X12.9819162464Y42.6209195166F100
G01X12.9854836861Y42.6352478805F100
G01X12.9876250867Y42.6498575705F100
G01X12.9883196976Y42.6646070164F100
G01X12.987560788Y42.6793532937F100
G01X12.9853557117Y42.6939535087F100
G01X12.9817258365Y42.7082661829F100
G01X12.9767063362Y42.7221526243F100
G01X12.9703458507Y42.7354782711F100
G01X12.9627060141Y42.7481139957F100
G01X12.9538608576Y42.7599373558F100
G01X12.9438960922Y42.7708337813F100
G01X12.932908278Y42.7806976841F100
G01X12.9210038887Y42.7894334813F100
G01X12.9082982796Y42.7969565217F100
G01X12.8949145703Y42.803193906F100
G01X12.7175572193Y42.8754506045F100
G01X12.4622692723Y43.1330806428F100
G01X12.4513415497Y43.1430704925F100
G01X12.4394822093Y43.1519343668F100
G01X12.426806794Y43.1595859068F100
G01X12.4134387973Y43.1659505657F100
G01X12.3995084603Y43.1709663339F100
G01X12.385151503Y43.174584344F100
G01X12.3705078019Y43.1767693467F100
G01X12.355720027Y43.177500054F100
G01X10.349120027F100
G01X10.3344174533Y43.1767777629F100
G01X10.3198564734Y43.1746178455F100
G01X10.3055773176Y43.1710411032F100
G01X10.2917175018Y43.1660819818F100
G01X10.2784105037Y43.1597882405F100
G01X10.265784477Y43.1522204913F100
G01X10.2539610172Y43.1434516159F100
G01X10.2430539907Y43.1335660633F100
G01X9.98143399073Y42.8719460633F100
G01X9.9716247235Y42.8611319148F100
G01X9.96291327153Y42.8494153397F100
G01X9.95538216806Y42.8369073418F100
G01X9.94910276359Y42.8237264234F100
G01X9.94413454988Y42.809997462F100
G01X9.94052459633Y42.7958505272F100
G01X9.93830710404Y42.7814196486F100
G01X9.93750308176Y42.7668415459F100
G01X9.93514833389Y42.3995008781F100
G01X9.79504940845Y42.0558207016F100
G01X9.53281740304Y41.7957739629F100
G01X9.19178630569Y41.6536776724F100
G01X8.82192536038Y41.6558661987F100
G01X8.47828070163Y41.7959506456F100
G01X8.21823396293Y42.058182651F100
G01X8.07613767237Y42.3992137483F100
G01X8.07832619867Y42.7690746936F100
G01X8.21841064555Y43.1127193524F100
G01X8.48064265096Y43.3727660911F100
G01X8.82163820255Y43.5148475709F100
G01X9.18737850812Y43.5125030818F100
G01X9.20220509029Y43.5131421744F100
G01X9.21689595759Y43.5152432209F100
G01X9.23130731195Y43.5187856557F100
G01X9.24529809126Y43.5237348044F100
G01X9.25873135011Y43.5300422234F100
G01X9.27147560023Y43.5376461742F100
G01X9.28340609756Y43.5464722272F100
G01X9.29440606327Y43.5564339907F100
G01X9.73348345595Y43.9955113834F100
G01X9.90204501375Y44.1078857553F100
G01X10.1022011976Y44.1475F100
G01X12.353180027F100
G01X12.3678826007Y44.1482222911F100
G01X12.3824435806Y44.1503822085F100
G01X12.3967227364Y44.1539589508F100
G01X12.4105825522Y44.1589180722F100
G01X12.4238895503Y44.1652118135F100
G01X12.436515577Y44.1727795627F100
G01X12.4483390368Y44.1815484381F100
G01X12.4592460633Y44.1914339907F100
G01X12.7197669801Y44.4519549076F100
G01X12.8974545703Y44.524346148F100
G01X12.9108282047Y44.5305782188F100
G01X12.9235248807Y44.538094017F100
G01X12.935421755Y44.5468208253F100
G01X12.9464037227Y44.5566742099F100
G01X12.9563645306Y44.5675588371F100
G01X12.9652078056Y44.5793693955F100
G01X12.972847987Y44.5919916152F100
G01X12.9792111542Y44.6053033734F100
G01X12.9842357422Y44.6191758757F100
G01X12.9878731368Y44.6334749023F100
G01X12.9900881454Y44.648062107F100
G01X12.9908593374Y44.662796355F100
G01X12.9901792511Y44.6775350892F100
G01X12.9880544668Y44.6921357089F100
G01X12.984505542Y44.7064569496F100
G01X12.9795668135Y44.7203602501F100
G01X12.9732860647Y44.7337110926F100
G01X12.9657240632Y44.7463803048F100
G01X12.9569539731Y44.7582453089F100
G01X12.9470606472Y44.7691913084F100
G01X12.9361398056Y44.7791123981F100
G01X12.92429711Y44.7879125893F100
G01X12.9116471412Y44.7955067379F100
G01X12.8983122907Y44.801821369F100
G01X12.7178969958Y44.8766277108F100
G01X12.4622692723Y45.1346006428F100
G01X12.4513415497Y45.1445904925F100
G01X12.4394822093Y45.1534543668F100
G01X12.426806794Y45.1611059068F100
G01X12.4134387973Y45.1674705657F100
G01X12.3995084603Y45.1724863339F100
G01X12.385151503Y45.176104344F100
G01X12.3705078019Y45.1782893467F100
G01X12.355720027Y45.179020054F100
G01X10.084960027F100
G01X10.0702574533Y45.1782977629F100
G01X10.0556964734Y45.1761378455F100
G01X10.0414173176Y45.1725611032F100
G01X10.0275575018Y45.1676019818F100
G01X10.0142505037Y45.1613082405F100
G01X10.001624477Y45.1537404913F100
G01X9.98980101725Y45.1449716159F100
G01X9.97889399073Y45.1350860633F100
G01X9.96900843812Y45.1241790368F100
G01X9.9602395627Y45.112355577F100
G01X9.95267181354Y45.0997295503F100
G01X9.94637807218Y45.0864225522F100
G01X9.9414189508Y45.0725627364F100
G01X9.93784220846Y45.0582835806F100
G01X9.93568229113Y45.0437226007F100
G01X9.93496Y45.029020027F100
G01Y44.9390388715F100
G01X9.79504940845Y44.5958207016F100
G01X9.53281740304Y44.3357739629F100
G01X9.19178630569Y44.1936776724F100
G01X8.82192536038Y44.1958661987F100
G01X8.47828070163Y44.3359506456F100
G01X8.21823396293Y44.598182651F100
G01X8.07613767237Y44.9392137483F100
G01X8.07832619867Y45.3090746936F100
G01X8.21841064555Y45.6527193524F100
G01X8.48064265096Y45.9127660911F100
G01X8.82167374831Y46.0548623816F100
G01X9.20187954353Y46.0526126432F100
G01X9.21108526673Y46.0510312331F100
G01X9.22620525951Y46.0499856666F100
G01X9.24135358049Y46.0504712205F100
G01X9.25637557722Y46.0524829375F100
G01X9.27111788692Y46.0560002796F100
G01X9.2854300022Y46.0609873376F100
G01X9.29916580762Y46.0673931974F100
G01X9.31218507141Y46.0751524604F100
G01X9.36434933025Y46.1099286329F100
G01X9.52538559848Y46.1438310052F100
G01X9.5582492322Y46.14902F100
G01X12.353180027F100
G01X12.3678826007Y46.1497422911F100
G01X12.3824435806Y46.1519022085F100
G01X12.3967227364Y46.1554789508F100
G01X12.4105825522Y46.1604380722F100
G01X12.4238895503Y46.1667318135F100
G01X12.436515577Y46.1742995627F100
G01X12.4483390368Y46.1830684381F100
G01X12.4592460633Y46.1929539907F100
G01X12.7200075203Y46.4537154478F100
G01X12.8955196757Y46.5261142119F100
G01X12.9088760639Y46.5324098878F100
G01X12.9215487528Y46.5399882512F100
G01X12.9334149422Y46.5487758668F100
G01X12.9443596469Y46.5586875809F100
G01X12.9542768109Y46.5696273477F100
G01X12.9630703353Y46.581489159F100
G01X12.9706550094Y46.594158072F100
G01X12.9769573367Y46.6075113229F100
G01X12.9819162464Y46.6214195166F100
G01X12.9854836861Y46.6357478805F100
G01X12.9876250867Y46.6503575705F100
G01X12.9883196976Y46.6651070164F100
G01X12.987560788Y46.6798532937F100
G01X12.9853557117Y46.6944535087F100
G01X12.9817258365Y46.7087661829F100
G01X12.9767063362Y46.7226526243F100
G01X12.9703458507Y46.7359782711F100
G01X12.9627060141Y46.7486139957F100
G01X12.9538608576Y46.7604373558F100
G01X12.9438960922Y46.7713337813F100
G01X12.932908278Y46.7811976841F100
G01X12.9210038887Y46.7899334813F100
G01X12.9082982796Y46.7974565217F100
G01X12.8949145703Y46.803693906F100
G01X12.7175572193Y46.8759506045F100
G01X12.4622692723Y47.1335806428F100
G01X12.4513415497Y47.1435704925F100
G01X12.4394822093Y47.1524343668F100
G01X12.426806794Y47.1600859068F100
G01X12.4134387973Y47.1664505657F100
G01X12.3995084603Y47.1714663339F100
G01X12.385151503Y47.175084344F100
G01X12.3705078019Y47.1772693467F100
G01X12.355720027Y47.178000054F100
G01X10.087500027F100
G01X10.0729702185Y47.1772946778F100
G01X10.0585770631Y47.1751851834F100
G01X10.0444559285Y47.1716914105F100
G01X10.0307396243Y47.1668462181F100
G01X10.0175571525Y47.1606951754F100
G01X10.0050324944Y47.153296133F100
G01X9.99328344459Y47.1447186789F100
G01X9.98242050304Y47.1350434843F100
G01X9.97254583588Y47.1243615444F100
G01X9.96375231449Y47.1127733232F100
G01X9.95612264207Y47.1003878079F100
G01X9.94972857578Y47.0873214846F100
G01X9.94463025191Y47.0736972421F100
G01X9.94087562027Y47.0596432166F100
G01X9.93849999321Y47.0452915865F100
G01X9.93752571356Y47.0307773291F100
G01X9.93548509942Y46.9205841658F100
G01X9.90123880908Y46.8334117904F100
G01X9.83555009984Y46.7692507256F100
G01X9.75005936347Y46.733500054F100
G01X8.38443112239F100
G01X8.2629310917Y46.7355593766F100
G01X8.17587179041Y46.7697612449F100
G01X8.11171072557Y46.8354499542F100
G01X8.075960054Y46.9209406905F100
G01Y48.2865689316F100
G01X8.07801937655Y48.4080689623F100
G01X8.11222124492Y48.4951282636F100
G01X8.17790995416Y48.5592893284F100
G01X8.26340069053Y48.59504F100
G01X9.62902893161F100
G01X9.7505289623Y48.5929806774F100
G01X9.83758826359Y48.5587788091F100
G01X9.90174932843Y48.4930900998F100
G01X9.9375Y48.4075993635F100
G01Y48.298000027F100
G01X9.93822229113Y48.2832974533F100
G01X9.94038220846Y48.2687364734F100
G01X9.9439589508Y48.2544573176F100
G01X9.94891807218Y48.2405975018F100
G01X9.95521181354Y48.2272905037F100
G01X9.9627795627Y48.214664477F100
G01X9.97154843812Y48.2028410172F100
G01X9.98143399073Y48.1919339907F100
G01X9.99234101725Y48.1820484381F100
G01X10.004164477Y48.1732795627F100
G01X10.0167905037Y48.1657118135F100
G01X10.0300975018Y48.1594180722F100
G01X10.0439573176Y48.1544589508F100
G01X10.0582364734Y48.1508822085F100
G01X10.0727974533Y48.1487222911F100
G01X10.087500027Y48.148F100
G01X12.353180027F100
G01X12.3678826007Y48.1487222911F100
G01X12.3824435806Y48.1508822085F100
G01X12.3967227364Y48.1544589508F100
G01X12.4105825522Y48.1594180722F100
G01X12.4238895503Y48.1657118135F100
G01X12.436515577Y48.1732795627F100
G01X12.4483390368Y48.1820484381F100
G01X12.4592460633Y48.1919339907F100
G01X12.7202035298Y48.4528914572F100
G01X13.0609337483Y48.5948623816F100
G01X13.4307946936Y48.5926738553F100
G01X13.7744393524Y48.4525894084F100
G01X14.0344860911Y48.190357403F100
G01X14.1765823816Y47.8493263057F100
G01X14.1743938553Y47.4794653604F100
G01X14.0343094084Y47.1358207016F100
G01X13.7722740682Y46.8759689892F100
G01X13.5964603783Y46.8034458421F100
G01X13.5831039901Y46.7971501662F100
G01X13.5704313012Y46.7895718028F100
G01X13.5585651118Y46.7807841872F100
G01X13.5476204071Y46.7708724731F100
G01X13.5377032431Y46.7599327063F100
G01X13.5289097187Y46.748070895F100
G01X13.5213250446Y46.735401982F100
G01X13.5150227173Y46.7220487311F100
G01X13.5100638076Y46.7081405374F100
G01X13.5064963679Y46.6938121735F100
G01X13.5043549673Y46.6792024835F100
G01X13.5036603564Y46.6644530376F100
G01X13.504419266Y46.6497067603F100
G01X13.5066243423Y46.6351065453F100
G01X13.5102542175Y46.6207938711F100
G01X13.5152737178Y46.6069074297F100
G01X13.5216342033Y46.5935817829F100
G01X13.5292740399Y46.5809460583F100
G01X13.5381191964Y46.5691226982F100
G01X13.5480839618Y46.5582262727F100
G01X13.559071776Y46.5483623699F100
G01X13.5709761653Y46.5396265727F100
G01X13.5836817744Y46.5321035323F100
G01X13.5970654837Y46.525866148F100
G01X13.7744504812Y46.4535981861F100
G01X14.0344860911Y46.191377403F100
G01X14.1765823816Y45.8503463057F100
G01X14.1743938553Y45.4804853604F100
G01X14.0343094084Y45.1368407016F100
G01X13.7725154109Y44.8772283208F100
G01X13.5945254837Y44.804713906F100
G01X13.5811518493Y44.7984818352F100
G01X13.5684551733Y44.790966037F100
G01X13.556558299Y44.7822392287F100
G01X13.5455763313Y44.7723858441F100
G01X13.5356155234Y44.7615012169F100
G01X13.5267722484Y44.7496906585F100
G01X13.519132067Y44.7370684388F100
G01X13.5127688998Y44.7237566806F100
G01X13.5077443118Y44.7098841783F100
G01X13.5041069172Y44.6955851517F100
G01X13.5018919086Y44.680997947F100
G01X13.5011207166Y44.666263699F100
G01X13.5018008029Y44.6515249648F100
G01X13.5039255872Y44.6369243451F100
G01X13.507474512Y44.6226031044F100
G01X13.5124132405Y44.6086998039F100
G01X13.5186939893Y44.5953489614F100
G01X13.5262559908Y44.5826797492F100
G01X13.5350260809Y44.5708147451F100
G01X13.5449194068Y44.5598687456F100
G01X13.5558402484Y44.5499476559F100
G01X13.567682944Y44.5411474647F100
G01X13.5803329128Y44.5335533161F100
G01X13.5936677633Y44.527238685F100
G01X13.7741106Y44.4524209234F100
G01X14.0344860911Y44.189857403F100
G01X14.1765823816Y43.8488263057F100
G01X14.1743938553Y43.4789653604F100
G01X14.0343094084Y43.1353207016F100
G01X13.7722740682Y42.8754689892F100
G01X13.5964603783Y42.8029458421F100
G01X13.5831039901Y42.7966501662F100
G01X13.5704313012Y42.7890718028F100
G01X13.5585651118Y42.7802841872F100
G01X13.5476204071Y42.7703724731F100
G01X13.5377032431Y42.7594327063F100
G01X13.5289097187Y42.747570895F100
G01X13.5213250446Y42.734901982F100
G01X13.5150227173Y42.7215487311F100
G01X13.5100638076Y42.7076405374F100
G01X13.5064963679Y42.6933121735F100
G01X13.5043549673Y42.6787024835F100
G01X13.5036603564Y42.6639530376F100
G01X13.504419266Y42.6492067603F100
G01X13.5066243423Y42.6346065453F100
G01X13.5102542175Y42.6202938711F100
G01X13.5152737178Y42.6064074297F100
G01X13.5216342033Y42.5930817829F100
G01X13.5292740399Y42.5804460583F100
G01X13.5381191964Y42.5686226982F100
G01X13.5480839618Y42.5577262727F100
G01X13.559071776Y42.5478623699F100
G01X13.5709761653Y42.5391265727F100
G01X13.5836817744Y42.5316035323F100
G01X13.5970654837Y42.525366148F100
G01X13.7744504812Y42.4530981861F100
G01X14.0344860911Y42.190877403F100
G01X14.1765823816Y41.8498463057F100
G01X14.1743938553Y41.4799853604F100
G01X14.0343094084Y41.1363407016F100
G01X13.7725154109Y40.8767283208F100
G01X13.5945254837Y40.804213906F100
G01X13.5811518493Y40.7979818352F100
G01X13.5684551733Y40.790466037F100
G01X13.556558299Y40.7817392287F100
G01X13.5455763313Y40.7718858441F100
G01X13.5356155234Y40.7610012169F100
G01X13.5267722484Y40.7491906585F100
G01X13.519132067Y40.7365684388F100
G01X13.5127688998Y40.7232566806F100
G01X13.5077443118Y40.7093841783F100
G01X13.5041069172Y40.6950851517F100
G01X13.5018919086Y40.680497947F100
G01X13.5011207166Y40.665763699F100
G01X13.5018008029Y40.6510249648F100
G01X13.5039255872Y40.6364243451F100
G01X13.507474512Y40.6221031044F100
G01X13.5124132405Y40.6081998039F100
G01X13.5186939893Y40.5948489614F100
G01X13.5262559908Y40.5821797492F100
G01X13.5350260809Y40.5703147451F100
G01X13.5449194068Y40.5593687456F100
G01X13.5558402484Y40.5494476559F100
G01X13.567682944Y40.5406474647F100
G01X13.5803329128Y40.5330533161F100
G01X13.5936677633Y40.526738685F100
G01X13.7741106Y40.4519209234F100
G01X14.0344860911Y40.189357403F100
G01X14.1765823816Y39.8483263057F100
G01X14.1743938553Y39.4784653604F100
G01X14.0343094084Y39.1348207016F100
G01X13.7722740682Y38.8749689892F100
G01X13.5964603783Y38.8024458421F100
G01X13.5831039901Y38.7961501662F100
G01X13.5704313012Y38.7885718028F100
G01X13.5585651118Y38.7797841872F100
G01X13.5476204071Y38.7698724731F100
G01X13.5377032431Y38.7589327063F100
G01X13.5289097187Y38.747070895F100
G01X13.5213250446Y38.734401982F100
G01X13.5150227173Y38.7210487311F100
G01X13.5100638076Y38.7071405374F100
G01X13.5064963679Y38.6928121735F100
G01X13.5043549673Y38.6782024835F100
G01X13.5036603564Y38.6634530376F100
G01X13.504419266Y38.6487067603F100
G01X13.5066243423Y38.6341065453F100
G01X13.5102542175Y38.6197938711F100
G01X13.5152737178Y38.6059074297F100
G01X13.5216342033Y38.5925817829F100
G01X13.5292740399Y38.5799460583F100
G01X13.5381191964Y38.5681226982F100
G01X13.5480839618Y38.5572262727F100
G01X13.559071776Y38.5473623699F100
G01X13.5709761653Y38.5386265727F100
G01X13.5836817744Y38.5311035323F100
G01X13.5970654837Y38.524866148F100
G01X13.7744504812Y38.4525981861F100
G01X14.0344860911Y38.190377403F100
G01X14.1765823816Y37.8493463057F100
G01X14.1743938553Y37.4794853604F100
G01X14.0343094084Y37.1358407016F100
G01X13.7722740682Y36.8759889892F100
G01X13.5964603783Y36.8034658421F100
G01X13.5831039901Y36.7971701662F100
G01X13.5704313012Y36.7895918028F100
G01X13.5585651118Y36.7808041872F100
G01X13.5476204071Y36.7708924731F100
G01X13.5377032431Y36.7599527063F100
G01X13.5289097187Y36.748090895F100
G01X13.5213250446Y36.735421982F100
G01X13.5150227173Y36.7220687311F100
G01X13.5100638076Y36.7081605374F100
G01X13.5064963679Y36.6938321735F100
G01X13.5043549673Y36.6792224835F100
G01X13.5036603564Y36.6644730376F100
G01X13.504419266Y36.6497267603F100
G01X13.5066243423Y36.6351265453F100
G01X13.5102542175Y36.6208138711F100
G01X13.5152737178Y36.6069274297F100
G01X13.5216342033Y36.5936017829F100
G01X13.5292740399Y36.5809660583F100
G01X13.5381191964Y36.5691426982F100
G01X13.5480839618Y36.5582462727F100
G01X13.559071776Y36.5483823699F100
G01X13.5709761653Y36.5396465727F100
G01X13.5836817744Y36.5321235323F100
G01X13.5970654837Y36.525886148F100
G01X13.7744504812Y36.4536181861F100
G01X14.0344860911Y36.191397403F100
G01X14.1765823816Y35.8503663057F100
G01X14.1743938553Y35.4805053604F100
G01X14.0343094084Y35.1368607016F100
G01X13.7725154109Y34.8772483208F100
G01X13.5945254837Y34.804733906F100
G01X13.5811518493Y34.7985018352F100
G01X13.5684551733Y34.790986037F100
G01X13.556558299Y34.7822592287F100
G01X13.5455763313Y34.7724058441F100
G01X13.5356155234Y34.7615212169F100
G01X13.5267722484Y34.7497106585F100
G01X13.519132067Y34.7370884388F100
G01X13.5127688998Y34.7237766806F100
G01X13.5077443118Y34.7099041783F100
G01X13.5041069172Y34.6956051517F100
G01X13.5018919086Y34.681017947F100
G01X13.5011207166Y34.666283699F100
G01X13.5018008029Y34.6515449648F100
G01X13.5039255872Y34.6369443451F100
G01X13.507474512Y34.6226231044F100
G01X13.5124132405Y34.6087198039F100
G01X13.5186939893Y34.5953689614F100
G01X13.5262559908Y34.5826997492F100
G01X13.5350260809Y34.5708347451F100
G01X13.5449194068Y34.5598887456F100
G01X13.5558402484Y34.5499676559F100
G01X13.567682944Y34.5411674647F100
G01X13.5803329128Y34.5335733161F100
G01X13.5936677633Y34.527258685F100
G01X13.7737567735Y34.452587632F100
G01X14.0292341765Y34.1924225702F100
G01X14.0401817206Y34.1823290241F100
G01X14.0520760772Y34.1733706384F100
G01X14.0648000322Y34.1656356942F100
G01X14.0782281963Y34.1592004162F100
G01X14.0922282404Y34.1541282215F100
G01X14.1066621998Y34.1504690946F100
G01X14.1213878337Y34.1482590945F100
G01X14.136260027Y34.14752F100
G01X15.0561270973F100
G01X15.2562416995Y34.1074970796F100
G01X15.3068355835Y34.0760939791F100
G01X15.3189567604Y34.0693265772F100
G01X15.3316516731Y34.0637087618F100
G01X15.344811585Y34.0592886514F100
G01X15.3583237769Y34.0561041059F100
G01X15.3720725118Y34.0541824021F100
G01X15.385940027Y34.05354F100
G01X15.993000027F100
G01X16.0077026007Y34.0542622911F100
G01X16.0222635806Y34.0564222085F100
G01X16.0365427364Y34.0599989508F100
G01X16.0504025522Y34.0649580722F100
G01X16.0637095503Y34.0712518135F100
G01X16.076335577Y34.0788195627F100
G01X16.0881590368Y34.0875884381F100
G01X16.0990660633Y34.0974739907F100
G01X16.1089516159Y34.1083810172F100
G01X16.1177204913Y34.120204477F100
G01X16.1252882405Y34.1328305037F100
G01X16.1315819818Y34.1461375018F100
G01X16.1365411032Y34.1599973176F100
G01X16.1401178455Y34.1742764734F100
G01X16.1422777629Y34.1888374533F100
G01X16.143000054Y34.203540027F100
G01Y36.995000027F100
G01X16.1422943721Y37.0095329761F100
G01X16.1401839664Y37.0239291835F100
G01X16.1366886937Y37.0380531937F100
G01X16.1318414414Y37.0517721129F100
G01X16.1256878178Y37.0649568584F100
G01X16.1182857229Y37.0774833738F100
G01X16.1097048036Y37.089233796F100
G01X16.1000257986Y37.1000975642F100
G01X16.0893397784Y37.1099724602F100
G01X16.0777472889Y37.1187655703F100
G01X16.0653574048Y37.1263941592F100
G01X16.0522867036Y37.132786449F100
G01X16.0386581688Y37.1378822939F100
G01X16.0246000324Y37.1416337467F100
G01X16.0102445687Y37.1440055097F100
G01X15.9957268495Y37.1449752668F100
G01X15.8830199095Y37.1470244838F100
G01X15.7958717904Y37.1812612449F100
G01X15.7317107256Y37.2469499542F100
G01X15.695960054Y37.3324406905F100
G01Y38.1900689316F100
G01X15.6980193766Y38.3115689623F100
G01X15.7322212449Y38.3986282636F100
G01X15.7979099542Y38.4627893284F100
G01X15.8834006905Y38.49854F100
G01X16.501000027F100
G01X17.2490289316F100
G01X17.3704563829Y38.4964819076F100
G01X17.4290013393Y38.473418743F100
G01X17.4425792192Y38.4688065856F100
G01X17.456535467Y38.4655120501F100
G01X17.4707425345Y38.4635652456F100
G01X17.4850705815Y38.4629839644F100
G01X17.4993886616Y38.4637735188F100
G01X17.5135659201Y38.465926693F100
G01X17.5274727888Y38.4694238089F100
G01X17.5409821709Y38.4742329056F100
G01X17.5539706022Y38.4803100323F100
G01X17.5663193795Y38.4875996493F100
G01X17.7120160931Y38.5832810731F100
G01X17.9127011976Y38.623F100
G01X22.9631470973F100
G01X23.1607850628Y38.5834724069F100
G01X23.3168734693Y38.4794134693F100
G01X23.4249641951Y38.3172773805F100
G01X23.4261460584Y38.3133378364F100
G01X23.431097623Y38.2993777563F100
G01X23.4374018961Y38.2859741012F100
G01X23.4449974033Y38.2732575726F100
G01X23.4538100796Y38.2613521718F100
G01X23.4637539907Y38.2503739907F100
G01X23.5189512609Y38.1951767206F100
G01X23.6166984502Y38.0465195368F100
G01X23.6535Y37.8686453795F100
G01Y36.593680027F100
G01X23.6538299184Y36.587000027F100
G01X23.589200027F100
G01Y35.117000027F100
G01X23.6449987243F100
G01X23.6432069679Y35.1091437526F100
G01X23.6414029538Y35.0958158979F100
G01X23.6408Y35.082380027F100
G01Y34.9946520725F100
G01X23.6361971295Y34.990049202F100
G01X23.6237547397Y34.9956482774F100
G01X23.6092975451Y35.0012743236F100
G01X23.5943365896Y35.0053770889F100
G01X23.5790318975Y35.0079126896F100
G01X23.5635471696Y35.0088540046F100
G01X23.5480480325Y35.0081909654F100
G01X23.5327002669Y35.005930664F100
G01X23.5176680344Y35.0020972768F100
G01X23.5031121216Y34.9967318063F100
G01X23.4780713662Y34.986000054F100
G01X23.1037311224F100
G01X22.981027632Y34.9880797742F100
G01X22.9646285527Y34.9942294289F100
G01X22.9504272971Y34.9987637407F100
G01X22.9358460951Y35.0018660285F100
G01X22.9210289671Y35.0035056508F100
G01X22.9061222639Y35.0036664127F100
G01X22.8912732212Y35.0023467264F100
G01X22.8766285048Y34.9995596265F100
G01X22.8623327627Y34.9953326417F100
G01X22.8485271958Y34.9897075225F100
G01X22.8405826205Y34.986000054F100
G01X22.4687311224F100
G01X22.3464300139Y34.9880729541F100
G01X22.3176593358Y34.9990332125F100
G01X22.3036368718Y35.003599352F100
G01X22.2892338017Y35.0067664795F100
G01X22.2745893416Y35.0085039823F100
G01X22.2598450412Y35.0087950663F100
G01X22.2451434148Y35.0076369178F100
G01X22.2306265646Y35.0050407313F100
G01X22.2164348065Y35.0010316008F100
G01X22.2027053143Y34.9956482774F100
G01X22.1911538708Y34.9904501278F100
G01X22.188200054Y34.9934837775F100
G01Y35.082380027F100
G01X22.1873351256Y35.0984651273F100
G01X22.1847503153Y35.1143647282F100
G01X22.1840249413Y35.117000027F100
G01X22.239800027F100
G01Y36.587000027F100
G01X22.1833369786F100
G01X22.1852871548Y36.5947426014F100
G01X22.1874700529Y36.6093793816F100
G01X22.188200054Y36.624160027F100
G01Y36.7118879815F100
G01X22.1925978606Y36.7162857881F100
G01X22.2077121216Y36.7098082477F100
G01X22.2222680344Y36.7044427772F100
G01X22.2373002669Y36.70060939F100
G01X22.2526480325Y36.6983490886F100
G01X22.2681471696Y36.6976860494F100
G01X22.2836318975Y36.6986273644F100
G01X22.2989365896Y36.7011629651F100
G01X22.3138975451Y36.7052657304F100
G01X22.3283547397Y36.7108917766F100
G01X22.3497952361Y36.72054F100
G01X22.660500027F100
G01X22.6752026007Y36.7212622911F100
G01X22.6897635806Y36.7234222085F100
G01X22.7040427364Y36.7269989508F100
G01X22.7179025522Y36.7319580722F100
G01X22.7312095503Y36.7382518135F100
G01X22.743835577Y36.7458195627F100
G01X22.7556590368Y36.7545884381F100
G01X22.7665660633Y36.7644739907F100
G01X22.7764516159Y36.7753810172F100
G01X22.7852204913Y36.787204477F100
G01X22.7927882405Y36.7998305037F100
G01X22.7990819818Y36.8131375018F100
G01X22.8040411032Y36.8269973176F100
G01X22.8076178455Y36.8412764734F100
G01X22.8097777629Y36.8558374533F100
G01X22.810500054Y36.870540027F100
G01Y37.503000027F100
G01X22.8097777629Y37.5177026007F100
G01X22.8076178455Y37.5322635806F100
G01X22.8040411032Y37.5465427364F100
G01X22.7990819818Y37.5604025522F100
G01X22.7927882405Y37.5737095503F100
G01X22.7852204913Y37.586335577F100
G01X22.7764516159Y37.5981590368F100
G01X22.7665660633Y37.6090660633F100
G01X22.7556590368Y37.6189516159F100
G01X22.743835577Y37.6277204913F100
G01X22.7312095503Y37.6352882405F100
G01X22.7179025522Y37.6415819818F100
G01X22.7040427364Y37.6465411032F100
G01X22.6897635806Y37.6501178455F100
G01X22.6752026007Y37.6522777629F100
G01X22.660500027Y37.653000054F100
G01X18.159620027F100
G01X18.1449174533Y37.6522777629F100
G01X18.1303564734Y37.6501178455F100
G01X18.1160773176Y37.6465411032F100
G01X18.1022175018Y37.6415819818F100
G01X18.0889105037Y37.6352882405F100
G01X18.076284477Y37.6277204913F100
G01X18.0644610172Y37.6189516159F100
G01X18.0535539907Y37.6090660633F100
G01X17.1569339907Y36.7124460633F100
G01X17.1470484381Y36.7015390368F100
G01X17.1382795627Y36.689715577F100
G01X17.1307118135Y36.6770895503F100
G01X17.1244180722Y36.6637825522F100
G01X17.1194589508Y36.6499227364F100
G01X17.1158822085Y36.6356435806F100
G01X17.1137222911Y36.6210826007F100
G01X17.113Y36.606380027F100
G01Y25.067160027F100
G01X17.1137209334Y25.0524712447F100
G01X17.1158768038Y25.0379236576F100
G01X17.1194468879Y25.0236571034F100
G01X17.1243968686Y25.0098087186F100
G01X17.1306791644Y24.99651162F100
G01X17.138233387Y24.9838936253F100
G01X17.146986922Y24.9720760243F100
G01X17.1568556265Y24.9611724129F100
G01X18.8739739907Y23.2415139907F100
G01X22.2445539907Y19.8709339907F100
G01X22.2554610172Y19.8610484381F100
G01X22.267284477Y19.8522795627F100
G01X22.2799105037Y19.8447118135F100
G01X22.2932175018Y19.8384180722F100
G01X22.3070773176Y19.8334589508F100
G01X22.3213564734Y19.8298822085F100
G01X22.3359174533Y19.8277222911F100
G01X22.350620027Y19.827F100
G01X22.637640027F100
G01X22.6520299324Y19.8276918265F100
G01X22.6662871002Y19.8297609245F100
G01X22.6802800173Y19.8331882079F100
G01X22.6938796082Y19.8379420621F100
G01X22.7069604253Y19.8439786359F100
G01X22.7194018066Y19.851242246F100
G01X22.7310889885Y19.8596658901F100
G01X22.7419141643Y19.8691718656F100
G01X22.7517774787Y19.8796724861F100
G01X22.760587949Y19.8910708901F100
G01X22.7682643044Y19.9032619347F100
G01X22.7705067433Y19.9077219912F100
G01X23.0501706174Y20.1851837876F100
G01X23.4140983461Y20.3373717469F100
G01X23.8091254751Y20.3351648914F100
G01X24.1759475576Y20.1849004239F100
G01X24.2054339907Y20.1554139907F100
G01X24.2163410172Y20.1455284381F100
G01X24.228164477Y20.1367595627F100
G01X24.2407905037Y20.1291918135F100
G01X24.2540975018Y20.1228980722F100
G01X24.2679573176Y20.1179389508F100
G01X24.2822364734Y20.1143622085F100
G01X24.2967974533Y20.1122022911F100
G01X24.311500027Y20.11148F100
G01X24.3262026007Y20.1122022911F100
G01X24.3407635806Y20.1143622085F100
G01X24.3550427364Y20.1179389508F100
G01X24.3689025522Y20.1228980722F100
G01X24.3822095503Y20.1291918135F100
G01X24.394835577Y20.1367595627F100
G01X24.4066590368Y20.1455284381F100
G01X24.4175660633Y20.1554139907F100
G01X24.4274516159Y20.1663210172F100
G01X24.4362204913Y20.178144477F100
G01X24.4437882405Y20.1907705037F100
G01X24.4500819818Y20.2040775018F100
G01X24.4550411032Y20.2179373176F100
G01X24.4586178455Y20.2322164734F100
G01X24.4607777629Y20.2467774533F100
G01X24.461500054Y20.261480027F100
G01Y25.201780027F100
G01X24.4607752671Y25.2165079189F100
G01X24.4586079105Y25.2310934831F100
G01X24.4550189292Y25.2453957672F100
G01X24.4500430066Y25.2592765565F100
G01X24.443728229Y25.2726017095F100
G01X24.4361356213Y25.2852424541F100
G01X24.4273385571Y25.2970766326F100
G01X24.4174220498Y25.3079898814F100
G01X23.4801620498Y26.2427098814F100
G01X23.4692613068Y26.2525645112F100
G01X23.4574486135Y26.2613052322F100
G01X23.4448373402Y26.2688481568F100
G01X23.4315485214Y26.2751208933F100
G01X23.4177096943Y26.28006324F100
G01X23.4034536746Y26.2836277636F100
G01X23.388917282Y26.2857802544F100
G01X23.374240027Y26.286500054F100
G01X19.1834590701F100
G01X19.0157131706Y26.3214471164F100
G01X19.0145374526Y26.3216871548F100
G01X19.0050500836Y26.3235846286F100
G01X18.8568233334Y26.4210487931F100
G01X17.6085087931Y27.6693633334F100
G01X17.5110446286Y27.8175900836F100
G01X17.5091471548Y27.8270774526F100
G01X17.5088205526Y27.8286657719F100
G01X17.476500054Y27.9816494654F100
G01Y34.3247329839F100
G01X17.5089071164Y34.4802868834F100
G01X17.5091471548Y34.4814626014F100
G01X17.5110446286Y34.4909499704F100
G01X17.6085087931Y34.6391767206F100
G01X19.1108233334Y36.1414912609F100
G01X19.2597063721Y36.2393869575F100
G01X19.4249616047Y36.2741775328F100
G01X19.4389035779Y36.2778200115F100
G01X19.4524317025Y36.2827834892F100
G01X19.4654211313Y36.2890221594F100
G01X19.4777519884Y36.2964784473F100
G01X19.4893104759Y36.3050835407F100
G01X19.4999899237Y36.3147580257F100
G01X19.5096917742Y36.3254126192F100
G01X19.5183264918Y36.336948993F100
G01X19.5258143889Y36.349260681F100
G01X19.532086362Y36.3622340622F100
G01X19.5370845288Y36.3757494089F100
G01X19.5407627625Y36.3896819917F100
G01X19.5430871178Y36.4039032307F100
G01X19.5440361439Y36.4182818821F100
G01X19.5460936734Y36.5335035362F100
G01X19.5803212449Y36.6206282636F100
G01X19.6460099542Y36.6847893284F100
G01X19.7315006905Y36.72054F100
G01X20.1065289316F100
G01X20.2288300401Y36.7184670999F100
G01X20.2576007182Y36.7075068415F100
G01X20.2716231822Y36.702940702F100
G01X20.2860262523Y36.6997735745F100
G01X20.3006707124Y36.6980360717F100
G01X20.3154150128Y36.6977449877F100
G01X20.3301166392Y36.6989031362F100
G01X20.3446334894Y36.7014993227F100
G01X20.3588252475Y36.7055084532F100
G01X20.3725547397Y36.7108917766F100
G01X20.3939952361Y36.72054F100
G01X20.7669289316F100
G01X20.890403968Y36.7184472028F100
G01X20.8947385583Y36.7168709881F100
G01X20.9092937983Y36.7124004833F100
G01X20.9242272598Y36.7094285897F100
G01X20.9393850682Y36.7079859299F100
G01X20.9546110373Y36.7080873689F100
G01X20.9697482784Y36.7097318616F100
G01X20.9846408171Y36.7129024631F100
G01X20.9991352006Y36.7175665034F100
G01X21.0059232408Y36.72054F100
G01X21.3765289316F100
G01X21.4985830288Y36.7184712865F100
G01X21.5398531554Y36.7025981609F100
G01X21.5537678341Y36.6980129319F100
G01X21.5680634526Y36.6948070158F100
G01X21.5826036355Y36.693010996F100
G01X21.5972496743Y36.6926420059F100
G01X21.6118618507Y36.6937035655F100
G01X21.6263007693Y36.6961855479F100
G01X21.6404286876Y36.7000642758F100
G01X21.65411083Y36.7053027474F100
G01X21.6792131591Y36.7163477722F100
G01X21.685Y36.7107132166F100
G01Y36.587000027F100
G01X21.633400027F100
G01Y35.117000027F100
G01X21.685F100
G01Y34.9799329608F100
G01X21.6837180722Y34.9772225522F100
G01X21.6787589508Y34.9633627364F100
G01X21.6751822085Y34.9490835806F100
G01X21.6730222911Y34.9345226007F100
G01X21.6723Y34.919820027F100
G01Y33.566000027F100
G01X21.6730222911Y33.5512974533F100
G01X21.6751822085Y33.5367364734F100
G01X21.6787589508Y33.5224573176F100
G01X21.6837180722Y33.5085975018F100
G01X21.6900118135Y33.4952905037F100
G01X21.6975795627Y33.482664477F100
G01X21.7063484381Y33.4708410172F100
G01X21.7162339907Y33.4599339907F100
G01X21.7271410172Y33.4500484381F100
G01X21.738964477Y33.4412795627F100
G01X21.7515905037Y33.4337118135F100
G01X21.7648975018Y33.4274180722F100
G01X21.7787573176Y33.4224589508F100
G01X21.7930364734Y33.4188822085F100
G01X21.8075974533Y33.4167222911F100
G01X21.8142056598Y33.4163976508F100
G01X21.8179477089Y33.4148384636F100
G01X21.8318721512Y33.4098274472F100
G01X21.8462226014Y33.4062128992F100
G01X21.8608593816Y33.4040300011F100
G01X21.875640027Y33.4033F100
G01X26.432400027F100
G01X27.067400027F100
G01X29.023200027F100
G01X29.963000027F100
G01X29.9777026007Y33.4040222911F100
G01X29.9922635806Y33.4061822085F100
G01X30.0065427364Y33.4097589508F100
G01X30.0204025522Y33.4147180722F100
G01X30.0337095503Y33.4210118135F100
G01X30.046335577Y33.4285795627F100
G01X30.0581590368Y33.4373484381F100
G01X30.0690660633Y33.4472339907F100
G01X30.0789516159Y33.4581410172F100
G01X30.0877204913Y33.469964477F100
G01X30.0952882405Y33.4825905037F100
G01X30.1015819818Y33.4958975018F100
G01X30.1065411032Y33.5097573176F100
G01X30.1101178455Y33.5240364734F100
G01X30.1122777629Y33.5385974533F100
G01X30.113000054Y33.553300027F100
G01Y39.408000027F100
G01X30.1122777629Y39.4227026007F100
G01X30.1101178455Y39.4372635806F100
G01X30.1065411032Y39.4515427364F100
G01X30.1015819818Y39.4654025522F100
G01X30.0952882405Y39.4787095503F100
G01X30.0877204913Y39.491335577F100
G01X30.0789516159Y39.5031590368F100
G01X30.0690660633Y39.5140660633F100
G01X30.0581590368Y39.5239516159F100
G01X30.046335577Y39.5327204913F100
G01X30.0337095503Y39.5402882405F100
G01X30.0204025522Y39.5465819818F100
G01X30.0065427364Y39.5515411032F100
G01X29.9922635806Y39.5551178455F100
G01X29.9777026007Y39.5572777629F100
G01X29.963000027Y39.558000054F100
G01X17.9128529567F100
G01X17.7369174526Y39.5931871548F100
G01X17.722350066Y39.5953631653F100
G01X17.7076394962Y39.5960999892F100
G01X17.6929275817Y39.5953905221F100
G01X17.6783561738Y39.5932416048F100
G01X17.6640657693Y39.5896739569F100
G01X17.6501941553Y39.5847219775F100
G01X17.6368750813Y39.5784334134F100
G01X17.6242369689Y39.5708688983F100
G01X17.612401674Y39.5621013691F100
G01X17.601483312Y39.5522153616F100
G01X17.591587157Y39.5413061963F100
G01X17.5828086271Y39.5294790585F100
G01X17.5752323645Y39.516847985F100
G01X17.5689314191Y39.5035347638F100
G01X17.5639665441Y39.4896677602F100
G01X17.5603856106Y39.475380679F100
G01X17.5582231458Y39.4608112755F100
G01X17.5575Y39.446100027F100
G01Y39.2374406905F100
G01X17.5217493284Y39.1519499542F100
G01X17.4575882636Y39.0862612449F100
G01X17.3705289623Y39.0520593766F100
G01X17.2490289316Y39.050000054F100
G01X16.9122868374F100
G01X16.905000054Y39.0574837775F100
G01Y39.181000027F100
G01X17.426500027F100
G01Y40.270000027F100
G01X16.905000054F100
G01Y40.3948879815F100
G01X16.9115047946Y40.4013927221F100
G01X17.2507747059Y40.40354F100
G01X17.263000027F100
G01X17.2777026007Y40.4042622911F100
G01X17.2922635806Y40.4064222085F100
G01X17.3065427364Y40.4099989508F100
G01X17.3204025522Y40.4149580722F100
G01X17.3337095503Y40.4212518135F100
G01X17.346335577Y40.4288195627F100
G01X17.3581590368Y40.4375884381F100
G01X17.3690660633Y40.4474739907F100
G01X17.3789516159Y40.4583810172F100
G01X17.3877204913Y40.470204477F100
G01X17.3952882405Y40.4828305037F100
G01X17.4015819818Y40.4961375018F100
G01X17.4065411032Y40.5099973176F100
G01X17.4101178455Y40.5242764734F100
G01X17.4122777629Y40.5388374533F100
G01X17.413000054Y40.553540027F100
G01Y45.7432988564F100
G01X17.4526142987Y45.9434550403F100
G01X17.5649886706Y46.1120165981F100
G01X19.4489834559Y47.9960113834F100
G01X19.6183293302Y48.1089086329F100
G01X19.7793655985Y48.1428110052F100
G01X19.8122292322Y48.148F100
G01X34.354660027F100
G01X34.3693626007Y48.1487222911F100
G01X34.3839235806Y48.1508822085F100
G01X34.3982027364Y48.1544589508F100
G01X34.4120625522Y48.1594180722F100
G01X34.4253695503Y48.1657118135F100
G01X34.437995577Y48.1732795627F100
G01X34.4498190368Y48.1820484381F100
G01X34.4607260633Y48.1919339907F100
G01X34.7216835298Y48.4528914572F100
G01X35.0624137483Y48.5948623816F100
G01X35.4322746936Y48.5926738553F100
G01X35.7759193524Y48.4525894084F100
G01X36.0359660911Y48.190357403F100
G01X36.1780623816Y47.8493263057F100
G01X36.1758738553Y47.4794653604F100
G01X36.0357894084Y47.1358207016F100
G01X35.7737540682Y46.8759689892F100
G01X35.5979403783Y46.8034458421F100
G01X35.5845839901Y46.7971501662F100
G01X35.5719113012Y46.7895718028F100
G01X35.5600451118Y46.7807841872F100
G01X35.5491004071Y46.7708724731F100
G01X35.5391832431Y46.7599327063F100
G01X35.5303897187Y46.748070895F100
G01X35.5228050446Y46.735401982F100
G01X35.5165027173Y46.7220487311F100
G01X35.5115438076Y46.7081405374F100
G01X35.5079763679Y46.6938121735F100
G01X35.5058349673Y46.6792024835F100
G01X35.5051403564Y46.6644530376F100
G01X35.505899266Y46.6497067603F100
G01X35.5081043423Y46.6351065453F100
G01X35.5117342175Y46.6207938711F100
G01X35.5167537178Y46.6069074297F100
G01X35.5231142033Y46.5935817829F100
G01X35.5307540399Y46.5809460583F100
G01X35.5395991964Y46.5691226982F100
G01X35.5495639618Y46.5582262727F100
G01X35.560551776Y46.5483623699F100
G01X35.5724561653Y46.5396265727F100
G01X35.5851617744Y46.5321035323F100
G01X35.5985454837Y46.525866148F100
G01X35.7759304812Y46.4535981861F100
G01X36.0359660911Y46.191377403F100
G01X36.1780623816Y45.8503463057F100
G01X36.1758738553Y45.4804853604F100
G01X36.0357894084Y45.1368407016F100
G01X35.7739954109Y44.8772283208F100
G01X35.5960054837Y44.804713906F100
G01X35.5826318493Y44.7984818352F100
G01X35.5699351733Y44.790966037F100
G01X35.558038299Y44.7822392287F100
G01X35.5470563313Y44.7723858441F100
G01X35.5370955234Y44.7615012169F100
G01X35.5282522484Y44.7496906585F100
G01X35.520612067Y44.7370684388F100
G01X35.5142488998Y44.7237566806F100
G01X35.5092243118Y44.7098841783F100
G01X35.5055869172Y44.6955851517F100
G01X35.5033719086Y44.680997947F100
G01X35.5026007166Y44.666263699F100
G01X35.5032808029Y44.6515249648F100
G01X35.5054055872Y44.6369243451F100
G01X35.508954512Y44.6226031044F100
G01X35.5138932405Y44.6086998039F100
G01X35.5201739893Y44.5953489614F100
G01X35.5277359908Y44.5826797492F100
G01X35.5365060809Y44.5708147451F100
G01X35.5463994068Y44.5598687456F100
G01X35.5573202484Y44.5499476559F100
G01X35.569162944Y44.5411474647F100
G01X35.5818129128Y44.5335533161F100
G01X35.5951477633Y44.527238685F100
G01X35.7755906Y44.4524209234F100
G01X36.0359660911Y44.189857403F100
G01X36.1780623816Y43.8488263057F100
G01X36.1758738553Y43.4789653604F100
G01X36.0357894084Y43.1353207016F100
G01X35.7737540682Y42.8754689892F100
G01X35.5979403783Y42.8029458421F100
G01X35.5845839901Y42.7966501662F100
G01X35.5719113012Y42.7890718028F100
G01X35.5600451118Y42.7802841872F100
G01X35.5491004071Y42.7703724731F100
G01X35.5391832431Y42.7594327063F100
G01X35.5303897187Y42.747570895F100
G01X35.5228050446Y42.734901982F100
G01X35.5165027173Y42.7215487311F100
G01X35.5115438076Y42.7076405374F100
G01X35.5079763679Y42.6933121735F100
G01X35.5058349673Y42.6787024835F100
G01X35.5051403564Y42.6639530376F100
G01X35.505899266Y42.6492067603F100
G01X35.5081043423Y42.6346065453F100
G01X35.5117342175Y42.6202938711F100
G01X35.5167537178Y42.6064074297F100
G01X35.5231142033Y42.5930817829F100
G01X35.5307540399Y42.5804460583F100
G01X35.5395991964Y42.5686226982F100
G01X35.5495639618Y42.5577262727F100
G01X35.560551776Y42.5478623699F100
G01X35.5724561653Y42.5391265727F100
G01X35.5851617744Y42.5316035323F100
G01X35.5985454837Y42.525366148F100
G01X35.7755753073Y42.4532428866F100
G01X36.0307141765Y42.1934225702F100
G01X36.0416617206Y42.1833290241F100
G01X36.0535560772Y42.1743706384F100
G01X36.0662800322Y42.1666356942F100
G01X36.0797081963Y42.1602004162F100
G01X36.0937082404Y42.1551282215F100
G01X36.1081421998Y42.1514690946F100
G01X36.1228678337Y42.1492590945F100
G01X36.137740027Y42.14852F100
G01X37.669360027F100
G01X37.6840947169Y42.1492454578F100
G01X37.6986868815Y42.151414814F100
G01X37.7129953743Y42.1550070848F100
G01X37.7268817924Y42.1599875232F100
G01X37.7402118158Y42.1663079544F100
G01X37.7528565062Y42.1739072425F100
G01X37.7646935545Y42.1827118812F100
G01X37.7756084636Y42.1926367053F100
G01X38.5122084636Y42.9317767053F100
G01X38.5220547959Y42.9426757508F100
G01X38.5307879633Y42.9544855452F100
G01X38.5383242283Y42.9670928511F100
G01X38.5445913302Y42.9803767845F100
G01X38.5495291774Y42.9942099735F100
G01X38.5530904238Y43.0084597798F100
G01X38.5552409226Y43.0229895702F100
G01X38.555960054Y43.037660027F100
G01Y43.8415689316F100
G01X38.5580193766Y43.9630689623F100
G01X38.5922212449Y44.0501282636F100
G01X38.6579099542Y44.1142893284F100
G01X38.7434006905Y44.15004F100
G01X40.1090289316F100
G01X40.2305289623Y44.1479806774F100
G01X40.3175882636Y44.1137788091F100
G01X40.3817493284Y44.0480900998F100
G01X40.4175Y43.9625993635F100
G01Y42.5969711224F100
G01X40.4154406774Y42.4754710917F100
G01X40.3812388091Y42.3884117904F100
G01X40.3155500998Y42.3242507256F100
G01X40.2300593635Y42.288500054F100
G01X39.305120027F100
G01X39.2904431202Y42.2877802886F100
G01X39.2759070658Y42.2856279F100
G01X39.2616513644Y42.2820635442F100
G01X39.2478128262Y42.2771214281F100
G01X39.2345242576Y42.2708489803F100
G01X39.2219131875Y42.2633063969F100
G01X39.2101006426Y42.2545660629F100
G01X39.1991999864Y42.2447118583F100
G01X38.2850832711Y41.3331064526F100
G01X38.1156507238Y41.2201514211F100
G01X37.9179017302Y41.178520054F100
G01X36.140280027F100
G01X36.1256618882Y41.1778060549F100
G01X36.1111829139Y41.1756708547F100
G01X36.0969809437Y41.1721347807F100
G01X36.0831911801Y41.1672314961F100
G01X36.0699449017Y41.1610076802F100
G01X36.0573682127Y41.1535225836F100
G01X36.0455808431Y41.1448474643F100
G01X36.0346950084Y41.1350649094F100
G01X35.7740200242Y40.8767383484F100
G01X35.5960054837Y40.804213906F100
G01X35.5826318493Y40.7979818352F100
G01X35.5699351733Y40.790466037F100
G01X35.558038299Y40.7817392287F100
G01X35.5470563313Y40.7718858441F100
G01X35.5370955234Y40.7610012169F100
G01X35.5282522484Y40.7491906585F100
G01X35.520612067Y40.7365684388F100
G01X35.5142488998Y40.7232566806F100
G01X35.5092243118Y40.7093841783F100
G01X35.5055869172Y40.6950851517F100
G01X35.5033719086Y40.680497947F100
G01X35.5026007166Y40.665763699F100
G01X35.5032808029Y40.6510249648F100
G01X35.5054055872Y40.6364243451F100
G01X35.508954512Y40.6221031044F100
G01X35.5138932405Y40.6081998039F100
G01X35.5201739893Y40.5948489614F100
G01X35.5277359908Y40.5821797492F100
G01X35.5365060809Y40.5703147451F100
G01X35.5463994068Y40.5593687456F100
G01X35.5573202484Y40.5494476559F100
G01X35.569162944Y40.5406474647F100
G01X35.5818129128Y40.5330533161F100
G01X35.5951477633Y40.526738685F100
G01X35.7752367735Y40.452067632F100
G01X36.0307141765Y40.1919025702F100
G01X36.0416617206Y40.1818090241F100
G01X36.0535560772Y40.1728506384F100
G01X36.0662800322Y40.1651156942F100
G01X36.0797081963Y40.1586804162F100
G01X36.0937082404Y40.1536082215F100
G01X36.1081421998Y40.1499490946F100
G01X36.1228678337Y40.1477390945F100
G01X36.137740027Y40.147F100
G01X38.207840027F100
G01X38.2226614461Y40.1477340442F100
G01X38.2373378042Y40.1499289923F100
G01X38.2517254601Y40.153563362F100
