%
(Header)
(Generated by gcodetools from Inkscape.)
(Using default header. To add your own header create file "header" in the output dir.)
M3
(Header end.)
G21 (All units in mm)

(Start cutting path id: path5354)
(Change tool to Default tool)

G00 Z5.000000
G00 X41.489975 Y1.411112

G01 Z-0.125000 F100.0(Penetrate)
G01 X40.453691 Y1.411112 Z-0.125000 F400.000000
G01 X40.453691 Y9.988015 Z-0.125000
G01 X41.489975 Y9.988015 Z-0.125000
G01 X41.489975 Y1.411112 Z-0.125000
G01 X41.489975 Y1.411112 Z-0.125000
G00 Z5.000000

(End cutting path id: path5354)


(Start cutting path id: path5352)
(Change tool to Default tool)

G00 Z5.000000
G00 X38.871703 Y4.382179

G01 Z-0.125000 F100.0(Penetrate)
G01 X34.335201 Y4.382179 Z-0.125000 F400.000000
G03 X34.382944 Y3.823654 Z-0.125000 I3.290852 J0.000000
G03 X34.506078 Y3.389970 Z-0.125000 I2.097646 J0.361254
G03 X34.716052 Y2.998427 Z-0.125000 I1.963830 J0.801078
G03 X34.974609 Y2.700953 Z-0.125000 I1.380226 J0.938553
G03 X35.282801 Y2.472689 Z-0.125000 I1.207529 J1.308162
G03 X35.652606 Y2.304092 Z-0.125000 I1.009973 J1.725436
G03 X36.055221 Y2.207154 Z-0.125000 I0.766745 J2.299990
G03 X36.523524 Y2.171786 Z-0.125000 I0.468303 J3.082658
G03 X37.140580 Y2.231839 Z-0.125000 I0.000000 J3.200209
G03 X37.785808 Y2.419831 Z-0.125000 I-0.725091 J3.689936
G03 X38.403025 Y2.709236 Z-0.125000 I-2.064714 J5.206321
G03 X38.695314 Y2.915921 Z-0.125000 I-0.739584 J1.355916
G01 X38.750435 Y2.915921 Z-0.125000
G01 X38.750435 Y1.785932 Z-0.125000
G02 X38.220663 Y1.583180 Z-0.125000 I-3.337560 J7.927218
G02 X37.681078 Y1.416616 Z-0.125000 I-2.782738 J8.057436
G02 X37.130218 Y1.306296 Z-0.125000 I-1.078510 J3.954877
G02 X36.534550 Y1.267800 Z-0.125000 I-0.595668 J4.589230
G02 X35.099256 Y1.508840 Z-0.125000 I-0.000000 J4.393810
G02 X34.142274 Y2.094626 Z-0.125000 I0.853085 J2.468252
G02 X33.533199 Y3.033250 Z-0.125000 I1.735813 J1.793299
G02 X33.282379 Y4.453835 Z-0.125000 I3.897519 J1.420584
G02 X33.518470 Y5.871665 Z-0.125000 I4.375392 J-0.000000
G02 X34.103691 Y6.851623 Z-0.125000 I2.610228 J-0.894079
G02 X35.036406 Y7.495680 Z-0.125000 I1.931070 J-1.799147
G02 X36.275479 Y7.739071 Z-0.125000 I1.239073 J-3.032295
G02 X37.428757 Y7.527695 Z-0.125000 I0.000000 J-3.251865
G02 X38.193706 Y7.011474 Z-0.125000 I-0.714444 J-1.883551
G02 X38.670315 Y6.204564 Z-0.125000 I-1.595299 J-1.486489
G02 X38.871703 Y4.944394 Z-0.125000 I-3.842017 J-1.260171
G01 X38.871703 Y4.382179 Z-0.125000
G01 X38.871703 Y4.382179 Z-0.125000
G00 Z5.000000

(End cutting path id: path5352)


(Start cutting path id: path5352)
(Change tool to Default tool)

G00 Z5.000000
G00 X37.862979 Y5.175929

G01 Z-0.125000 F100.0(Penetrate)
G03 X37.737624 Y5.944749 Z-0.125000 I-2.524783 J-0.017032 F400.000000
G03 X37.449565 Y6.438196 Z-0.125000 I-1.290934 J-0.422802
G03 X36.987136 Y6.749729 Z-0.125000 I-0.855704 J-0.771204
G03 X36.220358 Y6.884671 Z-0.125000 I-0.766778 J-2.111044
G03 X35.444974 Y6.746080 Z-0.125000 I0.000000 J-2.238329
G03 X34.891927 Y6.394113 Z-0.125000 I0.537073 J-1.454392
G03 X34.514426 Y5.850562 Z-0.125000 I1.318794 J-1.318779
G03 X34.335201 Y5.175929 Z-0.125000 I1.887237 J-0.862492
G01 X37.862979 Y5.175929 Z-0.125000
G01 X37.862979 Y5.175929 Z-0.125000
G00 Z5.000000

(End cutting path id: path5352)


(Start cutting path id: path5350)
(Change tool to Default tool)

G00 Z5.000000
G00 X31.678344 Y1.411112

G01 Z-0.125000 F100.0(Penetrate)
G01 X30.642058 Y1.411112 Z-0.125000 F400.000000
G01 X30.642058 Y2.094626 Z-0.125000
G02 X30.100112 Y1.711058 Z-0.125000 I-3.928189 J4.975518
G02 X29.638845 Y1.460727 Z-0.125000 I-2.115740 J3.348382
G02 X29.146519 Y1.298563 Z-0.125000 I-0.962036 J2.092295
G02 X28.580512 Y1.240227 Z-0.125000 I-0.566007 J2.716658
G02 X27.684640 Y1.408951 Z-0.125000 I0.000000 J2.462763
G02 X27.070183 Y1.830043 Z-0.125000 I0.598153 J1.531677
G02 X26.694096 Y2.488719 Z-0.125000 I1.298086 J1.177880
G02 X26.529992 Y3.571890 Z-0.125000 I3.492689 J1.083171
G01 X26.529992 Y7.568185 Z-0.125000
G01 X27.566277 Y7.568185 Z-0.125000
G01 X27.566277 Y4.062449 Z-0.125000
G03 X27.579081 Y3.594768 Z-0.125000 I8.547797 J-0.000000
G03 X27.610374 Y3.257692 Z-0.125000 I4.468480 J0.244854
G03 X27.683933 Y2.937319 Z-0.125000 I1.751568 J0.233537
G03 X27.797787 Y2.689946 Z-0.125000 I1.151631 J0.380154
G03 X27.973322 Y2.477375 Z-0.125000 I0.842606 J0.517038
G03 X28.183638 Y2.337168 Z-0.125000 I0.560792 J0.613366
G03 X28.428474 Y2.262221 Z-0.125000 I0.391510 J0.841588
G03 X28.872657 Y2.226904 Z-0.125000 I0.444183 J2.775612
G03 X29.265278 Y2.273170 Z-0.125000 I-0.000000 J1.689046
G03 X29.749090 Y2.436369 Z-0.125000 I-0.654926 J2.740304
G03 X30.211467 Y2.674549 Z-0.125000 I-1.631216 J3.734565
G03 X30.642058 Y2.971068 Z-0.125000 I-2.115342 J3.532708
G01 X30.642058 Y7.568185 Z-0.125000
G01 X31.678344 Y7.568185 Z-0.125000
G01 X31.678344 Y1.411112 Z-0.125000
G01 X31.678344 Y1.411112 Z-0.125000
G00 Z5.000000

(End cutting path id: path5350)


(Start cutting path id: path5348)
(Change tool to Default tool)

G00 Z5.000000
G00 X25.587414 Y6.438196

G01 Z-0.125000 F100.0(Penetrate)
G01 X25.532292 Y6.438196 Z-0.125000 F400.000000
G03 X25.299506 Y6.485732 Z-0.125000 I-0.852105 J-3.579073
G03 X25.080296 Y6.515384 Z-0.125000 I-0.536847 J-3.143672
G03 X24.864809 Y6.535031 Z-0.125000 I-0.372942 J-2.898739
G03 X24.567666 Y6.543041 Z-0.125000 I-0.297143 J-5.507477
G03 X24.100324 Y6.489509 Z-0.125000 I-0.000000 J-2.066745
G03 X23.641624 Y6.328073 Z-0.125000 I0.499432 J-2.151452
G03 X23.211789 Y6.092095 Z-0.125000 I1.643231 J-3.502616
G03 X22.781728 Y5.782368 Z-0.125000 I2.421727 J-3.816043
G01 X22.781728 Y1.411225 Z-0.125000
G01 X21.745443 Y1.411225 Z-0.125000
G01 X21.745443 Y7.568298 Z-0.125000
G01 X22.781728 Y7.568298 Z-0.125000
G01 X22.781728 Y6.658809 Z-0.125000
G02 X23.420517 Y7.119451 Z-0.125000 I4.731702 J-5.888382
G02 X23.867622 Y7.358833 Z-0.125000 I1.697274 J-2.632853
G02 X24.352535 Y7.516814 Z-0.125000 I1.020935 J-2.310498
G02 X24.832249 Y7.568298 Z-0.125000 I0.479714 J-2.209171
G02 X25.101952 Y7.562563 Z-0.125000 I-0.000000 J-6.344769
G02 X25.223612 Y7.551647 Z-0.125000 I-0.055296 J-1.299653
G02 X25.344539 Y7.537920 Z-0.125000 I-0.244347 J-2.692120
G02 X25.587414 Y7.502032 Z-0.125000 I-1.486453 J-10.899492
G01 X25.587414 Y6.438196 Z-0.125000
G01 X25.587414 Y6.438196 Z-0.125000
G00 Z5.000000

(End cutting path id: path5348)


(Start cutting path id: path5346)
(Change tool to Default tool)

G00 Z5.000000
G00 X20.411502 Y1.796967

G01 Z-0.125000 F100.0(Penetrate)
G02 X19.885773 Y1.568700 Z-0.125000 I-3.358751 J7.016110 F400.000000
G02 X19.424827 Y1.411112 Z-0.125000 I-2.046569 J5.233322
G02 X18.956558 Y1.309331 Z-0.125000 I-0.909102 J3.054466
G02 X18.438152 Y1.273303 Z-0.125000 I-0.518407 J3.711650
G02 X17.779864 Y1.324877 Z-0.125000 I0.000000 J4.226959
G02 X17.214454 Y1.466230 Z-0.125000 I0.512842 J3.252851
G02 X16.691944 Y1.718797 Z-0.125000 I0.905366 J2.539786
G02 X16.260851 Y2.061550 Z-0.125000 I1.285916 J2.059823
G02 X15.914918 Y2.494666 Z-0.125000 I1.648697 J1.671536
G02 X15.637978 Y3.064765 Z-0.125000 I2.607766 J1.619101
G02 X15.479330 Y3.681986 Z-0.125000 I3.086125 J1.122247
G02 X15.417492 Y4.481380 Z-0.125000 I5.136073 J0.799394
G02 X15.657017 Y5.895246 Z-0.125000 I4.292638 J0.000000
G02 X16.244315 Y6.851623 Z-0.125000 I2.482605 J-0.866019
G02 X17.177600 Y7.473283 Z-0.125000 I1.896453 J-1.835714
G02 X18.438152 Y7.711498 Z-0.125000 I1.260552 J-3.216102
G02 X18.961942 Y7.674080 Z-0.125000 I-0.000000 J-3.684850
G02 X19.474436 Y7.562682 Z-0.125000 I-0.522469 J-3.638235
G02 X19.978465 Y7.392032 Z-0.125000 I-1.691479 J-5.825582
G02 X20.411502 Y7.198869 Z-0.125000 I-1.743222 J-4.489986
G01 X20.411502 Y6.046838 Z-0.125000
G01 X20.356381 Y6.046838 Z-0.125000
G03 X19.861891 Y6.380231 Z-0.125000 I-2.671993 J-3.429705
G03 X19.375218 Y6.614585 Z-0.125000 I-1.786299 J-3.087030
G03 X18.864633 Y6.765907 Z-0.125000 I-1.107259 J-2.799006
G03 X18.394054 Y6.813015 Z-0.125000 I-0.470578 J-2.326831
G03 X17.587723 Y6.648116 Z-0.125000 I0.000000 J-2.053872
G03 X16.999480 Y6.217724 Z-0.125000 I0.632421 J-1.481557
G03 X16.648104 Y5.570160 Z-0.125000 I1.321382 J-1.136111
G03 X16.492362 Y4.481380 Z-0.125000 I3.727923 J-1.088780
G03 X16.642577 Y3.421930 Z-0.125000 I3.811194 J-0.000000
G03 X16.988455 Y2.767106 Z-0.125000 I1.753518 J0.507450
G03 X17.568057 Y2.339494 Z-0.125000 I1.182811 J0.996616
G03 X18.394054 Y2.171786 Z-0.125000 I0.825998 J1.950249
G03 X18.705735 Y2.191856 Z-0.125000 I0.000000 J2.430146
G03 X19.033464 Y2.254477 Z-0.125000 I-0.355709 J2.750523
G03 X19.352544 Y2.353448 Z-0.125000 I-0.795321 J3.127929
G03 X19.617752 Y2.469446 Z-0.125000 I-0.836660 J2.274054
G03 X19.840859 Y2.590253 Z-0.125000 I-2.528056 J4.935200
G03 X20.042188 Y2.711988 Z-0.125000 I-2.365740 J4.139924
G03 X20.238108 Y2.847687 Z-0.125000 I-3.711445 J5.567761
G03 X20.356381 Y2.937991 Z-0.125000 I-1.523297 J2.117705
G01 X20.411502 Y2.937991 Z-0.125000
G01 X20.411502 Y1.796967 Z-0.125000
G01 X20.411502 Y1.796967 Z-0.125000
G00 Z5.000000

(End cutting path id: path5346)


(Start cutting path id: path5344)
(Change tool to Default tool)

G00 Z5.000000
G00 X14.287501 Y4.382179

G01 Z-0.125000 F100.0(Penetrate)
G01 X9.750999 Y4.382179 Z-0.125000 F400.000000
G03 X9.798742 Y3.823654 Z-0.125000 I3.290858 J-0.000000
G03 X9.921876 Y3.389970 Z-0.125000 I2.097648 J0.361254
G03 X10.131850 Y2.998428 Z-0.125000 I1.963808 J0.801068
G03 X10.390409 Y2.700953 Z-0.125000 I1.380220 J0.938552
G03 X10.698599 Y2.472689 Z-0.125000 I1.207521 J1.308148
G03 X11.068403 Y2.304092 Z-0.125000 I1.009970 J1.725426
G03 X11.471018 Y2.207154 Z-0.125000 I0.766743 J2.299985
G03 X11.939323 Y2.171786 Z-0.125000 I0.468305 J3.082678
G03 X12.556378 Y2.231839 Z-0.125000 I0.000000 J3.200197
G03 X13.201607 Y2.419831 Z-0.125000 I-0.725095 J3.689957
G03 X13.818823 Y2.709236 Z-0.125000 I-2.064719 J5.206319
G03 X14.111112 Y2.915921 Z-0.125000 I-0.739589 J1.355922
G01 X14.166233 Y2.915921 Z-0.125000
G01 X14.166233 Y1.785932 Z-0.125000
G02 X13.636462 Y1.583180 Z-0.125000 I-3.337532 J7.927144
G02 X13.096876 Y1.416616 Z-0.125000 I-2.782727 J8.057408
G02 X12.546017 Y1.306297 Z-0.125000 I-1.078504 J3.954842
G02 X11.950348 Y1.267800 Z-0.125000 I-0.595670 J4.589243
G02 X10.515055 Y1.508840 Z-0.125000 I0.000000 J4.393805
G02 X9.558073 Y2.094626 Z-0.125000 I0.853084 J2.468246
G02 X8.948998 Y3.033251 Z-0.125000 I1.735812 J1.793300
G02 X8.698178 Y4.453835 Z-0.125000 I3.897512 J1.420584
G02 X8.934268 Y5.871666 Z-0.125000 I4.375397 J-0.000000
G02 X9.519489 Y6.851623 Z-0.125000 I2.610228 J-0.894078
G02 X10.452205 Y7.495681 Z-0.125000 I1.931075 J-1.799156
G02 X11.691277 Y7.739071 Z-0.125000 I1.239072 J-3.032293
G02 X12.844556 Y7.527695 Z-0.125000 I0.000000 J-3.251870
G02 X13.609506 Y7.011474 Z-0.125000 I-0.714444 J-1.883553
G02 X14.086113 Y6.204565 Z-0.125000 I-1.595301 J-1.486487
G02 X14.287501 Y4.944394 Z-0.125000 I-3.842028 J-1.260171
G01 X14.287501 Y4.382179 Z-0.125000
G01 X14.287501 Y4.382179 Z-0.125000
G00 Z5.000000

(End cutting path id: path5344)


(Start cutting path id: path5344)
(Change tool to Default tool)

G00 Z5.000000
G00 X13.278777 Y5.175929

G01 Z-0.125000 F100.0(Penetrate)
G03 X13.153418 Y5.944750 Z-0.125000 I-2.524884 J-0.017059 F400.000000
G03 X12.865365 Y6.438196 Z-0.125000 I-1.290958 J-0.422808
G03 X12.402935 Y6.749729 Z-0.125000 I-0.855703 J-0.771204
G03 X11.636155 Y6.884671 Z-0.125000 I-0.766780 J-2.111054
G03 X10.860772 Y6.746079 Z-0.125000 I-0.000000 J-2.238324
G03 X10.307726 Y6.394113 Z-0.125000 I0.537071 J-1.454384
G03 X9.930225 Y5.850562 Z-0.125000 I1.318798 J-1.318783
G03 X9.750999 Y5.175929 Z-0.125000 I1.887241 J-0.862496
G01 X13.278777 Y5.175929 Z-0.125000
G01 X13.278777 Y5.175929 Z-0.125000
G00 Z5.000000

(End cutting path id: path5344)


(Start cutting path id: path5342)
(Change tool to Default tool)

G00 Z5.000000
G00 X7.805209 Y1.411112

G01 Z-0.125000 F100.0(Penetrate)
G01 X1.400087 Y1.411112 Z-0.125000 F400.000000
G01 X1.400087 Y2.425363 Z-0.125000
G01 X6.432683 Y8.648560 Z-0.125000
G01 X1.587501 Y8.648560 Z-0.125000
G01 X1.587501 Y9.618699 Z-0.125000
G01 X7.683941 Y9.618699 Z-0.125000
G01 X7.683941 Y8.632050 Z-0.125000
G01 X2.601737 Y2.381251 Z-0.125000
G01 X7.805209 Y2.381251 Z-0.125000
G01 X7.805209 Y1.411112 Z-0.125000
G01 X7.805209 Y1.411112 Z-0.125000
G00 Z5.000000

(End cutting path id: path5342)


(Footer)
M5
G00 X0.0000 Y0.0000
M2
(Using default footer. To add your own footer create file "footer" in the output dir.)
(end)
%